( pcb2gcode 1.1.4 )

( This file uses 2 drill bit sizes. )

G94     ( Inches per minute feed rate. )
G20     ( Units == INCHES.             )
G90     ( Absolute coordinates.        )
S20000  ( RPM spindle speed.           )

G00 Z1.00000 ( Retract )
T1
M5      ( Spindle stop.                )
M6      ( Tool change.                 )
(MSG, CHANGE TOOL BIT: to drill size 0.05900 inch)
M0      ( Temporary machine stop.      )
M3      ( Spindle on clockwise.        )

G81 R0.80000 Z-0.08000 F3.00000 X11.49380 Y-0.74380
X11.30630 Y-1.49370
X11.24380 Y-0.64370
X11.21250 Y-2.24380
X11.05630 Y-1.39380
X11.02500 Y-2.99370
X10.96250 Y-2.14380
X10.77500 Y-2.89370
X10.74380 Y-0.74380
X10.49380 Y-0.64370
X10.36880 Y-1.49370
X10.18120 Y-2.24370
X10.11870 Y-1.39380
X9.99370 Y-0.74380
X9.99370 Y-3.74370
X9.93120 Y-2.14370
X9.80620 Y-2.99370
X9.74370 Y-0.64370
X9.74370 Y-3.64370
X9.61870 Y-1.49370
X9.55620 Y-2.89370
X9.43120 Y-2.24370
X9.36870 Y-1.39380
X9.24370 Y-0.74380
X9.24370 Y-3.74370
X9.18120 Y-2.14370
X9.05620 Y-2.99370
X8.99370 Y-0.64370
X8.99370 Y-3.64370
X8.86870 Y-1.49370
X8.80620 Y-2.89370
X8.68120 Y-2.24370
X8.61870 Y-1.39380
X8.49370 Y-0.74380
X8.43120 Y-2.14370
X8.30620 Y-2.99370
X8.30620 Y-3.74370
X8.24370 Y-0.64370
X8.11880 Y-1.49370
X8.05630 Y-2.89370
X8.05630 Y-3.64370
X7.93130 Y-2.24370
X7.86880 Y-1.39380
X7.74380 Y-0.74380
X7.68130 Y-2.14370
X7.55630 Y-2.99370
X7.49380 Y-0.64370
X7.36880 Y-1.49370
X7.30630 Y-2.89370
X7.18130 Y-2.24370
X7.11880 Y-1.39380
X6.99380 Y-0.74380
X6.93130 Y-2.14370
X6.80630 Y-2.99370
X6.74380 Y-0.64370
X6.61880 Y-1.49370
X6.55630 Y-2.89370
X6.43130 Y-2.24370
X6.36880 Y-1.39380
X6.24380 Y-0.74380
X6.24380 Y-3.74370
X6.18130 Y-2.14370
X6.05630 Y-2.99370
X5.99380 Y-0.64370
X5.99380 Y-3.64370
X5.86880 Y-1.49370
X5.80630 Y-2.89370
X5.68130 Y-2.24370
X5.61880 Y-1.39380
X5.49380 Y-0.74380
X5.43130 Y-2.14370
X5.30630 Y-2.99370
X5.24380 Y-0.64370
X5.11870 Y-1.49380
X5.05630 Y-2.89370
X4.93130 Y-2.24370
X4.86870 Y-1.39380
X4.74380 Y-0.74380
X4.68130 Y-2.14370
X4.55630 Y-2.99370
X4.49380 Y-0.64370
X4.36880 Y-1.49370
X4.30630 Y-2.89370
X4.18130 Y-2.24370
X4.18130 Y-3.74370
X4.11880 Y-1.39380
X3.99380 Y-0.74380
X3.93130 Y-2.14370
X3.93130 Y-3.64370
X3.80630 Y-2.99370
X3.74380 Y-0.64370
X3.61880 Y-1.49370
X3.55630 Y-2.89370
X3.43130 Y-2.24370
X3.36880 Y-1.39380
X3.24380 Y-0.74380
X3.24380 Y-3.74370
X3.18130 Y-2.14370
X3.05630 Y-2.99370
X2.99380 Y-0.64370
X2.99380 Y-3.64370
X2.86880 Y-1.49370
X2.80630 Y-2.89370
X2.68130 Y-2.24370
X2.61880 Y-1.39380
X2.49380 Y-0.74380
X2.43130 Y-2.14370
X2.24380 Y-0.64370
X2.11880 Y-1.49370
X2.02500 Y-2.99370
X1.86880 Y-1.39380
X1.77500 Y-2.89370
X1.74380 Y-0.74380
X1.49380 Y-0.64370
X1.46250 Y-2.24370
X1.21250 Y-2.14370
X1.18130 Y-1.49370
X0.99380 Y-0.74380
X0.99380 Y-2.99370
X0.93130 Y-1.39380
X0.74380 Y-0.64370
X0.74380 Y-2.89370


G00 Z1.00000 ( Retract )
T2
M5      ( Spindle stop.                )
M6      ( Tool change.                 )
(MSG, CHANGE TOOL BIT: to drill size 0.09800 inch)
M0      ( Temporary machine stop.      )
M3      ( Spindle on clockwise.        )

G81 R0.80000 Z-0.08000 F3.00000 X11.57260 Y-2.71880
X10.72880 Y-1.59380
X5.94760 Y-2.34380
X4.63510 Y-3.84380
X1.44760 Y-1.59380
X0.69760 Y-2.34380


G00 Z1.00000 ( All done -- retract )

M9 ( Coolant off. )
M2 ( Program end. )

