( pcb2gcode 1.1.4 )

( This file uses 1 drill bit sizes. )

G94     ( Inches per minute feed rate. )
G20     ( Units == INCHES.             )
G90     ( Absolute coordinates.        )
S20000  ( RPM spindle speed.           )

G92 X2.5 Y-3 Z0
G00 Z1.00000 ( Retract )
T1
M5      ( Spindle stop.                )
M6      ( Tool change.                 )
(MSG, CHANGE TOOL BIT: to drill size 1.49900 mm)
M0      ( Temporary machine stop.      )
M3      ( Spindle on clockwise.        )

G81 R0.40000 Z-0.08000 F3.00000 X13.69848 Y-3.87366
X13.51096 Y-4.62366
X13.44848 Y-3.77366
X13.41722 Y-5.37366
X13.26096 Y-4.52366
X13.22974 Y-6.12366
X13.16722 Y-5.27366
X12.97974 Y-6.02366
X12.94848 Y-3.87366
X12.69848 Y-3.77366
X12.57348 Y-4.62366
X12.38596 Y-5.37366
X12.32348 Y-4.52366
X12.19848 Y-3.87366
X12.19848 Y-6.87366
X12.13596 Y-5.27366
X12.01096 Y-6.12366
X11.94848 Y-3.77366
X11.94848 Y-6.77366
X11.82348 Y-4.62366
X11.76096 Y-6.02366
X11.63596 Y-5.37366
X11.57348 Y-4.52366
X11.44848 Y-3.87366
X11.44848 Y-6.87366
X11.38596 Y-5.27366
X11.26096 Y-6.12366
X11.19848 Y-3.77366
X11.19848 Y-6.77366
X11.07348 Y-4.62366
X11.01096 Y-6.02366
X10.88596 Y-5.37366
X10.82348 Y-4.52366
X10.69848 Y-3.87366
X10.63596 Y-5.27366
X10.51096 Y-6.12366
X10.44848 Y-3.77366
X10.32348 Y-4.62366
X10.26096 Y-6.02366
X10.13596 Y-5.37366
X10.07348 Y-4.52366
X9.94848 Y-3.87366
X9.88596 Y-5.27366
X9.76096 Y-6.12366
X9.69848 Y-3.77366
X9.57348 Y-4.62366
X9.51096 Y-6.02366
X9.38596 Y-5.37366
X9.32348 Y-4.52366
X9.19848 Y-3.87366
X9.13596 Y-5.27366
X9.01096 Y-6.12366
X8.94848 Y-3.77366
X8.82348 Y-4.62366
X8.76096 Y-6.02366
X8.63596 Y-5.37366
X8.57348 Y-4.52366
X8.44848 Y-3.87366
X8.44848 Y-6.87366
X8.38596 Y-5.27366
X8.26096 Y-6.12366
X8.19848 Y-3.77366
X8.19848 Y-6.77366
X8.07348 Y-4.62366
X8.01096 Y-6.02366
X7.88596 Y-5.37366
X7.82348 Y-4.52366
X7.69848 Y-3.87366
X7.63596 Y-5.27366
X7.51096 Y-6.12366
X7.44848 Y-3.77366
X7.32344 Y-4.62366
X7.26096 Y-6.02366
X7.13596 Y-5.37366
X7.07344 Y-4.52366
X6.94848 Y-3.87366
X6.88596 Y-5.27366
X6.76096 Y-6.12366
X6.69848 Y-3.77366
X6.57348 Y-4.62366
X6.51096 Y-6.02366
X6.38596 Y-5.37366
X6.32348 Y-4.52366
X6.19848 Y-3.87366
X6.13596 Y-5.27366
X6.01096 Y-6.12366
X6.01096 Y-6.87366
X5.94848 Y-3.77366
X5.82348 Y-4.62366
X5.76096 Y-6.02366
X5.76096 Y-6.77366
X5.63596 Y-5.37366
X5.57348 Y-4.52366
X5.44848 Y-3.87366
X5.38596 Y-5.27366
X5.26096 Y-6.12366
X5.19848 Y-3.77366
X5.07348 Y-4.62366
X5.07348 Y-6.87366
X5.01096 Y-6.02366
X4.88596 Y-5.37366
X4.82348 Y-4.52366
X4.82348 Y-6.77366
X4.69848 Y-3.87366
X4.63596 Y-5.27366
X4.44848 Y-3.77366
X4.32348 Y-4.62366
X4.22974 Y-6.12366
X4.07348 Y-4.52366
X3.97974 Y-6.02366
X3.94848 Y-3.87366
X3.69848 Y-3.77366
X3.66722 Y-5.37366
X3.41722 Y-5.27366
X3.38596 Y-4.62366
X3.19848 Y-3.87366
X3.19848 Y-6.12366
X3.13596 Y-4.52366
X2.94848 Y-3.77366
X2.94848 Y-6.02366


G00 Z1.00000 ( All done -- retract )

M9 ( Coolant off. )
M2 ( Program end. )

