( pcb2gcode 1.1.4 )

G94     ( Inches per minute feed rate. )
G20     ( Units == INCHES.             )
G90     ( Absolute coordinates.        )
S20000  ( RPM spindle speed.           )
M3      ( Spindle on clockwise.        )

G64 P0.00500 ( set maximum deviation from commanded toolpath )

G04 P0 ( dwell for no time -- G64 should not smooth over this point )
G00 Z0.40000 ( retract )

G00 X12.25195 Y-3.38441 ( rapid move to begin. )
G01 Z-0.08000 F3.00000 ( plunge. )
G04 P0 ( dwell for no time -- G64 should not smooth over this point )
X12.25195 Y-3.38441
X12.25195 Y-3.57541
X2.72895 Y-3.57541
X2.72895 Y-3.57641
X2.71895 Y-3.57641
X2.71895 Y-3.57741
X2.71295 Y-3.57741
X2.71295 Y-3.57841
X2.70995 Y-3.57841
X2.70995 Y-3.57941
X2.70595 Y-3.57941
X2.70595 Y-3.58041
X2.70295 Y-3.58041
X2.70295 Y-3.58141
X2.69995 Y-3.58141
X2.69995 Y-3.58241
X2.69795 Y-3.58241
X2.69795 Y-3.58341
X2.69595 Y-3.58341
X2.69595 Y-3.58441
X2.69395 Y-3.58441
X2.69395 Y-3.58541
X2.69295 Y-3.58541
X2.69295 Y-3.58641
X2.69095 Y-3.58641
X2.69095 Y-3.58741
X2.68895 Y-3.58741
X2.68895 Y-3.58841
X2.68695 Y-3.58841
X2.68695 Y-3.58941
X2.68595 Y-3.58941
X2.68595 Y-3.59041
X2.68495 Y-3.59041
X2.68495 Y-3.59141
X2.68295 Y-3.59141
X2.68295 Y-3.59241
X2.68195 Y-3.59241
X2.68195 Y-3.59341
X2.68095 Y-3.59341
X2.68095 Y-3.59441
X2.67995 Y-3.59441
X2.67995 Y-3.59541
X2.67895 Y-3.59541
X2.67895 Y-3.59641
X2.67695 Y-3.59641
X2.67695 Y-3.59741
X2.67595 Y-3.59741
X2.67595 Y-3.59841
X2.67495 Y-3.59841
X2.67495 Y-3.59941
X2.67395 Y-3.59941
X2.67395 Y-3.60041
X2.67295 Y-3.60041
X2.67295 Y-3.60241
X2.67195 Y-3.60241
X2.67195 Y-3.60341
X2.67095 Y-3.60341
X2.67095 Y-3.60441
X2.66995 Y-3.60441
X2.66995 Y-3.60541
X2.66895 Y-3.60541
X2.66895 Y-3.60641
X2.66795 Y-3.60641
X2.66795 Y-3.60841
X2.66695 Y-3.60841
X2.66695 Y-3.60941
X2.66595 Y-3.60941
X2.66595 Y-3.61041
X2.66495 Y-3.61041
X2.66495 Y-3.61241
X2.66395 Y-3.61241
X2.66395 Y-3.61441
X2.66295 Y-3.61441
X2.66295 Y-3.61641
X2.66195 Y-3.61641
X2.66195 Y-3.61741
X2.66095 Y-3.61741
X2.66095 Y-3.61941
X2.65995 Y-3.61941
X2.65995 Y-3.62141
X2.65895 Y-3.62141
X2.65895 Y-3.62341
X2.65795 Y-3.62341
X2.65795 Y-3.62641
X2.65695 Y-3.62641
X2.65695 Y-3.62941
X2.65595 Y-3.62941
X2.65595 Y-3.63341
X2.65495 Y-3.63341
X2.65495 Y-3.63641
X2.65395 Y-3.63641
X2.65395 Y-3.64241
X2.65295 Y-3.64241
X2.65295 Y-3.65241
X2.65195 Y-3.65241
X2.65195 Y-7.29441
X2.65295 Y-7.29441
X2.65295 Y-7.30441
X2.65395 Y-7.30441
X2.65395 Y-7.31041
X2.65495 Y-7.31041
X2.65495 Y-7.31341
X2.65595 Y-7.31341
X2.65595 Y-7.31641
X2.65695 Y-7.31641
X2.65695 Y-7.31941
X2.65795 Y-7.31941
X2.65795 Y-7.32341
X2.65895 Y-7.32341
X2.65895 Y-7.32541
X2.65995 Y-7.32541
X2.65995 Y-7.32641
X2.66095 Y-7.32641
X2.66095 Y-7.32841
X2.66195 Y-7.32841
X2.66195 Y-7.33041
X2.66295 Y-7.33041
X2.66295 Y-7.33241
X2.66395 Y-7.33241
X2.66395 Y-7.33441
X2.66495 Y-7.33441
X2.66495 Y-7.33641
X2.66595 Y-7.33641
X2.66595 Y-7.33741
X2.66695 Y-7.33741
X2.66695 Y-7.33841
X2.66795 Y-7.33841
X2.66795 Y-7.33941
X2.66895 Y-7.33941
X2.66895 Y-7.34141
X2.66995 Y-7.34141
X2.66995 Y-7.34241
X2.67095 Y-7.34241
X2.67095 Y-7.34341
X2.67195 Y-7.34341
X2.67195 Y-7.34441
X2.67295 Y-7.34441
X2.67295 Y-7.34541
X2.67395 Y-7.34541
X2.67395 Y-7.34741
X2.67495 Y-7.34741
X2.67495 Y-7.34841
X2.67595 Y-7.34841
X2.67595 Y-7.34941
X2.67795 Y-7.34941
X2.67795 Y-7.35041
X2.67895 Y-7.35041
X2.67895 Y-7.35141
X2.67995 Y-7.35141
X2.67995 Y-7.35241
X2.68095 Y-7.35241
X2.68095 Y-7.35341
X2.68195 Y-7.35341
X2.68195 Y-7.35441
X2.68395 Y-7.35441
X2.68395 Y-7.35541
X2.68495 Y-7.35541
X2.68495 Y-7.35641
X2.68595 Y-7.35641
X2.68595 Y-7.35741
X2.68795 Y-7.35741
X2.68795 Y-7.35841
X2.68895 Y-7.35841
X2.68895 Y-7.35941
X2.69095 Y-7.35941
X2.69095 Y-7.36041
X2.69295 Y-7.36041
X2.69295 Y-7.36141
X2.69495 Y-7.36141
X2.69495 Y-7.36241
X2.69695 Y-7.36241
X2.69695 Y-7.36341
X2.69895 Y-7.36341
X2.69895 Y-7.36441
X2.70095 Y-7.36441
X2.70095 Y-7.36541
X2.70395 Y-7.36541
X2.70395 Y-7.36641
X2.70695 Y-7.36641
X2.70695 Y-7.36741
X2.71095 Y-7.36741
X2.71095 Y-7.36841
X2.71395 Y-7.36841
X2.71395 Y-7.36941
X2.72195 Y-7.36941
X2.72195 Y-7.37041
X13.87795 Y-7.37041
X13.87795 Y-7.36941
X13.88595 Y-7.36941
X13.88595 Y-7.36841
X13.88895 Y-7.36841
X13.88895 Y-7.36741
X13.89195 Y-7.36741
X13.89195 Y-7.36641
X13.89595 Y-7.36641
X13.89595 Y-7.36541
X13.89895 Y-7.36541
X13.89895 Y-7.36441
X13.90095 Y-7.36441
X13.90095 Y-7.36341
X13.90295 Y-7.36341
X13.90295 Y-7.36241
X13.90495 Y-7.36241
X13.90495 Y-7.36141
X13.90695 Y-7.36141
X13.90695 Y-7.36041
X13.90795 Y-7.36041
X13.90795 Y-7.35941
X13.90995 Y-7.35941
X13.90995 Y-7.35841
X13.91195 Y-7.35841
X13.91195 Y-7.35741
X13.91395 Y-7.35741
X13.91395 Y-7.35641
X13.91495 Y-7.35641
X13.91495 Y-7.35541
X13.91595 Y-7.35541
X13.91595 Y-7.35441
X13.91695 Y-7.35441
X13.91695 Y-7.35341
X13.91795 Y-7.35341
X13.91795 Y-7.35241
X13.91995 Y-7.35241
X13.91995 Y-7.35141
X13.92095 Y-7.35141
X13.92095 Y-7.35041
X13.92195 Y-7.35041
X13.92195 Y-7.34941
X13.92295 Y-7.34941
X13.92295 Y-7.34841
X13.92495 Y-7.34841
X13.92495 Y-7.34641
X13.92595 Y-7.34641
X13.92595 Y-7.34541
X13.92695 Y-7.34541
X13.92695 Y-7.34441
X13.92795 Y-7.34441
X13.92795 Y-7.34341
X13.92895 Y-7.34341
X13.92895 Y-7.34141
X13.92995 Y-7.34141
X13.92995 Y-7.34041
X13.93095 Y-7.34041
X13.93095 Y-7.33941
X13.93195 Y-7.33941
X13.93195 Y-7.33841
X13.93295 Y-7.33841
X13.93295 Y-7.33741
X13.93395 Y-7.33741
X13.93395 Y-7.33541
X13.93495 Y-7.33541
X13.93495 Y-7.33341
X13.93595 Y-7.33341
X13.93595 Y-7.33141
X13.93695 Y-7.33141
X13.93695 Y-7.33041
X13.93795 Y-7.33041
X13.93795 Y-7.32841
X13.93895 Y-7.32841
X13.93895 Y-7.32641
X13.93995 Y-7.32641
X13.93995 Y-7.32441
X13.94095 Y-7.32441
X13.94095 Y-7.32241
X13.94195 Y-7.32241
X13.94195 Y-7.31941
X13.94295 Y-7.31941
X13.94295 Y-7.31541
X13.94395 Y-7.31541
X13.94395 Y-7.31241
X13.94495 Y-7.31241
X13.94495 Y-7.30941
X13.94595 Y-7.30941
X13.94595 Y-7.30141
X13.94695 Y-7.30141
X13.94695 Y-3.64541
X13.94595 Y-3.64541
X13.94595 Y-3.63741
X13.94495 Y-3.63741
X13.94495 Y-3.63441
X13.94395 Y-3.63441
X13.94395 Y-3.63041
X13.94295 Y-3.63041
X13.94295 Y-3.62741
X13.94195 Y-3.62741
X13.94195 Y-3.62441
X13.94095 Y-3.62441
X13.94095 Y-3.62241
X13.93995 Y-3.62241
X13.93995 Y-3.62041
X13.93895 Y-3.62041
X13.93895 Y-3.61841
X13.93795 Y-3.61841
X13.93795 Y-3.61641
X13.93695 Y-3.61641
X13.93695 Y-3.61441
X13.93595 Y-3.61441
X13.93595 Y-3.61241
X13.93495 Y-3.61241
X13.93495 Y-3.61141
X13.93395 Y-3.61141
X13.93395 Y-3.60941
X13.93295 Y-3.60941
X13.93295 Y-3.60841
X13.93195 Y-3.60841
X13.93195 Y-3.60741
X13.93095 Y-3.60741
X13.93095 Y-3.60541
X13.92995 Y-3.60541
X13.92995 Y-3.60441
X13.92895 Y-3.60441
X13.92895 Y-3.60341
X13.92795 Y-3.60341
X13.92795 Y-3.60241
X13.92695 Y-3.60241
X13.92695 Y-3.60141
X13.92595 Y-3.60141
X13.92595 Y-3.59941
X13.92495 Y-3.59941
X13.92495 Y-3.59841
X13.92395 Y-3.59841
X13.92395 Y-3.59741
X13.92195 Y-3.59741
X13.92195 Y-3.59641
X13.92095 Y-3.59641
X13.92095 Y-3.59541
X13.91995 Y-3.59541
X13.91995 Y-3.59441
X13.91895 Y-3.59441
X13.91895 Y-3.59341
X13.91795 Y-3.59341
X13.91795 Y-3.59241
X13.91595 Y-3.59241
X13.91595 Y-3.59141
X13.91495 Y-3.59141
X13.91495 Y-3.59041
X13.91395 Y-3.59041
X13.91395 Y-3.58941
X13.91295 Y-3.58941
X13.91295 Y-3.58841
X13.91095 Y-3.58841
X13.91095 Y-3.58741
X13.90895 Y-3.58741
X13.90895 Y-3.58641
X13.90695 Y-3.58641
X13.90695 Y-3.58541
X13.90495 Y-3.58541
X13.90495 Y-3.58441
X13.90295 Y-3.58441
X13.90295 Y-3.58341
X13.90195 Y-3.58341
X13.90195 Y-3.58241
X13.89995 Y-3.58241
X13.89995 Y-3.58141
X13.89695 Y-3.58141
X13.89695 Y-3.58041
X13.89295 Y-3.58041
X13.89295 Y-3.57941
X13.88995 Y-3.57941
X13.88995 Y-3.57841
X13.88695 Y-3.57841
X13.88695 Y-3.57741
X13.88095 Y-3.57741
X13.88095 Y-3.57641
X13.87095 Y-3.57641
X13.87095 Y-3.57541
X12.59695 Y-3.57541
X12.59695 Y-3.36641
X12.59595 Y-3.36641
X12.59595 Y-3.36541
X12.59495 Y-3.36541
X12.59495 Y-3.36441
X12.25395 Y-3.36441
X12.25395 Y-3.36541
X12.25295 Y-3.36541
X12.25295 Y-3.36641
X12.25195 Y-3.36641
X12.25195 Y-3.38441

G04 P0 ( dwell for no time -- G64 should not smooth over this point )
G00 Z1.00000 ( retract )

M9 ( Coolant off. )
M2 ( Program end. )

