G40 (disable tool radius compensation)
G49 (disable tool length compensation)
G80 (cancel modal motion)
G54 (select coordinate system 1)
G90 (disable incremental moves)
G21 (metric)
F2000.00000
S250.00000
G61 (exact path mode)
;PYCAM_TOOLPATH_SETTINGS: START
;[Bounds]
;maxz = 34.0
;maxx = 157.0
;maxy = 127.0
;minx = -2.0
;miny = 3.0
;minz = 8.0
;
;[Tool]
;torus_radius = 0.125
;shape = CylindricalCutter
;tool_radius = 3.0
;feedrate = 2000.0
;
;[Process]
;engrave_offset = 0.0
;step_down = 3.0
;generator = DropCutter
;postprocessor = PathAccumulator
;overlap_percent = 90
;milling_style = ignore
;material_allowance = 0.5
;pocketing_type = none
;path_direction = y
;
;PYCAM_TOOLPATH_SETTINGS: END
G0 Z35.00000
 X-2.00000 Y3.00000
G1 Z8.00000
 Y8.22892
 Y8.97590 Z8.30004
 Y10.00301 Z8.75486
 Y10.09639 Z8.79603
 Y10.28313 Z8.86668
 Y10.37651 Z8.89544
 Y10.46988 Z8.92011
 Y11.21687 Z9.03460
 Y11.96386 Z9.13540
 Y12.71084 Z9.20969
 Y13.45783 Z9.25174
 Y14.20482 Z9.29520
 Y14.95181 Z9.34007
 Y15.69880 Z9.38632
 Y16.44578 Z9.43408
 Y17.19277 Z9.48334
 Y17.93976 Z9.53401
 Y18.68675 Z9.58606
 Y19.43373 Z9.63955
 Y20.18072 Z9.69445
 Y20.92771 Z9.75076
 Y21.67470 Z9.80855
 Y22.42169 Z9.86838
 Y23.16867 Z9.93165
 Y25.40964 Z10.12144
 Y26.15663 Z10.18623
 Y26.90361 Z10.25662
 Y29.14458 Z10.46785
 Y29.89157 Z10.54006
 Y30.63855 Z10.61765
 Y32.87952 Z10.85039
 Y33.62651 Z10.93006
 Y36.61446 Z11.26912
 Y37.36145 Z11.35621
 Y40.34940 Z11.72413
 Y41.09639 Z11.81870
 Y41.84337 Z11.91791
 Y44.08434 Z12.21556
 Y44.83133 Z12.31763
 Y45.57831 Z12.42410
 Y47.81928 Z12.74355
 Y48.56627 Z12.85313
 Y51.55422 Z13.30825
 Y52.30120 Z13.42543
 Y55.28916 Z13.90986
 Y56.03614 Z14.03459
 Y59.02410 Z14.54846
 Y59.77108 Z14.68085
 Y62.75904 Z15.22432
 Y63.50602 Z15.36438
 Y66.49398 Z15.93759
 Y67.24096 Z16.08537
 Y70.22892 Z16.68850
 Y70.97590 Z16.84400
 Y73.96386 Z17.47721
 Y74.71084 Z17.64054
 Y77.69880 Z18.30403
 Y78.44578 Z18.47520
 Y81.43373 Z19.16916
 Y82.18072 Z19.34823
 Y85.16867 Z20.07287
 Y85.91566 Z20.25986
 Y88.90361 Z21.01539
 Y89.65060 Z21.21043
 Y92.63855 Z21.99709
 Y93.38554 Z22.20022
 Y96.37349 Z23.01825
 Y97.12048 Z23.22700
 Y97.86747 Z23.43762
 Y98.61446 Z23.64972
 Y99.36145 Z23.86340
 Y100.10843 Z24.07894
 Y100.85542 Z24.29600
 Y101.60241 Z24.51456
 Y102.34940 Z24.73457
 Y103.09639 Z24.95656
 Y103.84337 Z25.18012
 Y104.59036 Z25.39342
 Y105.71084 Z25.66709
 Y106.08434 Z25.75836
 Y106.83133 Z25.86980
 Y107.57831 Z25.91557
 Y108.32530 Z25.96127
 Y109.07229 Z25.96921
 Y109.81928 Z25.96118
 Y111.12651 Z25.89809
 Y111.26657 Z25.89112
 Y111.31325 Z25.88872
 Y111.50000 Z25.87179
 Y111.59337 Z25.85823
 Y111.68675 Z25.84118
 Y112.06024 Z25.73881
 Y114.67470 Z24.91357
 Y114.86145 Z24.85433
 Y114.95482 Z24.82173
 Y115.00151 Z24.80336
 Y115.02485 Z24.79362
 Y115.03652 Z24.78861
 Y115.04819 Z24.78350
 Y115.79518 Z24.06574
 Y117.82022 Z22.11325
 Y117.82605 Z22.10688
 Y117.83773 Z22.09260
 Y117.84940 Z22.07668
 Y118.03614 Z21.66306
 Y119.29669 Z18.75674
 Y119.34337 Z18.64927
 Y119.53012 Z18.02284
 Y120.27711 Z14.57582
 Y120.65060 Z12.62760
 Y121.22543 Z8.00748
 Y121.22689 Z8.00000
 Y127.00000
 X-1.40226
 Y122.51807
 Y121.77108 Z12.42370
 Y121.02410 Z16.20002
 Y120.65060 Z17.92352
 Y120.55723 Z18.35451
 Y120.54556 Z18.40795
 Y120.53389 Z18.46166
 Y120.52805 Z18.48974
 Y120.52513 Z18.49978
 Y120.52221 Z18.50746
 Y120.51054 Z18.53410
 Y119.06325 Z21.87099
 Y119.01657 Z21.97741
 Y118.96988 Z22.08428
 Y118.92319 Z22.19179
 Y118.91152 Z22.21587
 Y118.89985 Z22.23681
 Y118.88818 Z22.25548
 Y118.88234 Z22.26413
 Y118.87651 Z22.27238
 Y118.78313 Z22.37321
 Y117.28916 Z23.81395
 Y116.54217 Z24.53372
 Y115.98193 Z25.07136
 Y115.88855 Z25.16100
 Y115.84187 Z25.20326
 Y115.81852 Z25.22313
 Y115.80685 Z25.23277
 Y115.79518 Z25.24222
 Y115.70181 Z25.31152
 Y115.60843 Z25.37102
 Y115.51506 Z25.42224
 Y115.42169 Z25.46631
 Y115.04819 Z25.59563
 Y114.30120 Z25.83267
 Y113.55422 Z26.06943
 Y112.06024 Z26.54099
 Y111.87349 Z26.59358
 Y111.78012 Z26.61433
 Y111.68675 Z26.63150
 Y111.31325 Z26.66705
 Y110.56627 Z26.70421
 Y109.81928 Z26.74030
 Y109.07229 Z26.74820
 Y108.32530 Z26.74055
 Y107.57831 Z26.69484
 Y106.83133 Z26.64805
 Y106.64458 Z26.63631
 Y106.55120 Z26.63041
 Y106.45783 Z26.62237
 Y106.08434 Z26.55581
 Y105.33735 Z26.37613
 Y104.59036 Z26.19417
 Y103.84337 Z25.99346
 Y103.09639 Z25.76927
 Y102.34940 Z25.54713
 Y101.60241 Z25.32666
 Y100.85542 Z25.10746
 Y100.10843 Z24.88979
 Y99.36145 Z24.67402
 Y98.61446 Z24.45991
 Y97.86747 Z24.24726
 Y97.12048 Z24.03605
 Y96.37349 Z23.82656
 Y95.62651 Z23.62139
 Y92.63855 Z22.80337
 Y91.89157 Z22.60595
 Y91.14458 Z22.40929
 Y90.39759 Z22.21263
 Y88.90361 Z21.81931
 Y88.15663 Z21.63001
 Y87.40964 Z21.44113
 Y86.66265 Z21.25227
 Y85.16867 Z20.87451
 Y84.42169 Z20.69328
 Y82.18072 Z20.14980
 Y81.43373 Z19.96888
 Y78.44578 Z19.27492
 Y77.69880 Z19.10199
 Y76.20482 Z18.77025
 Y75.45783 Z18.60436
 Y74.71084 Z18.43849
 Y73.96386 Z18.27350
 Y72.46988 Z17.95689
 Y71.72289 Z17.79861
 Y70.97590 Z17.64031
 Y70.22892 Z17.48320
 Y67.24096 Z16.88007
 Y66.49398 Z16.73078
 Y65.00000 Z16.44418
 Y64.25301 Z16.30089
 Y63.50602 Z16.15759
 Y62.75904 Z16.01608
 Y59.77108 Z15.47262
 Y59.02410 Z15.33888
 Y56.03614 Z14.82502
 Y55.28916 Z14.69902
 Y53.79518 Z14.45680
 Y53.04819 Z14.33568
 Y52.30120 Z14.21457
 Y51.55422 Z14.09622
 Y50.06024 Z13.86866
 Y49.31325 Z13.75489
 Y48.56627 Z13.64111
 Y47.81928 Z13.53041
 Y46.32530 Z13.31744
 Y45.57831 Z13.21098
 Y44.83133 Z13.10449
 Y44.08434 Z13.00139
 Y42.59036 Z12.80296
 Y41.84337 Z12.70375
 Y41.09639 Z12.60453
 Y40.34940 Z12.50900
 Y37.36145 Z12.14108
 Y36.61446 Z12.05311
 Y33.62651 Z11.71405
 Y32.87952 Z11.63356
 Y31.38554 Z11.47841
 Y30.63855 Z11.40081
 Y29.89157 Z11.32324
 Y29.14458 Z11.25029
 Y28.39759 Z11.17988
 Y27.65060 Z11.10949
 Y26.15663 Z10.96867
 Y25.40964 Z10.90321
 Y24.66265 Z10.83995
 Y23.91566 Z10.77668
 Y22.42169 Z10.65016
 Y21.67470 Z10.58998
 Y20.92771 Z10.53202
 Y20.18072 Z10.47558
 Y19.43373 Z10.42058
 Y18.68675 Z10.36700
 Y17.93976 Z10.31486
 Y17.19277 Z10.26410
 Y16.44578 Z10.21475
 Y15.69880 Z10.16683
 Y14.95181 Z10.12050
 Y14.20482 Z10.07555
 Y13.45783 Z10.03201
 Y12.71084 Z9.98989
 Y11.96386 Z9.91898
 Y11.21687 Z9.81794
 Y10.56325 Z9.72892
 Y10.51657 Z9.72238
 Y10.46988 Z9.71502
 Y10.28313 Z9.67632
 Y10.18976 Z9.65115
 Y10.09639 Z9.62187
 Y9.72289 Z9.46745
 Y8.97590 Z9.13667
 Y8.22892 Z8.80575
 Y7.20181 Z8.35003
 Y7.15512 Z8.32850
 Y7.13178 Z8.31706
 Y7.10843 Z8.30513
 Y7.01506 Z8.25208
 Y6.96837 Z8.22197
 Y6.94503 Z8.20591
 Y6.92169 Z8.18913
 Y6.87500 Z8.15320
 Y6.82831 Z8.11377
 Y6.78163 Z8.07030
 Y6.75828 Z8.04685
 Y6.74661 Z8.03464
 Y6.74078 Z8.02841
 Y6.73786 Z8.02527
 Y6.73640 Z8.02369
 Y6.73494 Z8.02210
 Y5.98795 Z8.00000
 Y3.00000
 X-0.80451
 Y5.61446
 Y5.98795 Z8.32620
 Y6.26807 Z8.63864
 Y6.31476 Z8.68885
 Y6.33810 Z8.71206
 Y6.36145 Z8.73410
 Y6.45482 Z8.81231
 Y6.50151 Z8.84633
 Y6.54819 Z8.87748
 Y6.73494 Z8.97872
 Y7.48193 Z9.31027
 Y8.97590 Z9.97314
 Y9.34940 Z10.13865
 Y9.67620 Z10.28337
 Y9.72289 Z10.30406
 Y9.90964 Z10.37699
 Y10.00301 Z10.40681
 Y10.09639 Z10.43248
 Y10.46988 Z10.49911
 Y11.21687 Z10.60085
 Y11.96386 Z10.70255
 Y12.71084 Z10.77009
 Y13.45783 Z10.81229
 Y14.20482 Z10.85590
 Y14.95181 Z10.90092
 Y15.69880 Z10.94740
 Y16.44578 Z10.99542
 Y17.19277 Z11.04486
 Y17.93976 Z11.09571
 Y18.68675 Z11.14795
 Y19.43373 Z11.20160
 Y20.18072 Z11.25671
 Y20.92771 Z11.31334
 Y21.67470 Z11.37140
 Y22.42169 Z11.43193
 Y24.66265 Z11.62172
 Y25.40964 Z11.68499
 Y26.15663 Z11.75111
 Y28.39759 Z11.96234
 Y29.14458 Z12.03273
 Y29.89157 Z12.10641
 Y32.13253 Z12.33915
 Y32.87952 Z12.41674
 Y33.62651 Z12.49803
 Y35.86747 Z12.75234
 Y36.61446 Z12.83709
 Y37.36145 Z12.92595
 Y40.34940 Z13.29387
 Y41.09639 Z13.39036
 Y43.33735 Z13.68801
 Y44.08434 Z13.78722
 Y44.83133 Z13.89135
 Y47.07229 Z14.21081
 Y47.81928 Z14.31727
 Y48.56627 Z14.42908
 Y50.80723 Z14.77042
 Y51.55422 Z14.88419
 Y52.30120 Z15.00373
 Y54.54217 Z15.36705
 Y55.28916 Z15.48818
 Y56.03614 Z15.61544
 Y59.02410 Z16.12930
 Y59.77108 Z16.26438
 Y62.75904 Z16.80785
 Y63.50602 Z16.95078
 Y66.49398 Z17.52399
 Y69.48193 Z18.12711
 Y70.22892 Z18.27829
 Y73.21687 Z18.91151
 Y73.96386 Z19.07058
 Y76.20482 Z19.56819
 Y76.95181 Z19.73408
 Y77.69880 Z19.90115
 Y80.68675 Z20.59511
 Y81.43373 Z20.77021
 Y84.42169 Z21.49485
 Y85.16867 Z21.67801
 Y87.40964 Z22.24466
 Y88.15663 Z22.43351
 Y88.90361 Z22.62484
 Y91.14458 Z23.21483
 Y91.89157 Z23.41148
 Y92.63855 Z23.61102
 Y95.62651 Z24.42905
 Y96.37349 Z24.63561
 Y97.12048 Z24.84532
 Y97.86747 Z25.05690
 Y98.61446 Z25.27015
 Y99.36145 Z25.48487
 Y100.10843 Z25.70094
 Y100.85542 Z25.91892
 Y101.60241 Z26.13871
 Y102.34940 Z26.35984
 Y103.09639 Z26.58253
 Y103.84337 Z26.80680
 Y104.59036 Z26.99393
 Y105.99096 Z27.33082
 Y106.08434 Z27.35218
 Y106.83133 Z27.42629
 Y107.57831 Z27.47323
 Y108.32530 Z27.51982
 Y109.07229 Z27.52718
 Y109.81928 Z27.51942
 Y110.56627 Z27.48247
 Y111.31325 Z27.44531
 Y111.50000 Z27.43593
 Y111.59337 Z27.42893
 Y111.68675 Z27.41856
 Y111.87349 Z27.38748
 Y112.06024 Z27.34205
 Y112.80723 Z27.10727
 Y115.60843 Z26.21837
 Y115.70181 Z26.18644
 Y115.74849 Z26.16849
 Y115.77184 Z26.15897
 Y115.79518 Z26.14908
 Y115.88855 Z26.10549
 Y115.98193 Z26.05482
 Y116.07530 Z25.99597
 Y116.12199 Z25.96303
 Y116.16867 Z25.92744
 Y116.54217 Z25.57856
 Y118.03614 Z24.14483
 Y118.78313 Z23.42602
 Y119.46009 Z22.77319
 Y119.48343 Z22.75031
 Y119.50678 Z22.72480
 Y119.53012 Z22.69540
 Y120.27711 Z21.01365
 Y120.65060 Z20.15508
 Y121.02410 Z19.29395
 Y121.77108 Z16.42655
 Y122.51807 Z12.72451
 Y122.89157 Z9.72522
 Y123.10603 Z8.00147
 Y123.10676 Z8.00000
 Y127.00000
 X-0.20677
 Y124.01205
 Y123.26506 Z13.02548
 Y122.51807 Z16.64646
 Y122.02203 Z18.92904
 Y122.01911 Z18.94114
 Y122.01619 Z18.94979
 Y122.00452 Z18.97738
 Y121.77108 Z19.51558
 Y120.27711 Z22.93527
 Y119.53012 Z23.75595
 Y116.65889 Z26.51139
 Y116.64721 Z26.52242
 Y116.63554 Z26.53328
 Y116.61220 Z26.55433
 Y116.60053 Z26.56454
 Y116.59469 Z26.56957
 Y116.59177 Z26.57206
 Y116.59031 Z26.57330
 Y116.58886 Z26.57454
 Y116.57718 Z26.58434
 Y116.57427 Z26.58676
 Y116.57281 Z26.58797
 Y116.57208 Z26.58857
 Y116.57135 Z26.58898
 Y116.56551 Z26.59135
 Y116.54217 Z26.60067
 Y115.79518 Z26.84452
 Y112.80723 Z27.79268
 Y112.62048 Z27.85119
 Y112.43373 Z27.90126
 Y112.24699 Z27.94185
 Y112.06024 Z27.97356
 Y111.31325 Z28.03112
 Y110.56627 Z28.06830
 Y109.81928 Z28.10550
 Y109.07229 Z28.11093
 Y108.32530 Z28.10651
 Y107.57831 Z28.06050
 Y106.83133 Z28.01356
 Y106.45783 Z27.98993
 Y106.27108 Z27.97801
 Y106.08434 Z27.96275
 Y105.33735 Z27.82191
 Y103.84337 Z27.46256
 Y103.09639 Z27.26786
 Y102.34940 Z27.04361
 Y101.60241 Z26.82128
 Y100.85542 Z26.60053
 Y100.10843 Z26.38108
 Y99.36145 Z26.16327
 Y98.61446 Z25.94748
 Y97.86747 Z25.73314
 Y97.12048 Z25.52033
 Y96.37349 Z25.30896
 Y95.62651 Z25.09947
 Y94.87952 Z24.89395
 Y91.89157 Z24.07594
 Y91.14458 Z23.87822
 Y88.90361 Z23.28823
 Y88.15663 Z23.09158
 Y87.40964 Z22.90224
 Y85.16867 Z22.33559
 Y84.42169 Z22.14679
 Y81.43373 Z21.42216
 Y80.68675 Z21.24170
 Y77.69880 Z20.54774
 Y76.95181 Z20.37554
 Y73.96386 Z19.71205
 Y73.21687 Z19.54804
 Y70.22892 Z18.91483
 Y69.48193 Z18.75893
 Y66.49398 Z18.15581
 Y65.74699 Z18.00804
 Y63.50602 Z17.57813
 Y62.75904 Z17.43481
 Y62.01205 Z17.29508
 Y59.77108 Z16.88748
 Y59.02410 Z16.75160
 Y58.27711 Z16.61987
 Y56.03614 Z16.23447
 Y55.28916 Z16.10601
 Y54.54217 Z15.98227
 Y51.55422 Z15.49785
 Y50.80723 Z15.38204
 Y48.56627 Z15.04071
 Y47.81928 Z14.92695
 Y47.07229 Z14.81904
 Y44.83133 Z14.49960
 Y44.08434 Z14.39309
 Y43.33735 Z14.29305
 Y40.34940 Z13.89618
 Y39.60241 Z13.80401
 Y37.36145 Z13.52807
 Y36.61446 Z13.43646
 Y33.62651 Z13.09739
 Y32.87952 Z13.01361
 Y29.89157 Z12.70330
 Y29.14458 Z12.62734
 Y26.90361 Z12.41611
 Y26.15663 Z12.34572
 Y25.40964 Z12.27750
 Y23.16867 Z12.08772
 Y22.42169 Z12.02447
 Y21.67470 Z11.96282
 Y20.92771 Z11.90443
 Y20.18072 Z11.84743
 Y19.43373 Z11.79187
 Y18.68675 Z11.73783
 Y17.93976 Z11.68531
 Y17.19277 Z11.63417
 Y16.44578 Z11.58447
 Y15.69880 Z11.53618
 Y14.95181 Z11.48938
 Y14.20482 Z11.44392
 Y13.45783 Z11.40007
 Y12.71084 Z11.35765
 Y11.96386 Z11.30618
 Y11.21687 Z11.20482
 Y10.46988 Z11.10308
 Y10.09639 Z11.05206
 Y9.90964 Z11.02564
 Y9.81627 Z11.00979
 Y9.72289 Z10.99166
 Y9.53614 Z10.94818
 Y9.34940 Z10.89435
 Y8.97590 Z10.74906
 Y5.98795 Z9.42328
 Y5.61446 Z9.04675
 Y4.68072 Z8.00529
 Y4.49398 Z8.00000
 Y3.00000
 X0.39098
 Y3.74699
 Y4.49398 Z8.73214
 Y5.10090 Z9.40909
 Y5.14759 Z9.45460
 Y5.19428 Z9.49583
 Y5.21762 Z9.51508
 Y5.24096 Z9.53351
 Y5.98795 Z9.91754
 Y6.73494 Z10.24925
 Y8.88253 Z11.20212
 Y8.97590 Z11.24256
 Y9.16265 Z11.31351
 Y9.34940 Z11.37233
 Y9.72289 Z11.45847
 Y10.46988 Z11.56423
 Y11.21687 Z11.66622
 Y11.96386 Z11.76716
 Y12.71084 Z11.81703
 Y13.45783 Z11.85949
 Y14.20482 Z11.90343
 Y14.95181 Z11.94893
 Y15.69880 Z11.99580
 Y16.44578 Z12.04412
 Y17.19277 Z12.09388
 Y17.93976 Z12.14506
 Y18.68675 Z12.19764
 Y19.43373 Z12.25179
 Y20.18072 Z12.30738
 Y20.92771 Z12.36445
 Y21.67470 Z12.42291
 Y22.42169 Z12.48477
 Y23.16867 Z12.54803
 Y23.91566 Z12.61128
 Y25.40964 Z12.73780
 Y26.15663 Z12.80642
 Y26.90361 Z12.87682
 Y27.65060 Z12.94721
 Y29.14458 Z13.08803
 Y29.89157 Z13.16444
 Y30.63855 Z13.24202
 Y31.38554 Z13.31959
 Y32.87952 Z13.47474
 Y33.62651 Z13.55898
 Y34.37349 Z13.64375
 Y35.12048 Z13.72853
 Y35.86747 Z13.81330
 Y36.61446 Z13.89820
 Y38.10843 Z14.08215
 Y38.85542 Z14.17416
 Y39.60241 Z14.26614
 Y40.34940 Z14.35887
 Y43.33735 Z14.75574
 Y44.08434 Z14.85639
 Y44.83133 Z14.96287
 Y45.57831 Z15.06938
 Y47.07229 Z15.28234
 Y47.81928 Z15.39090
 Y48.56627 Z15.50468
 Y49.31325 Z15.61843
 Y50.80723 Z15.84599
 Y51.55422 Z15.96250
 Y54.54217 Z16.44692
 Y55.28916 Z16.57141
 Y56.03614 Z16.69988
 Y56.78313 Z16.82833
 Y58.27711 Z17.08526
 Y59.02410 Z17.21778
 Y59.77108 Z17.35365
 Y60.51807 Z17.48953
 Y62.01205 Z17.76126
 Y62.75904 Z17.90184
 Y63.50602 Z18.04514
 Y64.25301 Z18.18845
 Y65.74699 Z18.47506
 Y66.49398 Z18.62370
 Y67.24096 Z18.77448
 Y67.98795 Z18.92528
 Y69.48193 Z19.22685
 Y70.22892 Z19.38366
 Y70.97590 Z19.54197
 Y71.72289 Z19.70028
 Y73.21687 Z20.01689
 Y73.96386 Z20.18189
 Y76.95181 Z20.84537
 Y77.69880 Z21.01863
 Y78.44578 Z21.19210
 Y79.93976 Z21.53908
 Y80.68675 Z21.71294
 Y83.67470 Z22.43759
 Y84.42169 Z22.61979
 Y85.16867 Z22.80867
 Y85.91566 Z22.99757
 Y87.40964 Z23.37534
 Y88.15663 Z23.56587
 Y88.90361 Z23.76254
 Y89.65060 Z23.95918
 Y91.14458 Z24.35251
 Y91.89157 Z24.55148
 Y94.87952 Z25.36949
 Y95.62651 Z25.57583
 Y96.37349 Z25.78546
 Y97.12048 Z25.99704
 Y97.86747 Z26.21020
 Y98.61446 Z26.42495
 Y99.36145 Z26.64105
 Y100.10843 Z26.85886
 Y100.85542 Z27.07867
 Y101.60241 Z27.29979
 Y102.34940 Z27.52245
 Y103.09639 Z27.74675
 Y103.84337 Z27.93297
 Y104.59036 Z28.11178
 Y105.33735 Z28.29146
 Y105.71084 Z28.37367
 Y106.08434 Z28.42307
 Y106.83133 Z28.47206
 Y107.57831 Z28.51934
 Y108.32530 Z28.56531
 Y109.07229 Z28.56959
 Y109.81928 Z28.56421
 Y110.56627 Z28.52705
 Y111.31325 Z28.48940
 Y111.68675 Z28.47049
 Y111.87349 Z28.45754
 Y111.96687 Z28.44809
 Y112.06024 Z28.43659
 Y112.80723 Z28.26509
 Y115.04819 Z27.55397
 Y115.79518 Z27.31630
 Y116.54217 Z27.07860
 Y116.72892 Z27.01527
 Y116.82229 Z26.97809
 Y116.86898 Z26.95786
 Y116.91566 Z26.93645
 Y117.00904 Z26.88974
 Y117.10241 Z26.83717
 Y117.19578 Z26.77765
 Y117.28916 Z26.70969
 Y118.03614 Z26.00467
 Y120.91322 Z23.24363
 Y120.91613 Z23.24085
 Y120.91759 Z23.23945
 Y120.91905 Z23.23804
 Y120.92197 Z23.23518
 Y120.92343 Z23.23374
 Y120.92416 Z23.23301
 Y120.92452 Z23.23265
 Y120.92470 Z23.23247
 Y120.92489 Z23.23229
 Y120.93072 Z23.22310
 Y122.51807 Z19.59058
 Y123.26506 Z16.68973
 Y124.01205 Z13.05337
 Y124.64086 Z8.00333
 Y124.64159 Z8.00000
 Y127.00000
 X0.98872
 Y125.50602
 Y124.75904 Z11.18224
 Y124.01205 Z15.62817
 Y123.45181 Z18.20614
 Y123.35843 Z18.63633
 Y123.26506 Z19.06514
 Y122.51807 Z20.80002
 Y121.77108 Z22.50987
 Y121.58434 Z22.93591
 Y121.40343 Z23.34820
 Y121.40051 Z23.35417
 Y121.39759 Z23.36042
 Y121.02410 Z23.75529
 Y119.53012 Z25.18901
 Y118.78313 Z25.90572
 Y117.66265 Z26.97827
 Y117.56928 Z27.06415
 Y117.52259 Z27.10253
 Y117.47590 Z27.13819
 Y117.38253 Z27.20257
 Y117.33584 Z27.23175
 Y117.28916 Z27.25917
 Y116.54217 Z27.55014
 Y114.30120 Z28.26322
 Y113.55422 Z28.50046
 Y112.99398 Z28.67824
 Y112.80723 Z28.73752
 Y112.62048 Z28.79194
 Y112.43373 Z28.83656
 Y112.24699 Z28.87207
 Y112.06024 Z28.89895
 Y111.31325 Z28.94768
 Y110.56627 Z28.98551
 Y109.81928 Z29.02292
 Y109.07229 Z29.02825
 Y108.32530 Z29.02409
 Y107.57831 Z28.97803
 Y106.27108 Z28.89458
 Y106.08434 Z28.88245
 Y105.33735 Z28.76100
 Y104.59036 Z28.58173
 Y103.84337 Z28.40367
 Y103.09639 Z28.22413
 Y102.34940 Z28.00134
 Y101.60241 Z27.77836
 Y100.85542 Z27.55682
 Y100.10843 Z27.33678
 Y99.36145 Z27.11883
 Y98.61446 Z26.90235
 Y97.86747 Z26.68727
 Y97.12048 Z26.47375
 Y96.37349 Z26.26217
 Y95.62651 Z26.05219
 Y94.87952 Z25.84503
 Y91.89157 Z25.02701
 Y91.14458 Z24.82680
 Y90.39759 Z24.63014
 Y89.65060 Z24.43349
 Y88.15663 Z24.04016
 Y87.40964 Z23.84843
 Y86.66265 Z23.65954
 Y84.42169 Z23.09289
 Y83.67470 Z22.90954
 Y80.68675 Z22.18490
 Y79.93976 Z22.00995
 Y79.19277 Z21.83647
 Y76.95181 Z21.31601
 Y76.20482 Z21.14933
 Y73.21687 Z20.48585
 Y72.46988 Z20.32743
 Y71.72289 Z20.16912
 Y70.22892 Z19.85251
 Y69.48193 Z19.69476
 Y68.73494 Z19.54397
 Y67.98795 Z19.39318
 Y66.49398 Z19.09161
 Y65.74699 Z18.94208
 Y65.00000 Z18.79878
 Y64.25301 Z18.65547
 Y62.75904 Z18.36886
 Y62.01205 Z18.22745
 Y61.26506 Z18.09158
 Y60.51807 Z17.95570
 Y59.02410 Z17.68396
 Y58.27711 Z17.55065
 Y57.53012 Z17.42219
 Y56.78313 Z17.29374
 Y55.28916 Z17.03680
 Y54.54217 Z16.91157
 Y51.55422 Z16.42714
 Y50.80723 Z16.30994
 Y50.06024 Z16.19618
 Y47.81928 Z15.85485
 Y47.07229 Z15.74564
 Y46.32530 Z15.63913
 Y44.08434 Z15.31968
 Y43.33735 Z15.21842
 Y40.34940 Z14.82155
 Y39.60241 Z14.72826
 Y38.85542 Z14.63626
 Y36.61446 Z14.36032
 Y35.86747 Z14.27490
 Y35.12048 Z14.19012
 Y33.62651 Z14.02059
 Y32.87952 Z13.93587
 Y32.13253 Z13.85829
 Y31.38554 Z13.78073
 Y29.89157 Z13.62557
 Y29.14458 Z13.54873
 Y28.39759 Z13.47832
 Y27.65060 Z13.40793
 Y26.15663 Z13.26711
 Y25.40964 Z13.19810
 Y24.66265 Z13.13484
 Y23.91566 Z13.07159
 Y22.42169 Z12.94507
 Y21.67470 Z12.88302
 Y20.92771 Z12.82448
 Y20.18072 Z12.76736
 Y19.43373 Z12.71171
 Y18.68675 Z12.65748
 Y17.93976 Z12.60482
 Y17.19277 Z12.55358
 Y16.44578 Z12.50378
 Y15.69880 Z12.45540
 Y14.95181 Z12.40849
 Y14.20482 Z12.36294
 Y13.45783 Z12.31890
 Y12.71084 Z12.27640
 Y11.96386 Z12.22800
 Y11.21687 Z12.12752
 Y9.81627 Z11.93580
 Y9.72289 Z11.92251
 Y9.53614 Z11.88947
 Y9.34940 Z11.84702
 Y9.16265 Z11.79431
 Y8.97590 Z11.73024
 Y8.22892 Z11.40479
 Y7.48193 Z11.07335
 Y6.73494 Z10.74162
 Y5.42771 Z10.16103
 Y5.33434 Z10.11951
 Y5.28765 Z10.09776
 Y5.26431 Z10.08636
 Y5.24096 Z10.07458
 Y5.14759 Z10.02336
 Y5.05422 Z9.96448
 Y4.96084 Z9.89594
 Y4.86747 Z9.81449
 Y4.49398 Z9.40395
 Y4.12048 Z8.98823
 Y3.93373 Z8.78030
 Y3.74699 Z8.57201
 Y3.00000 Z8.00000
G0 Z35.00000
 X1.58647
G1 Z8.41000
 Y4.49398 Z10.07287
 Y4.54066 Z10.12484
 Y4.58735 Z10.17385
 Y4.68072 Z10.25799
 Y4.77410 Z10.32848
 Y4.82078 Z10.35978
 Y4.86747 Z10.38886
 Y5.24096 Z10.57041
 Y8.22892 Z11.89746
 Y8.60241 Z12.06318
 Y8.78916 Z12.14441
 Y8.88253 Z12.18080
 Y8.97590 Z12.21402
 Y9.72289 Z12.38102
 Y11.21687 Z12.58551
 Y11.96386 Z12.66959
 Y12.71084 Z12.71128
 Y13.45783 Z12.75437
 Y14.20482 Z12.79891
 Y14.95181 Z12.84489
 Y15.69880 Z12.89227
 Y16.44578 Z12.94110
 Y17.19277 Z12.99155
 Y17.93976 Z13.04341
 Y18.68675 Z13.09675
 Y19.43373 Z13.15150
 Y20.18072 Z13.20765
 Y20.92771 Z13.26533
 Y21.67470 Z13.32512
 Y24.66265 Z13.57816
 Y25.40964 Z13.64354
 Y28.39759 Z13.92517
 Y29.14458 Z13.99838
 Y32.13253 Z14.30867
 Y32.87952 Z14.38938
 Y35.86747 Z14.72841
 Y36.61446 Z14.81666
 Y39.60241 Z15.18460
 Y40.34940 Z15.28040
 Y43.33735 Z15.67725
 Y44.08434 Z15.78065
 Y47.07229 Z16.20665
 Y47.81928 Z16.31765
 Y50.80723 Z16.77272
 Y51.55422 Z16.89138
 Y54.54217 Z17.37583
 Y55.28916 Z17.50218
 Y58.27711 Z18.01602
 Y59.02410 Z18.15015
 Y62.01205 Z18.69361
 Y62.75904 Z18.83589
 Y65.74699 Z19.40910
 Y66.49398 Z19.55953
 Y68.73494 Z20.01187
 Y69.48193 Z20.16305
 Y72.46988 Z20.79627
 Y73.21687 Z20.95568
 Y76.20482 Z21.61917
 Y76.95181 Z21.78687
 Y79.93976 Z22.48083
 Y80.68675 Z22.65685
 Y83.67470 Z23.38149
 Y84.42169 Z23.56598
 Y87.40964 Z24.32151
 Y88.15663 Z24.51445
 Y91.14458 Z25.30111
 Y91.89157 Z25.50255
 Y94.87952 Z26.32057
 Y95.62651 Z26.52855
 Y96.37349 Z26.73888
 Y97.12048 Z26.95065
 Y97.86747 Z27.16434
 Y98.61446 Z27.37977
 Y99.36145 Z27.59661
 Y100.10843 Z27.81492
 Y100.85542 Z28.03497
 Y101.60241 Z28.25687
 Y102.34940 Z28.48022
 Y103.09639 Z28.69632
 Y105.24398 Z29.20822
 Y105.33735 Z29.23055
 Y106.08434 Z29.31833
 Y107.57831 Z29.41369
 Y108.32530 Z29.45408
 Y109.07229 Z29.45637
 Y109.81928 Z29.45364
 Y110.56627 Z29.41826
 Y111.87349 Z29.35205
 Y111.96687 Z29.34734
 Y112.06024 Z29.34233
 Y112.24699 Z29.32915
 Y112.29367 Z29.32516
 Y112.34036 Z29.32071
 Y112.43373 Z29.30311
 Y112.80723 Z29.20956
 Y113.55422 Z28.97245
 Y116.91566 Z27.90283
 Y117.10241 Z27.84261
 Y117.19578 Z27.80863
 Y117.24247 Z27.79015
 Y117.26581 Z27.78051
 Y117.28916 Z27.77059
 Y117.47590 Z27.68015
 Y117.56928 Z27.62626
 Y117.61596 Z27.59670
 Y117.66265 Z27.56517
 Y118.03614 Z27.23540
 Y119.53012 Z25.80533
 Y120.27711 Z25.09022
 Y121.67771 Z23.74611
 Y121.70105 Z23.72334
 Y121.71273 Z23.71104
 Y121.72440 Z23.69788
 Y121.77108 Z23.63205
 Y122.51807 Z21.93553
 Y122.89157 Z21.08234
 Y123.26506 Z20.22742
 Y124.01205 Z17.78420
 Y124.75904 Z14.34772
 Y125.13253 Z11.89368
 Y125.31928 Z10.39464
 Y125.41265 Z9.64370
 Y125.61691 Z8.00323
 Y125.61836 Z8.00000
 Y127.00000
 X2.18421
 Y126.25301
 Y125.50602 Z12.60324
 Y124.75904 Z16.50326
 Y124.19880 Z19.07610
 Y124.01205 Z19.65481
 Y123.26506 Z21.36074
 Y122.17959 Z23.83445
 Y122.16792 Z23.85947
 Y122.15625 Z23.88125
 Y122.15041 Z23.89101
 Y122.14458 Z23.90018
 Y121.77108 Z24.27457
 Y121.02410 Z24.98992
 Y118.12952 Z27.76066
 Y118.08283 Z27.80541
 Y118.05949 Z27.82729
 Y118.04782 Z27.83790
 Y118.04198 Z27.84312
 Y118.03614 Z27.84829
 Y117.28916 Z28.16110
 Y113.92771 Z29.23075
 Y113.55422 Z29.34832
 Y113.18072 Z29.44302
 Y112.80723 Z29.51231
 Y112.06024 Z29.58991
 Y111.31325 Z29.62806
 Y110.56627 Z29.66590
 Y109.81928 Z29.70126
 Y109.07229 Z29.70396
 Y108.32530 Z29.70170
 Y107.57831 Z29.66138
 Y106.83133 Z29.61370
 Y106.08434 Z29.56584
 Y105.71084 Z29.54143
 Y105.33735 Z29.50470
 Y104.59036 Z29.36935
 Y103.09639 Z29.01324
 Y102.34940 Z28.83548
 Y101.60241 Z28.62123
 Y100.85542 Z28.39755
 Y100.10843 Z28.17556
 Y99.36145 Z27.95555
 Y98.61446 Z27.73709
 Y97.86747 Z27.52012
 Y97.12048 Z27.30456
 Y96.37349 Z27.09087
 Y95.62651 Z26.87895
 Y94.87952 Z26.66850
 Y94.13253 Z26.46030
 Y91.14458 Z25.64228
 Y90.39759 Z25.44058
 Y87.40964 Z24.65393
 Y86.66265 Z24.46083
 Y83.67470 Z23.70531
 Y82.92771 Z23.52085
 Y80.68675 Z22.97737
 Y79.93976 Z22.79624
 Y79.19277 Z22.62038
 Y76.20482 Z21.92641
 Y75.45783 Z21.75905
 Y73.21687 Z21.26143
 Y72.46988 Z21.09555
 Y71.72289 Z20.93665
 Y69.48193 Z20.46173
 Y68.73494 Z20.30375
 Y65.74699 Z19.70062
 Y65.00000 Z19.55109
 Y62.75904 Z19.12118
 Y62.01205 Z18.97789
 Y61.26506 Z18.83676
 Y59.02410 Z18.42916
 Y58.27711 Z18.29328
 Y57.53012 Z18.16054
 Y54.54217 Z17.64666
 Y53.79518 Z17.52226
 Y51.55422 Z17.15894
 Y50.80723 Z17.03783
 Y50.06024 Z16.92176
 Y47.81928 Z16.58043
 Y47.07229 Z16.46666
 Y46.32530 Z16.35885
 Y44.08434 Z16.03940
 Y43.33735 Z15.93290
 Y42.59036 Z15.83336
 Y40.34940 Z15.53571
 Y39.60241 Z15.43718
 Y36.61446 Z15.06926
 Y35.86747 Z14.97901
 Y33.62651 Z14.72471
 Y32.87952 Z14.63997
 Y32.13253 Z14.55796
 Y29.14458 Z14.24765
 Y28.39759 Z14.17385
 Y25.40964 Z13.89221
 Y24.66265 Z13.82664
 Y23.16867 Z13.70012
 Y22.42169 Z13.63685
 Y21.67470 Z13.57358
 Y20.92771 Z13.51370
 Y20.18072 Z13.45596
 Y19.43373 Z13.39977
 Y18.68675 Z13.34499
 Y17.93976 Z13.29162
 Y17.19277 Z13.23973
 Y16.44578 Z13.18924
 Y15.69880 Z13.14037
 Y14.95181 Z13.09296
 Y14.20482 Z13.04696
 Y13.45783 Z13.00240
 Y12.71084 Z12.95929
 Y11.96386 Z12.91758
 Y11.21687 Z12.84145
 Y9.72289 Z12.63695
 Y9.34940 Z12.58571
 Y8.97590 Z12.53194
 Y8.60241 Z12.45822
 Y8.41566 Z12.41130
 Y8.32229 Z12.38491
 Y8.22892 Z12.35635
 Y7.48193 Z12.02534
 Y4.51878 Z10.70929
 Y4.51732 Z10.70855
 Y4.49398 Z10.69218
 Y3.74699 Z9.91036
 Y3.00000 Z9.07892
G0 Z35.00000
 X2.78195
G1 Z9.71928
 Y3.88705 Z10.70661
 Y3.93373 Z10.73387
 Y4.02711 Z10.78065
 Y4.12048 Z10.82250
 Y4.49398 Z10.98847
 Y7.48193 Z12.31552
 Y7.85542 Z12.48088
 Y8.04217 Z12.55341
 Y8.22892 Z12.61489
 Y8.97590 Z12.78214
 Y9.72289 Z12.88586
 Y10.46988 Z12.98828
 Y11.21687 Z13.09053
 Y11.96386 Z13.16556
 Y12.71084 Z13.20729
 Y13.45783 Z13.25042
 Y14.20482 Z13.29500
 Y14.95181 Z13.34104
 Y15.69880 Z13.38847
 Y16.44578 Z13.43740
 Y17.19277 Z13.48791
 Y17.93976 Z13.53984
 Y18.68675 Z13.59323
 Y19.43373 Z13.64804
 Y20.18072 Z13.70426
 Y20.92771 Z13.76207
 Y21.67470 Z13.82206
 Y23.16867 Z13.94858
 Y23.91566 Z14.01185
 Y24.66265 Z14.07512
 Y25.40964 Z14.14089
 Y28.39759 Z14.42254
 Y29.14458 Z14.49657
 Y32.13253 Z14.80689
 Y32.87952 Z14.88915
 Y33.62651 Z14.97391
 Y34.37349 Z15.05866
 Y35.86747 Z15.22819
 Y36.61446 Z15.31872
 Y39.60241 Z15.68664
 Y40.34940 Z15.78547
 Y42.59036 Z16.08313
 Y43.33735 Z16.18299
 Y44.83133 Z16.39596
 Y45.57831 Z16.50246
 Y46.32530 Z16.60895
 Y47.07229 Z16.71711
 Y47.81928 Z16.83089
 Y48.56627 Z16.94465
 Y50.06024 Z17.17221
 Y50.80723 Z17.28865
 Y51.55422 Z17.40976
 Y52.30120 Z17.53087
 Y53.79518 Z17.77309
 Y54.54217 Z17.89789
 Y57.53012 Z18.41176
 Y58.27711 Z18.54493
 Y59.02410 Z18.68080
 Y59.77108 Z18.81668
 Y61.26506 Z19.08841
 Y62.01205 Z19.22998
 Y65.00000 Z19.80320
 Y65.74699 Z19.95321
 Y67.98795 Z20.40555
 Y68.73494 Z20.55651
 Y69.48193 Z20.71481
 Y70.22892 Z20.87313
 Y71.72289 Z21.18974
 Y72.46988 Z21.34917
 Y73.21687 Z21.51504
 Y73.96386 Z21.68092
 Y75.45783 Z22.01267
 Y76.20482 Z22.18059
 Y79.19277 Z22.87456
 Y79.93976 Z23.05101
 Y80.68675 Z23.23217
 Y81.43373 Z23.41330
 Y82.92771 Z23.77561
 Y83.67470 Z23.96066
 Y84.42169 Z24.14955
 Y85.16867 Z24.33845
 Y86.66265 Z24.71622
 Y87.40964 Z24.90994
 Y88.15663 Z25.10662
 Y90.39759 Z25.69661
 Y91.14458 Z25.89898
 Y94.13253 Z26.71700
 Y94.87952 Z26.92565
 Y95.62651 Z27.13628
 Y96.37349 Z27.34840
 Y97.12048 Z27.56208
 Y97.86747 Z27.77783
 Y98.61446 Z27.99500
 Y99.36145 Z28.21366
 Y100.10843 Z28.43378
 Y100.85542 Z28.65586
 Y101.60241 Z28.87974
 Y102.34940 Z29.08949
 Y103.09639 Z29.26669
 Y103.84337 Z29.44469
 Y104.59036 Z29.62274
 Y104.96386 Z29.69962
 Y105.33735 Z29.75406
 Y106.08434 Z29.81325
 Y106.83133 Z29.86132
 Y107.57831 Z29.90907
 Y108.32530 Z29.94933
 Y109.07229 Z29.95158
 Y109.81928 Z29.94888
 Y110.56627 Z29.91353
 Y111.31325 Z29.87556
 Y112.06024 Z29.83738
 Y112.43373 Z29.80928
 Y112.80723 Z29.76266
 Y113.18072 Z29.69512
 Y113.55422 Z29.60259
 Y114.30120 Z29.36701
 Y116.54217 Z28.65393
 Y117.28916 Z28.41606
 Y117.98946 Z28.19292
 Y118.01280 Z28.18540
 Y118.03614 Z28.17784
 Y118.22289 Z28.10995
 Y118.31627 Z28.07015
 Y118.36295 Z28.04845
 Y118.38630 Z28.03708
 Y118.39797 Z28.03126
 Y118.40964 Z28.02535
 Y118.78313 Z27.70510
 Y122.51807 Z24.12984
 Y123.26506 Z22.48814
 Y124.38554 Z19.93571
 Y124.75904 Z18.65277
 Y125.50602 Z15.22232
 Y125.87952 Z13.31279
 Y126.25301 Z10.31470
 Y127.00000 Z8.00000
 X3.37970
 Y126.25301 Z13.47145
 Y125.50602 Z17.03142
 Y124.96913 Z19.49719
 Y124.94578 Z19.55909
 Y122.95868 Z24.08567
 Y122.95722 Z24.08786
 Y122.95576 Z24.08969
 Y122.94992 Z24.09672
 Y122.93825 Z24.10947
 Y122.89157 Z24.15476
 Y122.51807 Z24.51177
 Y118.87651 Z27.99755
 Y118.82982 Z28.04175
 Y118.80648 Z28.06225
 Y118.79480 Z28.07203
 Y118.78313 Z28.08153
 Y118.68976 Z28.14930
 Y118.59639 Z28.20613
 Y118.50301 Z28.25523
 Y118.40964 Z28.29845
 Y118.03614 Z28.43264
 Y116.54217 Z28.90868
 Y115.79518 Z29.14666
 Y113.92771 Z29.74089
 Y113.55422 Z29.85667
 Y113.18072 Z29.94707
 Y112.80723 Z30.01289
 Y112.06024 Z30.08476
 Y110.56627 Z30.16116
 Y109.81928 Z30.19650
 Y109.07229 Z30.19916
 Y108.32530 Z30.19695
 Y107.57831 Z30.15675
 Y106.83133 Z30.10873
 Y106.08434 Z30.06066
 Y105.71084 Z30.03660
 Y105.33735 Z30.00326
 Y104.59036 Z29.87606
 Y103.84337 Z29.69808
 Y103.09639 Z29.52069
 Y102.34940 Z29.34349
 Y101.60241 Z29.13825
 Y100.85542 Z28.91417
 Y100.10843 Z28.69209
 Y99.36145 Z28.47173
 Y98.61446 Z28.25292
 Y97.86747 Z28.03555
 Y97.12048 Z27.81972
 Y96.37349 Z27.60593
 Y95.62651 Z27.39361
 Y94.87952 Z27.18280
 Y94.13253 Z26.97371
 Y91.14458 Z26.15569
 Y90.39759 Z25.95264
 Y89.65060 Z25.75597
 Y88.90361 Z25.55929
 Y87.40964 Z25.16597
 Y86.66265 Z24.97160
 Y85.91566 Z24.78272
 Y85.16867 Z24.59381
 Y83.67470 Z24.21605
 Y82.92771 Z24.03038
 Y82.18072 Z23.84922
 Y81.43373 Z23.66809
 Y79.93976 Z23.30578
 Y79.19277 Z23.12874
 Y76.20482 Z22.43477
 Y75.45783 Z22.26629
 Y74.71084 Z22.10042
 Y73.96386 Z21.93453
 Y72.46988 Z21.60279
 Y71.72289 Z21.44283
 Y70.97590 Z21.28452
 Y70.22892 Z21.12620
 Y68.73494 Z20.80960
 Y67.98795 Z20.65814
 Y65.74699 Z20.20579
 Y65.00000 Z20.05530
 Y62.01205 Z19.48209
 Y61.26506 Z19.34006
 Y60.51807 Z19.20420
 Y59.77108 Z19.06831
 Y58.27711 Z18.79658
 Y57.53012 Z18.66299
 Y54.54217 Z18.14911
 Y53.79518 Z18.02391
 Y53.04819 Z17.90280
 Y52.30120 Z17.78169
 Y50.80723 Z17.53948
 Y50.06024 Z17.42265
 Y49.31325 Z17.30889
 Y47.07229 Z16.96755
 Y46.32530 Z16.85904
 Y45.57831 Z16.75254
 Y43.33735 Z16.43309
 Y42.59036 Z16.33289
 Y40.34940 Z16.03524
 Y39.60241 Z15.93610
 Y36.61446 Z15.56818
 Y35.86747 Z15.47737
 Y35.12048 Z15.39260
 Y34.37349 Z15.30786
 Y32.87952 Z15.13833
 Y32.13253 Z15.05581
 Y29.14458 Z14.74549
 Y28.39759 Z14.67123
 Y25.40964 Z14.38958
 Y24.66265 Z14.32359
 Y23.91566 Z14.26032
 Y21.67470 Z14.07054
 Y20.92771 Z14.01044
 Y20.18072 Z13.95256
 Y19.43373 Z13.89634
 Y18.68675 Z13.84145
 Y17.93976 Z13.78805
 Y17.19277 Z13.73609
 Y16.44578 Z13.68555
 Y15.69880 Z13.63657
 Y14.95181 Z13.58911
 Y14.20482 Z13.54305
 Y13.45783 Z13.49845
 Y12.71084 Z13.45529
 Y11.96386 Z13.41353
 Y11.21687 Z13.33960
 Y10.46988 Z13.23727
 Y9.72289 Z13.13476
 Y8.97590 Z13.03186
 Y8.60241 Z12.96531
 Y8.41566 Z12.92265
 Y8.22892 Z12.87263
 Y7.48193 Z12.58149
 Y5.98795 Z11.91797
 Y5.24096 Z11.58617
 Y3.93373 Z11.00531
 Y3.84036 Z10.96180
 Y3.79367 Z10.93766
 Y3.77033 Z10.92487
 Y3.74699 Z10.91155
 Y3.00000 Z10.15949
G0 Z35.00000
 X3.97744
G1 Z10.52091
 Y3.36182 Z10.92323
 Y3.36766 Z10.92971
 Y3.37349 Z10.93608
 Y3.42018 Z10.98203
 Y3.46687 Z11.02136
 Y3.51355 Z11.05602
 Y3.56024 Z11.08714
 Y3.74699 Z11.18786
 Y4.49398 Z11.52004
 Y5.98795 Z12.18388
 Y6.73494 Z12.51570
 Y7.66867 Z12.93041
 Y7.85542 Z13.00807
 Y8.04217 Z13.07373
 Y8.22892 Z13.12962
 Y8.97590 Z13.28110
 Y9.72289 Z13.38365
 Y11.21687 Z13.58868
 Y11.96386 Z13.65880
 Y12.71084 Z13.70090
 Y13.45783 Z13.74443
 Y14.20482 Z13.78935
 Y14.95181 Z13.83567
 Y15.69880 Z13.88356
 Y16.44578 Z13.93289
 Y17.19277 Z13.98365
 Y17.93976 Z14.03577
 Y18.68675 Z14.08934
 Y19.43373 Z14.14438
 Y20.18072 Z14.20076
 Y20.92771 Z14.25880
 Y21.67470 Z14.31902
 Y24.66265 Z14.57206
 Y25.40964 Z14.63827
 Y28.39759 Z14.91991
 Y29.14458 Z14.99441
 Y32.13253 Z15.30473
 Y32.87952 Z15.38751
 Y35.86747 Z15.72658
 Y36.61446 Z15.81764
 Y38.85542 Z16.09358
 Y39.60241 Z16.18579
 Y42.59036 Z16.58266
 Y43.33735 Z16.68318
 Y46.32530 Z17.10912
 Y47.07229 Z17.21800
 Y50.06024 Z17.67312
 Y50.80723 Z17.79030
 Y53.79518 Z18.27472
 Y54.54217 Z18.40034
 Y57.53012 Z18.91422
 Y58.27711 Z19.04824
 Y60.51807 Z19.45583
 Y61.26506 Z19.59172
 Y62.01205 Z19.73420
 Y64.25301 Z20.16410
 Y65.00000 Z20.30759
 Y67.98795 Z20.91072
 Y68.73494 Z21.06268
 Y71.72289 Z21.69590
 Y72.46988 Z21.85641
 Y74.71084 Z22.35403
 Y75.45783 Z22.51991
 Y76.20482 Z22.68896
 Y79.19277 Z23.38292
 Y79.93976 Z23.56054
 Y82.18072 Z24.10402
 Y82.92771 Z24.28515
 Y83.67470 Z24.47143
 Y85.91566 Z25.03808
 Y86.66265 Z25.22698
 Y87.40964 Z25.42199
 Y89.65060 Z26.01199
 Y90.39759 Z26.20866
 Y91.14458 Z26.41239
 Y93.38554 Z27.02590
 Y94.13253 Z27.23043
 Y94.87952 Z27.43993
 Y95.62651 Z27.65095
 Y96.37349 Z27.86345
 Y97.12048 Z28.07744
 Y97.86747 Z28.29327
 Y98.61446 Z28.51084
 Y99.36145 Z28.72984
 Y100.10843 Z28.95039
 Y100.85542 Z29.17248
 Y101.60241 Z29.39681
 Y102.34940 Z29.59750
 Y103.84337 Z29.95189
 Y104.59036 Z30.12917
 Y104.96386 Z30.20162
 Y105.33735 Z30.25229
 Y106.08434 Z30.30690
 Y107.57831 Z30.40307
 Y108.32530 Z30.42733
 Y109.07229 Z30.42821
 Y109.81928 Z30.42753
 Y110.56627 Z30.40485
 Y112.06024 Z30.32850
 Y112.43373 Z30.30663
 Y112.80723 Z30.26299
 Y113.18072 Z30.19888
 Y113.55422 Z30.11057
 Y114.30120 Z29.87708
 Y115.04819 Z29.63931
 Y118.22289 Z28.62773
 Y118.31627 Z28.59717
 Y118.40964 Z28.56361
 Y118.50301 Z28.52633
 Y118.59639 Z28.48461
 Y118.68976 Z28.43740
 Y118.73645 Z28.41127
 Y118.78313 Z28.38310
 Y119.53012 Z27.70369
 Y121.77108 Z25.55860
 Y122.51807 Z24.84469
 Y123.13667 Z24.25332
 Y123.14834 Z24.24160
 Y123.16002 Z24.22865
 Y123.16585 Z24.22151
 Y123.17169 Z24.21379
 Y123.26506 Z24.01396
 Y124.01205 Z22.31316
 Y125.13253 Z19.75966
 Y125.50602 Z18.25035
 Y126.25301 Z14.81990
 Y127.00000 Z9.58946
G0 Z35.00000
 X4.57519
G1 Z11.59108
 Y126.25301 Z15.98195
 Y125.87952 Z17.69657
 Y125.50602 Z19.40978
 Y124.75904 Z21.22234
 Y124.01205 Z22.92321
 Y123.40512 Z24.30307
 Y123.39928 Z24.31580
 Y123.39345 Z24.32703
 Y123.38761 Z24.33674
 Y123.38178 Z24.34541
 Y123.37011 Z24.36056
 Y123.35843 Z24.37370
 Y123.26506 Z24.46346
 Y121.02410 Z26.60580
 Y120.27711 Z27.32045
 Y119.15663 Z28.39300
 Y119.06325 Z28.48146
 Y119.01657 Z28.52039
 Y118.96988 Z28.55527
 Y118.87651 Z28.61607
 Y118.82982 Z28.64300
 Y118.78313 Z28.66806
 Y118.03614 Z28.94183
 Y113.92771 Z30.25093
 Y113.83434 Z30.28080
 Y113.78765 Z30.29563
 Y113.76431 Z30.30308
 Y113.75264 Z30.30676
 Y113.74680 Z30.30858
 Y113.74096 Z30.31040
 Y113.55422 Z30.32923
 Y112.80723 Z30.37666
 Y111.31325 Z30.45306
 Y110.56627 Z30.48921
 Y109.81928 Z30.50624
 Y109.07229 Z30.50691
 Y108.32530 Z30.50602
 Y107.57831 Z30.49020
 Y106.83133 Z30.45102
 Y105.33735 Z30.35487
 Y104.59036 Z30.30652
 Y103.84337 Z30.19428
 Y102.34940 Z29.83995
 Y101.60241 Z29.65504
 Y100.85542 Z29.43056
 Y100.10843 Z29.20818
 Y99.36145 Z28.98725
 Y98.61446 Z28.76776
 Y97.86747 Z28.54994
 Y97.12048 Z28.33403
 Y96.37349 Z28.11955
 Y95.62651 Z27.90653
 Y94.87952 Z27.69500
 Y94.13253 Z27.48548
 Y93.38554 Z27.27954
 Y90.39759 Z26.46156
 Y89.65060 Z26.26311
 Y86.66265 Z25.47643
 Y85.91566 Z25.28622
 Y82.92771 Z24.53066
 Y82.18072 Z24.34866
 Y79.19277 Z23.62409
 Y78.44578 Z23.45019
 Y76.20482 Z22.92970
 Y75.45783 Z22.75625
 Y72.46988 Z22.09272
 Y71.72289 Z21.92733
 Y68.73494 Z21.29414
 Y67.98795 Z21.13677
 Y65.00000 Z20.53363
 Y64.25301 Z20.38420
 Y61.26506 Z19.81100
 Y60.51807 Z19.66948
 Y57.53012 Z19.12600
 Y56.78313 Z18.99235
 Y53.79518 Z18.47849
 Y53.04819 Z18.35266
 Y50.06024 Z17.86825
 Y49.31325 Z17.75020
 Y46.32530 Z17.29511
 Y45.57831 Z17.18480
 Y42.59036 Z16.75884
 Y41.84337 Z16.65623
 Y38.85542 Z16.25934
 Y38.10843 Z16.16441
 Y35.12048 Z15.79651
 Y34.37349 Z15.70923
 Y31.38554 Z15.37021
 Y30.63855 Z15.29054
 Y27.65060 Z14.98019
 Y26.90361 Z14.90814
 Y23.91566 Z14.62650
 Y23.16867 Z14.56285
 Y20.92771 Z14.37307
 Y20.18072 Z14.31048
 Y19.43373 Z14.25189
 Y18.68675 Z14.19476
 Y17.93976 Z14.13910
 Y17.19277 Z14.08491
 Y16.44578 Z14.03242
 Y15.69880 Z13.98134
 Y14.95181 Z13.93177
 Y14.20482 Z13.88363
 Y13.45783 Z13.83710
 Y12.71084 Z13.79212
 Y11.96386 Z13.74862
 Y11.21687 Z13.70659
 Y10.46988 Z13.65691
 Y9.72289 Z13.56057
 Y8.04217 Z13.32990
 Y7.94880 Z13.30256
 Y7.85542 Z13.27002
 Y7.48193 Z13.11344
 Y6.73494 Z12.78160
 Y3.74699 Z11.45391
 Y3.00000 Z10.88185
G0 Z35.00000
 X5.17293
G1 Z11.24278
 Y3.07003 Z11.32065
 Y3.09337 Z11.34624
 Y3.14006 Z11.39136
 Y3.18675 Z11.43013
 Y3.23343 Z11.46437
 Y3.25678 Z11.48015
 Y3.28012 Z11.49516
 Y3.37349 Z11.54451
 Y7.38564 Z13.32726
 Y7.38855 Z13.32807
 Y7.48193 Z13.34233
 Y8.22892 Z13.44520
 Y9.72289 Z13.65022
 Y10.46988 Z13.73588
 Y11.21687 Z13.78542
 Y11.96386 Z13.82744
 Y12.71084 Z13.87095
 Y13.45783 Z13.91594
 Y14.20482 Z13.96248
 Y14.95181 Z14.01064
 Y15.69880 Z14.06021
 Y16.44578 Z14.11130
 Y17.19277 Z14.16380
 Y17.93976 Z14.21798
 Y18.68675 Z14.27368
 Y19.43373 Z14.33082
 Y20.18072 Z14.38942
 Y20.92771 Z14.45204
 Y23.16867 Z14.64183
 Y23.91566 Z14.70554
 Y24.66265 Z14.77595
 Y26.90361 Z14.98718
 Y27.65060 Z15.05976
 Y28.39759 Z15.13736
 Y30.63855 Z15.37009
 Y31.38554 Z15.45145
 Y34.37349 Z15.79052
 Y35.12048 Z15.88053
 Y38.10843 Z16.24845
 Y38.85542 Z16.34711
 Y41.09639 Z16.64477
 Y41.84337 Z16.74471
 Y44.83133 Z17.17064
 Y45.57831 Z17.27900
 Y48.56627 Z17.73412
 Y49.31325 Z17.85090
 Y52.30120 Z18.33531
 Y53.04819 Z18.46009
 Y56.03614 Z18.97394
 Y56.78313 Z19.10654
 Y59.77108 Z19.65002
 Y60.51807 Z19.79047
 Y63.50602 Z20.36368
 Y64.25301 Z20.51203
 Y67.24096 Z21.11517
 Y67.98795 Z21.27147
 Y70.97590 Z21.90466
 Y71.72289 Z22.06896
 Y74.71084 Z22.73249
 Y75.45783 Z22.90485
 Y78.44578 Z23.59884
 Y79.19277 Z23.77928
 Y82.18072 Z24.50385
 Y82.92771 Z24.69249
 Y85.16867 Z25.25917
 Y85.91566 Z25.44826
 Y88.90361 Z26.23494
 Y89.65060 Z26.43227
 Y92.63855 Z27.25025
 Y93.38554 Z27.45547
 Y94.13253 Z27.66499
 Y94.87952 Z27.87622
 Y95.62651 Z28.08893
 Y96.37349 Z28.30312
 Y97.12048 Z28.51890
 Y97.86747 Z28.73655
 Y98.61446 Z28.95573
 Y99.36145 Z29.17638
 Y100.10843 Z29.39841
 Y100.85542 Z29.62288
 Y101.60241 Z29.81457
 Y103.46988 Z30.25749
 Y103.84337 Z30.31585
 Y104.59036 Z30.38519
 Y105.33735 Z30.43354
 Y106.08434 Z30.48167
 Y106.83133 Z30.52975
 Y107.57831 Z30.56890
 Y108.32530 Z30.58471
 Y109.07229 Z30.58560
 Y109.81928 Z30.58495
 Y110.56627 Z30.56793
 Y111.31325 Z30.53177
 Y112.06024 Z30.49357
 Y112.80723 Z30.45530
 Y113.55422 Z30.40816
 Y113.92771 Z30.37232
 Y114.11446 Z30.35013
 Y114.20783 Z30.33771
 Y114.25452 Z30.33112
 Y114.30120 Z30.32425
 Y115.04819 Z30.09767
 Y118.96988 Z28.84794
 Y119.06325 Z28.79040
 Y119.10994 Z28.75748
 Y119.15663 Z28.72107
 Y119.53012 Z28.36727
 Y120.27711 Z27.65280
 Y123.54518 Z24.52854
 Y123.56852 Z24.50579
 Y123.58020 Z24.49244
 Y123.58603 Z24.48503
 Y123.58895 Z24.48110
 Y123.59187 Z24.47698
 Y123.63855 Z24.37989
 Y124.75904 Z21.83246
 Y125.13253 Z20.98269
 Y125.50602 Z20.13152
 Y126.25301 Z17.14242
 Y127.00000 Z13.59186
G0 Z35.00000
 X5.77068
G1 Z14.87507
 Y125.93350 Z19.76707
 Y125.93277 Z19.76979
 Y125.93204 Z19.77215
 Y125.92620 Z19.78548
 Y125.87952 Z19.89187
 Y125.50602 Z20.74171
 Y123.82530 Z24.56285
 Y123.81947 Z24.57676
 Y123.81655 Z24.58319
 Y123.81363 Z24.58901
 Y123.80779 Z24.59938
 Y123.80196 Z24.60851
 Y123.79612 Z24.61674
 Y123.79320 Z24.62059
 Y123.79175 Z24.62246
 Y123.79029 Z24.62429
 Y123.77861 Z24.63570
 Y119.37255 Z28.84734
 Y119.36672 Z28.84931
 Y114.86145 Z30.28502
 Y114.67470 Z30.33648
 Y114.30120 Z30.40378
 Y113.55422 Z30.48708
 Y112.80723 Z30.53393
 Y112.06024 Z30.57224
 Y111.31325 Z30.61048
 Y110.56627 Z30.64664
 Y109.81928 Z30.66366
 Y109.07229 Z30.66431
 Y108.32530 Z30.66340
 Y107.57831 Z30.64760
 Y106.83133 Z30.60847
 Y106.08434 Z30.56040
 Y105.33735 Z30.51218
 Y104.59036 Z30.46386
 Y103.84337 Z30.39510
 Y103.09639 Z30.26443
 Y101.60241 Z29.91003
 Y100.85542 Z29.73289
 Y100.10843 Z29.51895
 Y99.36145 Z29.29561
 Y98.61446 Z29.07390
 Y97.86747 Z28.85386
 Y97.12048 Z28.63571
 Y96.37349 Z28.41900
 Y95.62651 Z28.20371
 Y94.87952 Z27.98998
 Y94.13253 Z27.77827
 Y93.38554 Z27.56798
 Y92.63855 Z27.36007
 Y89.65060 Z26.54209
 Y88.90361 Z26.34055
 Y85.91566 Z25.55388
 Y85.16867 Z25.36060
 Y82.18072 Z24.60507
 Y81.43373 Z24.42024
 Y78.44578 Z23.69560
 Y77.69880 Z23.51920
 Y74.71084 Z22.82524
 Y73.96386 Z22.65720
 Y71.72289 Z22.15959
 Y70.97590 Z21.99370
 Y70.22892 Z21.83403
 Y67.98795 Z21.35911
 Y67.24096 Z21.20083
 Y66.49398 Z21.04953
 Y64.25301 Z20.59719
 Y63.50602 Z20.44673
 Y60.51807 Z19.87352
 Y59.77108 Z19.73143
 Y57.53012 Z19.32383
 Y56.78313 Z19.18798
 Y56.03614 Z19.05425
 Y53.04819 Z18.54039
 Y52.30120 Z18.41505
 Y49.31325 Z17.93063
 Y48.56627 Z17.81372
 Y46.32530 Z17.47238
 Y45.57831 Z17.35862
 Y44.83133 Z17.25012
 Y41.84337 Z16.82420
 Y41.09639 Z16.72415
 Y38.85542 Z16.42650
 Y38.10843 Z16.32774
 Y35.86747 Z16.05180
 Y35.12048 Z15.95983
 Y34.37349 Z15.86971
 Y31.38554 Z15.53065
 Y30.63855 Z15.44921
 Y29.14458 Z15.29405
 Y28.39759 Z15.21645
 Y27.65060 Z15.13888
 Y26.90361 Z15.06622
 Y26.15663 Z14.99581
 Y25.40964 Z14.92539
 Y23.91566 Z14.78458
 Y23.16867 Z14.72080
 Y20.92771 Z14.53102
 Y20.18072 Z14.46836
 Y19.43373 Z14.40975
 Y18.68675 Z14.35260
 Y17.93976 Z14.29689
 Y17.19277 Z14.24269
 Y16.44578 Z14.19018
 Y15.69880 Z14.13906
 Y14.95181 Z14.08949
 Y14.20482 Z14.04134
 Y13.45783 Z13.99478
 Y12.71084 Z13.94978
 Y11.96386 Z13.90626
 Y11.21687 Z13.86423
 Y10.46988 Z13.81484
 Y9.72289 Z13.72939
 Y8.97590 Z13.62688
 Y8.22892 Z13.52438
 Y7.57530 Z13.43461
 Y7.48193 Z13.42159
 Y7.29518 Z13.39222
 Y7.20181 Z13.37531
 Y7.15512 Z13.36615
 Y7.13178 Z13.36137
 Y7.10843 Z13.35646
 Y6.73494 Z13.21637
 Y3.00000 Z11.55679
G0 Z35.00000
 X6.36842
G1 Z11.66767
 Y6.73494 Z13.32729
 Y6.92169 Z13.39216
 Y7.01506 Z13.41610
 Y7.10843 Z13.43690
 Y7.48193 Z13.50082
 Y8.22892 Z13.60349
 Y8.97590 Z13.70604
 Y9.72289 Z13.80856
 Y10.46988 Z13.89380
 Y11.21687 Z13.94305
 Y11.96386 Z13.98509
 Y12.71084 Z14.02858
 Y13.45783 Z14.07361
 Y14.20482 Z14.12019
 Y14.95181 Z14.16835
 Y15.69880 Z14.21794
 Y16.44578 Z14.26905
 Y17.19277 Z14.32159
 Y17.93976 Z14.37580
 Y18.68675 Z14.43152
 Y19.43373 Z14.48866
 Y20.18072 Z14.54730
 Y20.92771 Z14.60999
 Y23.16867 Z14.79978
 Y23.91566 Z14.86362
 Y26.15663 Z15.07484
 Y26.90361 Z15.14526
 Y27.65060 Z15.21799
 Y29.14458 Z15.37315
 Y29.89157 Z15.45075
 Y30.63855 Z15.52832
 Y31.38554 Z15.60985
 Y34.37349 Z15.94891
 Y35.12048 Z16.03912
 Y36.61446 Z16.22308
 Y37.36145 Z16.31505
 Y38.10843 Z16.40703
 Y38.85542 Z16.50588
 Y41.09639 Z16.80354
 Y41.84337 Z16.90368
 Y44.83133 Z17.32961
 Y45.57831 Z17.43822
 Y47.07229 Z17.66578
 Y47.81928 Z17.77954
 Y48.56627 Z17.89332
 Y49.31325 Z18.01035
 Y52.30120 Z18.49477
 Y53.04819 Z18.62024
 Y53.79518 Z18.74871
 Y56.03614 Z19.13410
 Y56.78313 Z19.26797
 Y57.53012 Z19.40383
 Y58.27711 Z19.53968
 Y59.77108 Z19.81142
 Y60.51807 Z19.95365
 Y63.50602 Z20.52686
 Y64.25301 Z20.67748
 Y65.00000 Z20.82825
 Y66.49398 Z21.12981
 Y67.24096 Z21.28127
 Y67.98795 Z21.43958
 Y68.73494 Z21.59786
 Y70.22892 Z21.91447
 Y70.97590 Z22.07431
 Y71.72289 Z22.24018
 Y72.46988 Z22.40607
 Y73.96386 Z22.73782
 Y74.71084 Z22.90603
 Y77.69880 Z23.59999
 Y78.44578 Z23.77659
 Y79.19277 Z23.95774
 Y81.43373 Z24.50122
 Y82.18072 Z24.68624
 Y85.16867 Z25.44177
 Y85.91566 Z25.63531
 Y86.66265 Z25.83199
 Y88.90361 Z26.42198
 Y89.65060 Z26.62401
 Y90.39759 Z26.82850
 Y92.63855 Z27.44202
 Y93.38554 Z27.65037
 Y94.13253 Z27.86084
 Y94.87952 Z28.07277
 Y95.62651 Z28.28648
 Y96.37349 Z28.50204
 Y97.12048 Z28.71900
 Y97.86747 Z28.93747
 Y98.61446 Z29.15748
 Y99.36145 Z29.37951
 Y100.10843 Z29.60313
 Y100.85542 Z29.81363
 Y101.60241 Z29.99056
 Y103.09639 Z30.34495
 Y103.84337 Z30.47433
 Y104.59036 Z30.54251
 Y105.33735 Z30.59081
 Y106.08434 Z30.63901
 Y106.83133 Z30.68720
 Y107.57831 Z30.72630
 Y108.32530 Z30.74208
 Y109.07229 Z30.74300
 Y109.81928 Z30.74237
 Y110.56627 Z30.72536
 Y111.31325 Z30.68919
 Y112.80723 Z30.61257
 Y113.55422 Z30.56600
 Y113.92771 Z30.53065
 Y114.11446 Z30.50877
 Y114.30120 Z30.48329
 Y115.04819 Z30.31094
 Y118.78313 Z29.12085
 Y119.15663 Z29.00173
 Y119.51845 Z28.88639
 Y119.52428 Z28.88452
 Y119.53012 Z28.88264
 Y120.27711 Z28.22116
 Y124.01205 Z24.65103
 Y124.75904 Z22.98790
 Y126.06627 Z20.01558
 Y126.25301 Z19.37782
 Y127.00000 Z15.95161
G0 Z35.00000
 X6.96617
G1 Z16.55088
 Y126.43976 Z19.12054
 Y126.31137 Z19.70945
 Y126.30553 Z19.73643
 Y126.30262 Z19.74985
 Y126.29970 Z19.76323
 Y126.25301 Z19.88862
 Y124.24548 Z24.45277
 Y124.22214 Z24.50642
 Y124.21047 Z24.53305
 Y124.20463 Z24.54632
 Y124.20171 Z24.55294
 Y124.19880 Z24.55955
 Y124.01205 Z24.78055
 Y123.26506 Z25.49469
 Y119.74021 Z28.86442
 Y119.72854 Z28.87511
 Y119.72270 Z28.87983
 Y119.71687 Z28.88419
 Y119.53012 Z28.96360
 Y117.28916 Z29.67795
 Y115.04819 Z30.39201
 Y114.86145 Z30.45064
 Y114.67470 Z30.49676
 Y114.30120 Z30.56279
 Y113.55422 Z30.64491
 Y112.80723 Z30.68564
 Y112.06024 Z30.72394
 Y111.31325 Z30.76060
 Y108.32530
 Y107.57831 Z30.76045
 Y106.83133 Z30.76004
 Y106.08434 Z30.71653
 Y104.59036 Z30.62010
 Y103.84337 Z30.55355
 Y103.09639 Z30.42548
 Y102.34940 Z30.24828
 Y101.60241 Z30.07125
 Y100.85542 Z29.89436
 Y100.10843 Z29.68530
 Y99.36145 Z29.46161
 Y98.61446 Z29.23955
 Y97.86747 Z29.01951
 Y97.12048 Z28.80097
 Y96.37349 Z28.58395
 Y95.62651 Z28.36833
 Y94.87952 Z28.15462
 Y94.13253 Z27.94264
 Y93.38554 Z27.73210
 Y92.63855 Z27.52361
 Y91.14458 Z27.11460
 Y90.39759 Z26.91011
 Y89.65060 Z26.70560
 Y88.90361 Z26.50336
 Y87.40964 Z26.11003
 Y86.66265 Z25.91335
 Y85.91566 Z25.71669
 Y85.16867 Z25.52294
 Y82.18072 Z24.76741
 Y81.43373 Z24.58219
 Y80.68675 Z24.40103
 Y78.44578 Z23.85756
 Y77.69880 Z23.68078
 Y74.71084 Z22.98681
 Y73.96386 Z22.81843
 Y73.21687 Z22.65255
 Y72.46988 Z22.48666
 Y70.97590 Z22.15492
 Y70.22892 Z21.99491
 Y69.48193 Z21.83660
 Y68.73494 Z21.67832
 Y67.24096 Z21.36171
 Y66.49398 Z21.21009
 Y65.74699 Z21.05931
 Y65.00000 Z20.90854
 Y64.25301 Z20.75776
 Y63.50602 Z20.60699
 Y60.51807 Z20.03378
 Y59.77108 Z19.89140
 Y59.02410 Z19.75554
 Y58.27711 Z19.61968
 Y56.78313 Z19.34795
 Y56.03614 Z19.21395
 Y53.04819 Z18.70009
 Y52.30120 Z18.57449
 Y49.31325 Z18.09008
 Y48.56627 Z17.97292
 Y47.81928 Z17.85916
 Y45.57831 Z17.51782
 Y44.83133 Z17.40910
 Y41.84337 Z16.98317
 Y41.09639 Z16.88292
 Y38.85542 Z16.58527
 Y38.10843 Z16.48631
 Y37.36145 Z16.39434
 Y35.12048 Z16.11840
 Y34.37349 Z16.02811
 Y31.38554 Z15.68905
 Y30.63855 Z15.60744
 Y29.89157 Z15.52984
 Y27.65060 Z15.29711
 Y26.90361 Z15.22430
 Y23.91566 Z14.94266
 Y23.16867 Z14.87875
 Y20.92771 Z14.68897
 Y20.18072 Z14.62630
 Y19.43373 Z14.56790
 Y18.68675 Z14.51076
 Y17.93976 Z14.45479
 Y17.19277 Z14.40083
 Y16.44578 Z14.34754
 Y15.69880 Z14.29660
 Y14.95181 Z14.24650
 Y14.20482 Z14.19806
 Y13.45783 Z14.15104
 Y12.71084 Z14.10516
 Y11.96386 Z14.06132
 Y11.21687 Z14.01808
 Y10.46988 Z13.97276
 Y9.72289 Z13.88772
 Y8.97590 Z13.78520
 Y8.22892 Z13.68260
 Y7.48193 Z13.58000
 Y7.29518 Z13.55161
 Y7.10843 Z13.51725
 Y7.01506 Z13.49695
 Y6.92169 Z13.47369
 Y6.73494 Z13.41170
 Y5.98795 Z13.07990
 Y3.74699 Z12.08414
 Y3.00000 Z11.75218
G0 Z35.00000
 X7.56391
G1 Z11.83666
 Y4.49398 Z12.50060
 Y6.68825 Z13.47562
 Y6.71160 Z13.48597
 Y6.73494 Z13.49570
 Y7.48193 Z13.65915
 Y9.72289 Z13.96692
 Y10.46988 Z14.01924
 Y11.21687 Z14.06253
 Y11.96386 Z14.10644
 Y12.71084 Z14.15232
 Y13.45783 Z14.19941
 Y14.20482 Z14.24785
 Y14.95181 Z14.29803
 Y15.69880 Z14.34896
 Y16.44578 Z14.40232
 Y17.19277 Z14.45635
 Y17.93976 Z14.51232
 Y18.68675 Z14.56953
 Y19.43373 Z14.62793
 Y20.18072 Z14.69009
 Y23.16867 Z14.94316
 Y23.91566 Z15.01237
 Y26.15663 Z15.22355
 Y26.90361 Z15.29399
 Y27.65060 Z15.37082
 Y30.63855 Z15.68113
 Y31.38554 Z15.76561
 Y33.62651 Z16.01991
 Y34.37349 Z16.10484
 Y37.36145 Z16.47275
 Y38.10843 Z16.56535
 Y41.09639 Z16.96226
 Y41.84337 Z17.06266
 Y44.83133 Z17.48860
 Y45.57831 Z17.59742
 Y48.56627 Z18.05254
 Y49.31325 Z18.16980
 Y52.30120 Z18.65422
 Y53.04819 Z18.77994
 Y55.28916 Z19.16534
 Y56.03614 Z19.29380
 Y56.78313 Z19.42794
 Y59.02410 Z19.83554
 Y59.77108 Z19.97139
 Y60.51807 Z20.11391
 Y62.75904 Z20.54382
 Y63.50602 Z20.68726
 Y65.74699 Z21.13960
 Y66.49398 Z21.29037
 Y67.24096 Z21.44216
 Y69.48193 Z21.91707
 Y70.22892 Z22.07535
 Y70.97590 Z22.23553
 Y73.21687 Z22.73314
 Y73.96386 Z22.89904
 Y74.71084 Z23.06760
 Y77.69880 Z23.76157
 Y78.44578 Z23.93854
 Y80.68675 Z24.48202
 Y81.43373 Z24.66316
 Y82.18072 Z24.84858
 Y85.16867 Z25.60411
 Y85.91566 Z25.79806
 Y87.40964 Z26.19139
 Y88.15663 Z26.38807
 Y88.90361 Z26.58473
 Y89.65060 Z26.78719
 Y91.14458 Z27.19620
 Y91.89157 Z27.40069
 Y92.63855 Z27.60520
 Y93.38554 Z27.81383
 Y94.13253 Z28.02444
 Y94.87952 Z28.23647
 Y95.62651 Z28.45019
 Y96.37349 Z28.66586
 Y97.12048 Z28.88297
 Y97.86747 Z29.10155
 Y98.61446 Z29.32165
 Y99.36145 Z29.54371
 Y100.10843 Z29.76743
 Y100.85542 Z29.97508
 Y101.60241 Z30.15198
 Y102.34940 Z30.32890
 Y103.09639 Z30.50600
 Y103.84337 Z30.62145
 Y105.33735 Z30.71788
 Y106.08434 Z30.76005
 Y106.83133 Z30.76046
 Y107.57831 Z30.76060
 Y112.06024
 Y112.80723 Z30.72501
 Y114.20783 Z30.65319
 Y114.30120 Z30.64228
 Y115.04819 Z30.47307
 Y116.54217 Z29.99704
 Y117.28916 Z29.75887
 Y119.53012 Z29.04452
 Y119.62349 Z29.01444
 Y119.67018 Z28.99712
 Y119.69352 Z28.98716
 Y119.70520 Z28.98173
 Y119.71103 Z28.97888
 Y119.71687 Z28.97592
 Y119.74021 Z28.96282
 Y119.75188 Z28.95522
 Y119.76355 Z28.94654
 Y119.81024 Z28.90289
 Y122.51807 Z26.31422
 Y123.26506 Z25.60017
 Y124.01205 Z24.88633
 Y124.75904 Z23.47934
 Y125.50602 Z21.78086
 Y126.25301 Z20.08257
 Y127.00000 Z16.91964
G0 Z35.00000
 X8.16165
G1 Z17.28762
 Y126.44559 Z19.82966
 Y126.43976 Z19.85195
 Y125.50602 Z21.97481
 Y125.13253 Z22.82311
 Y124.30384 Z24.70573
 Y124.30092 Z24.71254
 Y124.29946 Z24.71565
 Y124.29873 Z24.71687
 Y124.29837 Z24.71743
 Y124.29800 Z24.71797
 Y124.29217 Z24.72453
 Y124.24548 Z24.76903
 Y122.51807 Z26.41978
 Y121.77108 Z27.13374
 Y119.81608 Z29.00272
 Y119.81024 Z29.00803
 Y119.79857 Z29.01783
 Y119.78690 Z29.02616
 Y119.77523 Z29.03352
 Y119.76355 Z29.04018
 Y119.74021 Z29.05199
 Y119.71687 Z29.06237
 Y119.53012 Z29.12545
 Y116.54217 Z30.07791
 Y115.79518 Z30.31610
 Y115.42169 Z30.43513
 Y115.04819 Z30.55414
 Y114.86145 Z30.61207
 Y114.76807 Z30.63603
 Y114.74473 Z30.64151
 Y114.72139 Z30.64682
 Y114.67470 Z30.65311
 Y112.80723 Z30.74886
 Y112.06024 Z30.76060
 Y106.83133
 Y106.08434 Z30.76031
 Y105.33735 Z30.74791
 Y103.28313 Z30.61532
 Y103.09639 Z30.58652
 Y102.34940 Z30.40963
 Y101.60241 Z30.23270
 Y100.85542 Z30.05581
 Y100.10843 Z29.84961
 Y99.36145 Z29.62588
 Y98.61446 Z29.40375
 Y97.86747 Z29.18359
 Y97.12048 Z28.96494
 Y96.37349 Z28.74775
 Y95.62651 Z28.53204
 Y94.87952 Z28.31832
 Y94.13253 Z28.10623
 Y93.38554 Z27.89555
 Y92.63855 Z27.68679
 Y91.89157 Z27.48230
 Y89.65060 Z26.86878
 Y88.90361 Z26.66611
 Y88.15663 Z26.46943
 Y85.91566 Z25.87944
 Y85.16867 Z25.68528
 Y82.18072 Z24.92975
 Y81.43373 Z24.74415
 Y78.44578 Z24.01952
 Y77.69880 Z23.84235
 Y74.71084 Z23.14839
 Y73.96386 Z22.97965
 Y73.21687 Z22.81376
 Y70.97590 Z22.31614
 Y70.22892 Z22.15572
 Y67.24096 Z21.52256
 Y66.49398 Z21.37019
 Y63.50602 Z20.76708
 Y62.75904 Z20.62261
 Y62.01205 Z20.47931
 Y59.77108 Z20.04944
 Y59.02410 Z19.91294
 Y56.03614 Z19.36947
 Y55.28916 Z19.24083
 Y53.04819 Z18.85539
 Y52.30120 Z18.72721
 Y49.31325 Z18.24279
 Y48.56627 Z18.12244
 Y45.57831 Z17.66736
 Y44.83133 Z17.55480
 Y41.84337 Z17.12888
 Y41.09639 Z17.02406
 Y38.10843 Z16.62715
 Y37.36145 Z16.53004
 Y34.37349 Z16.16213
 Y33.62651 Z16.07271
 Y30.63855 Z15.73364
 Y29.89157 Z15.65188
 Y26.90361 Z15.34156
 Y26.15663 Z15.26740
 Y23.16867 Z14.98582
 Y22.42169 Z14.91930
 Y19.43373 Z14.66623
 Y18.68675 Z14.60590
 Y17.93976 Z14.54750
 Y17.19277 Z14.49121
 Y16.44578 Z14.43557
 Y15.69880 Z14.38219
 Y14.95181 Z14.32975
 Y14.20482 Z14.27882
 Y13.45783 Z14.22958
 Y12.71084 Z14.18115
 Y11.96386 Z14.13502
 Y11.21687 Z14.08955
 Y10.46988 Z14.04617
 Y9.72289 Z14.00359
 Y8.97590 Z13.92823
 Y7.10843 Z13.67175
 Y7.01506 Z13.65834
 Y6.92169 Z13.63631
 Y6.82831 Z13.61062
 Y6.73494 Z13.57929
 Y5.98795 Z13.24898
 Y5.24096 Z12.91705
 Y3.00000 Z11.92114
G0 Z35.00000
 X8.75940
G1 Z12.00562
 Y5.98795 Z13.33350
 Y6.36145 Z13.49951
 Y6.54819 Z13.58247
 Y6.64157 Z13.62396
 Y6.68825 Z13.64449
 Y6.71160 Z13.65383
 Y6.73494 Z13.66089
 Y8.97590 Z13.96867
 Y9.72289 Z14.01994
 Y10.46988 Z14.06327
 Y11.21687 Z14.10722
 Y11.96386 Z14.15310
 Y12.71084 Z14.20024
 Y13.45783 Z14.24867
 Y14.20482 Z14.29889
 Y14.95181 Z14.34985
 Y15.69880 Z14.40323
 Y16.44578 Z14.45731
 Y17.19277 Z14.51327
 Y17.93976 Z14.57052
 Y18.68675 Z14.62892
 Y19.43373 Z14.69117
 Y22.42169 Z14.94423
 Y23.16867 Z15.01356
 Y25.40964 Z15.22475
 Y26.15663 Z15.29519
 Y26.90361 Z15.37214
 Y29.89157 Z15.68245
 Y30.63855 Z15.76705
 Y32.87952 Z16.02135
 Y33.62651 Z16.10640
 Y36.61446 Z16.47432
 Y37.36145 Z16.56704
 Y40.34940 Z16.96394
 Y41.09639 Z17.06437
 Y44.08434 Z17.49029
 Y44.83133 Z17.59843
 Y47.81928 Z18.05351
 Y48.56627 Z18.16942
 Y51.55422 Z18.65384
 Y52.30120 Z18.77755
 Y55.28916 Z19.29146
 Y56.03614 Z19.42302
 Y59.02410 Z19.96649
 Y59.77108 Z20.10592
 Y62.01205 Z20.53578
 Y62.75904 Z20.67912
 Y63.50602 Z20.82650
 Y66.49398 Z21.42962
 Y67.24096 Z21.58495
 Y70.22892 Z22.21810
 Y70.97590 Z22.38147
 Y73.96386 Z23.04503
 Y74.71084 Z23.21647
 Y77.69880 Z23.91039
 Y78.44578 Z24.08997
 Y81.43373 Z24.81462
 Y82.18072 Z25.00240
 Y85.16867 Z25.75791
 Y85.91566 Z25.95396
 Y88.90361 Z26.74065
 Y89.65060 Z26.94501
 Y91.89157 Z27.55850
 Y92.63855 Z27.76322
 Y93.38554 Z27.97276
 Y94.13253 Z28.18378
 Y94.87952 Z28.39624
 Y95.62651 Z28.61020
 Y96.37349 Z28.82602
 Y97.12048 Z29.04355
 Y97.86747 Z29.26256
 Y98.61446 Z29.48304
 Y99.36145 Z29.70514
 Y100.10843 Z29.92925
 Y100.85542 Z30.12504
 Y101.60241 Z30.30187
 Y102.72289 Z30.56711
 Y103.09639 Z30.62227
 Y104.59036 Z30.71870
 Y105.33735 Z30.76006
 Y106.08434 Z30.76047
 Y106.83133 Z30.76060
 Y112.80723
 Y113.55422 Z30.72566
 Y114.95482 Z30.65384
 Y115.04819 Z30.63423
 Y119.71687 Z29.14582
 Y119.76355 Z29.12748
 Y119.78690 Z29.11665
 Y119.79857 Z29.11066
 Y119.80441 Z29.10748
 Y119.81024 Z29.10416
 Y119.90361 Z29.02444
 Y120.27711 Z28.66738
 Y121.02410 Z27.95323
 Y124.33886 Z24.78557
 Y124.38554 Z24.71310
 Y125.87952 Z21.31909
 Y126.06627 Z20.89505
 Y126.25301 Z20.47047
 Y127.00000 Z17.65587
G0 Z35.00000
 X9.35714
G1 Z18.02412
 Y126.62651 Z19.73666
 Y126.25301 Z20.66357
 Y124.43296 Z24.79836
 Y124.43223 Z24.79933
 Y124.38554 Z24.84673
 Y119.90361 Z29.12977
 Y119.53012 Z29.25882
 Y115.23494 Z30.62815
 Y115.04819 Z30.65766
 Y113.55422 Z30.73426
 Y112.80723 Z30.76060
 Y106.83133
 Y106.08434 Z30.76056
 Y105.33735 Z30.76015
 Y104.59036 Z30.72952
 Y103.09639 Z30.63309
 Y102.34940 Z30.51839
 Y100.85542 Z30.16475
 Y100.10843 Z29.97957
 Y99.36145 Z29.75530
 Y98.61446 Z29.53290
 Y97.86747 Z29.31196
 Y97.12048 Z29.09247
 Y96.37349 Z28.87458
 Y95.62651 Z28.65865
 Y94.87952 Z28.44422
 Y94.13253 Z28.23127
 Y93.38554 Z28.01981
 Y92.63855 Z27.81027
 Y91.89157 Z27.60441
 Y88.90361 Z26.78642
 Y88.15663 Z26.58813
 Y85.16867 Z25.80144
 Y84.42169 Z25.61144
 Y81.43373 Z24.85592
 Y80.68675 Z24.67413
 Y77.69880 Z23.94948
 Y76.95181 Z23.77586
 Y74.71084 Z23.25542
 Y73.96386 Z23.08227
 Y70.97590 Z22.41872
 Y70.22892 Z22.25364
 Y67.24096 Z21.62048
 Y66.49398 Z21.46347
 Y63.50602 Z20.86035
 Y62.75904 Z20.71130
 Y62.01205 Z20.56795
 Y59.77108 Z20.13809
 Y59.02410 Z19.99699
 Y56.03614 Z19.45352
 Y55.28916 Z19.32031
 Y52.30120 Z18.80639
 Y51.55422 Z18.68103
 Y48.56627 Z18.19661
 Y47.81928 Z18.07906
 Y44.83133 Z17.62398
 Y44.08434 Z17.51420
 Y41.09639 Z17.08827
 Y40.34940 Z16.98622
 Y37.36145 Z16.58931
 Y36.61446 Z16.49497
 Y33.62651 Z16.12705
 Y32.87952 Z16.04038
 Y29.89157 Z15.70131
 Y29.14458 Z15.62229
 Y26.90361 Z15.38955
 Y26.15663 Z15.31199
 Y25.40964 Z15.24056
 Y22.42169 Z14.95897
 Y21.67470 Z14.89517
 Y18.68675 Z14.64211
 Y17.93976 Z14.58363
 Y17.19277 Z14.52583
 Y16.44578 Z14.46987
 Y15.69880 Z14.41521
 Y14.95181 Z14.36183
 Y14.20482 Z14.31033
 Y13.45783 Z14.25955
 Y12.71084 Z14.21111
 Y11.96386 Z14.16341
 Y11.21687 Z14.11752
 Y10.46988 Z14.07301
 Y9.72289 Z14.02962
 Y8.97590 Z13.98777
 Y8.22892 Z13.88911
 Y6.73494 Z13.68392
 Y5.98795 Z13.40564
 Y3.00000 Z12.07771
G0 Z35.00000
 X9.95489
G1 Z12.10404
 Y6.50005 Z13.65957
 Y6.50151 Z13.66000
 Y8.22892 Z13.89725
 Y8.97590 Z13.99106
 Y9.72289 Z14.03307
 Y10.46988 Z14.07645
 Y11.21687 Z14.12116
 Y11.96386 Z14.16704
 Y12.71084 Z14.21495
 Y13.45783 Z14.26343
 Y14.20482 Z14.31437
 Y14.95181 Z14.36607
 Y15.69880 Z14.41945
 Y16.44578 Z14.47431
 Y17.19277 Z14.53027
 Y17.93976 Z14.58826
 Y18.68675 Z14.64713
 Y21.67470 Z14.90019
 Y22.42169 Z14.96456
 Y25.40964 Z15.24614
 Y26.15663 Z15.31814
 Y26.90361 Z15.39571
 Y29.14458 Z15.62845
 Y29.89157 Z15.70804
 Y32.87952 Z16.04711
 Y33.62651 Z16.13435
 Y36.61446 Z16.50226
 Y37.36145 Z16.59718
 Y40.34940 Z16.99409
 Y41.09639 Z17.09672
 Y44.08434 Z17.52264
 Y44.83133 Z17.63300
 Y47.81928 Z18.08808
 Y48.56627 Z18.20621
 Y51.55422 Z18.69063
 Y52.30120 Z18.81659
 Y55.28916 Z19.33050
 Y56.03614 Z19.46430
 Y59.02410 Z20.00777
 Y59.77108 Z20.14945
 Y62.01205 Z20.57932
 Y62.75904 Z20.72268
 Y63.50602 Z20.87231
 Y66.49398 Z21.47543
 Y67.24096 Z21.63304
 Y70.22892 Z22.26620
 Y70.97590 Z22.43188
 Y73.21687 Z22.92954
 Y73.96386 Z23.09570
 Y76.95181 Z23.78962
 Y77.69880 Z23.96385
 Y80.68675 Z24.68850
 Y81.43373 Z24.87090
 Y84.42169 Z25.62642
 Y85.16867 Z25.81704
 Y88.15663 Z26.60373
 Y88.90361 Z26.80265
 Y91.89157 Z27.62063
 Y92.63855 Z27.82689
 Y93.38554 Z28.03652
 Y94.13253 Z28.24805
 Y94.87952 Z28.46117
 Y95.62651 Z28.67577
 Y96.37349 Z28.89186
 Y97.12048 Z29.10975
 Y97.86747 Z29.32941
 Y98.61446 Z29.55052
 Y99.36145 Z29.77309
 Y100.10843 Z29.99734
 Y100.85542 Z30.17877
 Y102.34940 Z30.53242
 Y103.09639 Z30.63692
 Y104.59036 Z30.73335
 Y105.33735 Z30.76018
 Y106.08434 Z30.76059
 Y106.83133 Z30.76060
 Y112.80723
 Y113.55422 Z30.73730
 Y115.04819 Z30.66069
 Y115.79518 Z30.46844
 Y119.90361 Z29.15864
 Y120.27711 Z28.82917
 Y124.38554 Z24.90311
 Y124.75904 Z24.18385
 Y126.25301 Z20.79007
 Y127.00000 Z18.27381
G0 Z35.00000
 X10.55263
G1 Z18.27521
 Y126.64985 Z19.88071
 Y126.62651 Z19.94206
 Y124.48475 Z24.80766
 Y124.47892 Z24.81410
 Y124.38554 Z24.90334
 Y119.95030 Z29.14177
 Y119.90361 Z29.15885
 Y115.23494 Z30.64708
 Y115.04819 Z30.66070
 Y113.55422 Z30.73732
 Y112.80723 Z30.76060
 Y106.83133
 Y106.08434 Z30.76058
 Y105.33735 Z30.76019
 Y104.59036 Z30.73334
 Y102.72289 Z30.61284
 Y102.34940 Z30.53256
 Y100.85542 Z30.17872
 Y100.10843 Z29.99742
 Y99.36145 Z29.77316
 Y98.61446 Z29.55061
 Y97.86747 Z29.32950
 Y97.12048 Z29.10984
 Y96.37349 Z28.89194
 Y95.62651 Z28.67587
 Y94.87952 Z28.46125
 Y94.13253 Z28.24816
 Y93.38554 Z28.03658
 Y92.63855 Z27.82699
 Y91.89157 Z27.62073
 Y88.90361 Z26.80271
 Y88.15663 Z26.60379
 Y85.16867 Z25.81713
 Y84.42169 Z25.62650
 Y81.43373 Z24.87097
 Y80.68675 Z24.68856
 Y77.69880 Z23.96393
 Y76.95181 Z23.78970
 Y73.96386 Z23.09573
 Y73.21687 Z22.92957
 Y70.97590 Z22.43195
 Y70.22892 Z22.26630
 Y67.24096 Z21.63309
 Y66.49398 Z21.47549
 Y63.50602 Z20.87237
 Y62.75904 Z20.72272
 Y59.77108 Z20.14950
 Y59.02410 Z20.00782
 Y56.03614 Z19.46436
 Y55.28916 Z19.33054
 Y52.30120 Z18.81666
 Y51.55422 Z18.69068
 Y48.56627 Z18.20626
 Y47.81928 Z18.08815
 Y44.83133 Z17.63303
 Y44.08434 Z17.52269
 Y41.09639 Z17.09675
 Y40.34940 Z16.99410
 Y37.36145 Z16.59724
 Y36.61446 Z16.50230
 Y33.62651 Z16.13438
 Y32.87952 Z16.04714
 Y29.89157 Z15.70807
 Y29.14458 Z15.62847
 Y26.15663 Z15.31817
 Y25.40964 Z15.24620
 Y22.42169 Z14.96455
 Y21.67470 Z14.90021
 Y18.68675 Z14.64718
 Y17.93976 Z14.58830
 Y17.19277 Z14.53025
 Y16.44578 Z14.47433
 Y15.69880 Z14.41949
 Y14.95181 Z14.36608
 Y14.20482 Z14.31439
 Y13.45783 Z14.26349
 Y12.71084 Z14.21495
 Y11.96386 Z14.16709
 Y11.21687 Z14.12119
 Y10.46988 Z14.07647
 Y9.72289 Z14.03308
 Y8.97590 Z13.99104
 Y8.22892 Z13.89725
 Y6.73494 Z13.69206
 Y5.98795 Z13.43209
 Y3.00000 Z12.10421
 X11.15038
 Y6.50005 Z13.65968
 Y6.50151 Z13.66000
 Y8.22892 Z13.89725
 Y8.97590 Z13.99104
 Y9.72289 Z14.03308
 Y10.46988 Z14.07647
 Y11.21687 Z14.12119
 Y11.96386 Z14.16709
 Y12.71084 Z14.21495
 Y13.45783 Z14.26349
 Y14.20482 Z14.31439
 Y14.95181 Z14.36608
 Y15.69880 Z14.41949
 Y16.44578 Z14.47433
 Y17.19277 Z14.53025
 Y17.93976 Z14.58830
 Y18.68675 Z14.64718
 Y21.67470 Z14.90021
 Y22.42169 Z14.96455
 Y25.40964 Z15.24620
 Y26.15663 Z15.31817
 Y29.14458 Z15.62847
 Y29.89157 Z15.70807
 Y32.87952 Z16.04714
 Y33.62651 Z16.13438
 Y36.61446 Z16.50230
 Y37.36145 Z16.59724
 Y40.34940 Z16.99410
 Y41.09639 Z17.09675
 Y44.08434 Z17.52269
 Y44.83133 Z17.63303
 Y47.81928 Z18.08815
 Y48.56627 Z18.20626
 Y51.55422 Z18.69068
 Y52.30120 Z18.81666
 Y55.28916 Z19.33054
 Y56.03614 Z19.46436
 Y59.02410 Z20.00782
 Y59.77108 Z20.14950
 Y62.75904 Z20.72272
 Y63.50602 Z20.87237
 Y66.49398 Z21.47549
 Y67.24096 Z21.63309
 Y69.48193 Z22.10800
 Y70.22892 Z22.26628
 Y70.97590 Z22.43195
 Y73.21687 Z22.92957
 Y73.96386 Z23.09575
 Y74.71084 Z23.26922
 Y76.95181 Z23.78970
 Y77.69880 Z23.96393
 Y80.68675 Z24.68856
 Y81.43373 Z24.87097
 Y84.42169 Z25.62650
 Y85.16867 Z25.81713
 Y88.15663 Z26.60379
 Y88.90361 Z26.80271
 Y91.89157 Z27.62073
 Y92.63855 Z27.82699
 Y93.38554 Z28.03658
 Y94.13253 Z28.24816
 Y94.87952 Z28.46125
 Y95.62651 Z28.67587
 Y96.37349 Z28.89194
 Y97.12048 Z29.10984
 Y97.86747 Z29.32950
 Y98.61446 Z29.55061
 Y99.36145 Z29.77316
 Y100.10843 Z29.99742
 Y100.85542 Z30.17872
 Y102.34940 Z30.53256
 Y103.09639 Z30.63694
 Y104.59036 Z30.73334
 Y105.33735 Z30.76019
 Y106.08434 Z30.76058
 Y106.83133 Z30.76060
 Y112.80723
 Y113.55422 Z30.73732
 Y115.04819 Z30.66070
 Y115.79518 Z30.46849
 Y119.90361 Z29.15885
 Y120.27711 Z28.82946
 Y124.38554 Z24.90334
 Y124.75904 Z24.18454
 Y126.25301 Z20.79056
 Y127.00000 Z18.27521
 X11.74812
 Y126.64985 Z19.88071
 Y126.62651 Z19.94216
 Y126.25301 Z20.79056
 Y124.48475 Z24.80766
 Y124.47892 Z24.81410
 Y124.38554 Z24.90334
 Y119.95030 Z29.14177
 Y119.90361 Z29.15879
 Y119.53012 Z29.27791
 Y115.23494 Z30.64708
 Y115.04819 Z30.66070
 Y113.55422 Z30.73732
 Y112.80723 Z30.76060
 Y106.83133
 Y106.08434 Z30.76058
 Y105.33735 Z30.76019
 Y104.59036 Z30.73334
 Y102.72289 Z30.61284
 Y102.34940 Z30.53256
 Y100.85542 Z30.17872
 Y100.10843 Z29.99742
 Y99.36145 Z29.77316
 Y98.61446 Z29.55061
 Y97.86747 Z29.32950
 Y97.12048 Z29.10984
 Y96.37349 Z28.89194
 Y95.62651 Z28.67587
 Y94.87952 Z28.46125
 Y94.13253 Z28.24816
 Y93.38554 Z28.03658
 Y92.63855 Z27.82699
 Y91.89157 Z27.62073
 Y88.90361 Z26.80271
 Y88.15663 Z26.60379
 Y85.16867 Z25.81713
 Y84.42169 Z25.62650
 Y81.43373 Z24.87097
 Y80.68675 Z24.68856
 Y77.69880 Z23.96393
 Y76.95181 Z23.78970
 Y74.71084 Z23.26922
 Y73.96386 Z23.09575
 Y73.21687 Z22.92957
 Y70.97590 Z22.43195
 Y70.22892 Z22.26628
 Y69.48193 Z22.10800
 Y67.24096 Z21.63309
 Y66.49398 Z21.47549
 Y63.50602 Z20.87237
 Y62.75904 Z20.72272
 Y59.77108 Z20.14950
 Y59.02410 Z20.00782
 Y56.03614 Z19.46436
 Y55.28916 Z19.33054
 Y52.30120 Z18.81666
 Y51.55422 Z18.69068
 Y48.56627 Z18.20626
 Y47.81928 Z18.08815
 Y44.83133 Z17.63303
 Y44.08434 Z17.52269
 Y41.09639 Z17.09675
 Y40.34940 Z16.99410
 Y37.36145 Z16.59724
 Y36.61446 Z16.50230
 Y33.62651 Z16.13438
 Y32.87952 Z16.04714
 Y29.89157 Z15.70807
 Y29.14458 Z15.62847
 Y26.15663 Z15.31817
 Y25.40964 Z15.24620
 Y22.42169 Z14.96455
 Y21.67470 Z14.90021
 Y18.68675 Z14.64718
 Y17.93976 Z14.58830
 Y17.19277 Z14.53025
 Y16.44578 Z14.47433
 Y15.69880 Z14.41949
 Y14.95181 Z14.36608
 Y14.20482 Z14.31439
 Y13.45783 Z14.26349
 Y12.71084 Z14.21495
 Y11.96386 Z14.16709
 Y11.21687 Z14.12119
 Y10.46988 Z14.07647
 Y9.72289 Z14.03308
 Y8.97590 Z13.99104
 Y8.22892 Z13.89725
 Y6.73494 Z13.69206
 Y5.98795 Z13.43209
 Y3.00000 Z12.10421
 X12.34586
 Y6.50005 Z13.65968
 Y6.50151 Z13.66000
 Y8.22892 Z13.89725
 Y8.97590 Z13.99104
 Y9.72289 Z14.03308
 Y10.46988 Z14.07647
 Y11.21687 Z14.12119
 Y11.96386 Z14.16709
 Y12.71084 Z14.21495
 Y13.45783 Z14.26349
 Y14.20482 Z14.31439
 Y14.95181 Z14.36608
 Y15.69880 Z14.41949
 Y16.44578 Z14.47433
 Y17.19277 Z14.53025
 Y17.93976 Z14.58830
 Y18.68675 Z14.64718
 Y21.67470 Z14.90021
 Y22.42169 Z14.96455
 Y25.40964 Z15.24620
 Y26.15663 Z15.31817
 Y29.14458 Z15.62847
 Y29.89157 Z15.70807
 Y32.87952 Z16.04714
 Y33.62651 Z16.13438
 Y36.61446 Z16.50230
 Y37.36145 Z16.59724
 Y40.34940 Z16.99410
 Y41.09639 Z17.09675
 Y44.08434 Z17.52269
 Y44.83133 Z17.63303
 Y47.81928 Z18.08815
 Y48.56627 Z18.20626
 Y51.55422 Z18.69068
 Y52.30120 Z18.81666
 Y55.28916 Z19.33054
 Y56.03614 Z19.46436
 Y59.02410 Z20.00782
 Y59.77108 Z20.14950
 Y62.75904 Z20.72272
 Y63.50602 Z20.87237
 Y66.49398 Z21.47549
 Y67.24096 Z21.63309
 Y69.48193 Z22.10800
 Y70.22892 Z22.26628
 Y70.97590 Z22.43195
 Y73.21687 Z22.92957
 Y73.96386 Z23.09575
 Y74.71084 Z23.26922
 Y76.95181 Z23.78970
 Y77.69880 Z23.96393
 Y80.68675 Z24.68856
 Y81.43373 Z24.87097
 Y84.42169 Z25.62650
 Y85.16867 Z25.81713
 Y88.15663 Z26.60379
 Y88.90361 Z26.80271
 Y91.89157 Z27.62073
 Y92.63855 Z27.82699
 Y93.38554 Z28.03658
 Y94.13253 Z28.24816
 Y94.87952 Z28.46125
 Y95.62651 Z28.67587
 Y96.37349 Z28.89194
 Y97.12048 Z29.10984
 Y97.86747 Z29.32950
 Y98.61446 Z29.55061
 Y99.36145 Z29.77316
 Y100.10843 Z29.99742
 Y100.85542 Z30.17872
 Y102.34940 Z30.53256
 Y103.09639 Z30.63694
 Y104.59036 Z30.73334
 Y105.33735 Z30.76019
 Y106.08434 Z30.76058
 Y106.83133 Z30.76060
 Y112.80723
 Y113.55422 Z30.73732
 Y115.04819 Z30.66070
 Y115.79518 Z30.46849
 Y119.85693 Z29.17373
 Y119.88027 Z29.16623
 Y119.90361 Z29.15879
 Y120.27711 Z28.82946
 Y124.38554 Z24.90334
 Y124.75904 Z24.18454
 Y126.25301 Z20.79056
 Y127.00000 Z18.27521
 X12.94361
 Y126.64985 Z19.88071
 Y126.62651 Z19.94216
 Y126.25301 Z20.79056
 Y124.48475 Z24.80766
 Y124.47892 Z24.81410
 Y124.38554 Z24.90334
 Y119.95030 Z29.14177
 Y119.90361 Z29.15879
 Y119.53012 Z29.27791
 Y115.23494 Z30.64708
 Y115.04819 Z30.66070
 Y113.55422 Z30.73732
 Y112.80723 Z30.76060
 Y106.83133
 Y106.08434 Z30.76058
 Y105.33735 Z30.76019
 Y104.59036 Z30.73334
 Y102.72289 Z30.61284
 Y102.34940 Z30.53256
 Y100.85542 Z30.17872
 Y100.10843 Z29.99742
 Y99.36145 Z29.77316
 Y98.61446 Z29.55061
 Y97.86747 Z29.32950
 Y97.12048 Z29.10984
 Y96.37349 Z28.89194
 Y95.62651 Z28.67587
 Y94.87952 Z28.46125
 Y94.13253 Z28.24816
 Y93.38554 Z28.03658
 Y92.63855 Z27.82699
 Y91.89157 Z27.62073
 Y88.90361 Z26.80271
 Y88.15663 Z26.60379
 Y85.16867 Z25.81713
 Y84.42169 Z25.62650
 Y81.43373 Z24.87097
 Y80.68675 Z24.68856
 Y77.69880 Z23.96393
 Y76.95181 Z23.78970
 Y74.71084 Z23.26922
 Y73.96386 Z23.09575
 Y73.21687 Z22.92957
 Y70.97590 Z22.43195
 Y70.22892 Z22.26628
 Y69.48193 Z22.10800
 Y67.24096 Z21.63309
 Y66.49398 Z21.47549
 Y63.50602 Z20.87237
 Y62.75904 Z20.72272
 Y59.77108 Z20.14950
 Y59.02410 Z20.00782
 Y56.03614 Z19.46436
 Y55.28916 Z19.33054
 Y52.30120 Z18.81666
 Y51.55422 Z18.69068
 Y48.56627 Z18.20626
 Y47.81928 Z18.08815
 Y44.83133 Z17.63303
 Y44.08434 Z17.52269
 Y41.09639 Z17.09675
 Y40.34940 Z16.99410
 Y37.36145 Z16.59724
 Y36.61446 Z16.50230
 Y33.62651 Z16.13438
 Y32.87952 Z16.04714
 Y29.89157 Z15.70807
 Y29.14458 Z15.62847
 Y26.15663 Z15.31817
 Y25.40964 Z15.24620
 Y22.42169 Z14.96455
 Y21.67470 Z14.90021
 Y18.68675 Z14.64718
 Y17.93976 Z14.58830
 Y17.19277 Z14.53025
 Y16.44578 Z14.47433
 Y15.69880 Z14.41949
 Y14.95181 Z14.36608
 Y14.20482 Z14.31439
 Y13.45783 Z14.26349
 Y12.71084 Z14.21495
 Y11.96386 Z14.16709
 Y11.21687 Z14.12119
 Y10.46988 Z14.07647
 Y9.72289 Z14.03308
 Y8.97590 Z13.99104
 Y8.22892 Z13.89725
 Y6.73494 Z13.69206
 Y5.98795 Z13.43209
 Y3.00000 Z12.10421
 X13.54135
 Y6.50005 Z13.65968
 Y6.50151 Z13.66000
 Y8.22892 Z13.89725
 Y8.97590 Z13.99104
 Y9.72289 Z14.03308
 Y10.46988 Z14.07647
 Y11.21687 Z14.12119
 Y11.96386 Z14.16709
 Y12.71084 Z14.21495
 Y13.45783 Z14.26349
 Y14.20482 Z14.31439
 Y14.95181 Z14.36608
 Y15.69880 Z14.41949
 Y16.44578 Z14.47433
 Y17.19277 Z14.53025
 Y17.93976 Z14.58830
 Y18.68675 Z14.64718
 Y21.67470 Z14.90021
 Y22.42169 Z14.96455
 Y25.40964 Z15.24620
 Y26.15663 Z15.31817
 Y29.14458 Z15.62847
 Y29.89157 Z15.70807
 Y32.87952 Z16.04714
 Y33.62651 Z16.13438
 Y36.61446 Z16.50230
 Y37.36145 Z16.59724
 Y40.34940 Z16.99410
 Y41.09639 Z17.09675
 Y44.08434 Z17.52269
 Y44.83133 Z17.63303
 Y47.81928 Z18.08815
 Y48.56627 Z18.20626
 Y51.55422 Z18.69068
 Y52.30120 Z18.81666
 Y55.28916 Z19.33054
 Y56.03614 Z19.46436
 Y59.02410 Z20.00782
 Y59.77108 Z20.14950
 Y62.75904 Z20.72272
 Y63.50602 Z20.87237
 Y66.49398 Z21.47549
 Y67.24096 Z21.63309
 Y69.48193 Z22.10800
 Y70.22892 Z22.26628
 Y70.97590 Z22.43195
 Y73.21687 Z22.92957
 Y73.96386 Z23.09575
 Y74.71084 Z23.26922
 Y76.95181 Z23.78970
 Y77.69880 Z23.96393
 Y80.68675 Z24.68856
 Y81.43373 Z24.87097
 Y84.42169 Z25.62650
 Y85.16867 Z25.81713
 Y88.15663 Z26.60379
 Y88.90361 Z26.80271
 Y91.89157 Z27.62073
 Y92.63855 Z27.82699
 Y93.38554 Z28.03658
 Y94.13253 Z28.24816
 Y94.87952 Z28.46125
 Y95.62651 Z28.67587
 Y96.37349 Z28.89194
 Y97.12048 Z29.10984
 Y97.86747 Z29.32950
 Y98.61446 Z29.55061
 Y99.36145 Z29.77316
 Y100.10843 Z29.99742
 Y100.85542 Z30.17872
 Y102.34940 Z30.53256
 Y103.09639 Z30.63694
 Y104.59036 Z30.73334
 Y105.33735 Z30.76019
 Y106.08434 Z30.76058
 Y106.83133 Z30.76060
 Y112.80723
 Y113.55422 Z30.73732
 Y115.04819 Z30.66070
 Y115.79518 Z30.46849
 Y119.81024 Z29.18861
 Y119.85693 Z29.17367
 Y119.90361 Z29.15879
 Y120.27711 Z28.82946
 Y124.37387 Z24.91450
 Y124.37971 Z24.90891
 Y124.38554 Z24.90333
 Y124.75904 Z24.18454
 Y126.25301 Z20.79056
 Y127.00000 Z18.27521
 X14.13910
 Y126.64985 Z19.88071
 Y126.62651 Z19.94216
 Y126.25301 Z20.79056
 Y124.48475 Z24.80766
 Y124.47892 Z24.81410
 Y124.38554 Z24.90333
 Y124.01205 Z25.26026
 Y119.95030 Z29.14177
 Y119.90361 Z29.15879
 Y119.53012 Z29.27791
 Y115.23494 Z30.64708
 Y115.04819 Z30.66070
 Y113.55422 Z30.73732
 Y112.80723 Z30.76060
 Y106.83133
 Y106.08434 Z30.76058
 Y105.33735 Z30.76019
 Y104.59036 Z30.73334
 Y102.72289 Z30.61284
 Y102.34940 Z30.53256
 Y100.85542 Z30.17872
 Y100.10843 Z29.99742
 Y99.36145 Z29.77316
 Y98.61446 Z29.55061
 Y97.86747 Z29.32950
 Y97.12048 Z29.10984
 Y96.37349 Z28.89194
 Y95.62651 Z28.67587
 Y94.87952 Z28.46125
 Y94.13253 Z28.24816
 Y93.38554 Z28.03658
 Y92.63855 Z27.82699
 Y91.89157 Z27.62073
 Y88.90361 Z26.80271
 Y88.15663 Z26.60379
 Y85.16867 Z25.81713
 Y84.42169 Z25.62650
 Y81.43373 Z24.87097
 Y80.68675 Z24.68856
 Y77.69880 Z23.96393
 Y76.95181 Z23.78970
 Y74.71084 Z23.26922
 Y73.96386 Z23.09575
 Y73.21687 Z22.92957
 Y70.97590 Z22.43195
 Y70.22892 Z22.26628
 Y69.48193 Z22.10800
 Y67.24096 Z21.63309
 Y66.49398 Z21.47549
 Y63.50602 Z20.87237
 Y62.75904 Z20.72272
 Y59.77108 Z20.14950
 Y59.02410 Z20.00782
 Y56.03614 Z19.46436
 Y55.28916 Z19.33054
 Y52.30120 Z18.81666
 Y51.55422 Z18.69068
 Y48.56627 Z18.20626
 Y47.81928 Z18.08815
 Y44.83133 Z17.63303
 Y44.08434 Z17.52269
 Y41.09639 Z17.09675
 Y40.34940 Z16.99410
 Y37.36145 Z16.59724
 Y36.61446 Z16.50230
 Y33.62651 Z16.13438
 Y32.87952 Z16.04714
 Y29.89157 Z15.70807
 Y29.14458 Z15.62847
 Y26.15663 Z15.31817
 Y25.40964 Z15.24620
 Y22.42169 Z14.96455
 Y21.67470 Z14.90021
 Y18.68675 Z14.64718
 Y17.93976 Z14.58830
 Y17.19277 Z14.53025
 Y16.44578 Z14.47433
 Y15.69880 Z14.41949
 Y14.95181 Z14.36608
 Y14.20482 Z14.31439
 Y13.45783 Z14.26349
 Y12.71084 Z14.21495
 Y11.96386 Z14.16709
 Y11.21687 Z14.12119
 Y10.46988 Z14.07647
 Y9.72289 Z14.03308
 Y8.97590 Z13.99104
 Y8.22892 Z13.89725
 Y6.73494 Z13.69206
 Y5.98795 Z13.43209
 Y3.00000 Z12.10421
 X14.73684
 Y6.50005 Z13.65968
 Y6.50151 Z13.66000
 Y8.22892 Z13.89725
 Y8.97590 Z13.99104
 Y9.72289 Z14.03308
 Y10.46988 Z14.07647
 Y11.21687 Z14.12119
 Y11.96386 Z14.16709
 Y12.71084 Z14.21495
 Y13.45783 Z14.26348
 Y14.20482 Z14.31439
 Y14.95181 Z14.36608
 Y15.69880 Z14.41949
 Y16.44578 Z14.47433
 Y17.19277 Z14.53025
 Y17.93976 Z14.58830
 Y18.68675 Z14.64718
 Y21.67470 Z14.90021
 Y22.42169 Z14.96458
 Y23.16867 Z15.03497
 Y25.40964 Z15.24620
 Y26.15663 Z15.31817
 Y29.14458 Z15.62847
 Y29.89157 Z15.70807
 Y32.87952 Z16.04714
 Y33.62651 Z16.13438
 Y36.61446 Z16.50230
 Y37.36145 Z16.59724
 Y40.34940 Z16.99410
 Y41.09639 Z17.09675
 Y44.08434 Z17.52269
 Y44.83133 Z17.63303
 Y47.81928 Z18.08815
 Y48.56627 Z18.20626
 Y51.55422 Z18.69068
 Y52.30120 Z18.81666
 Y55.28916 Z19.33054
 Y56.03614 Z19.46436
 Y59.02410 Z20.00782
 Y59.77108 Z20.14950
 Y62.75904 Z20.72272
 Y63.50602 Z20.87237
 Y66.49398 Z21.47549
 Y67.24096 Z21.63309
 Y69.48193 Z22.10800
 Y70.22892 Z22.26628
 Y70.97590 Z22.43195
 Y73.21687 Z22.92957
 Y73.96386 Z23.09575
 Y74.71084 Z23.26922
 Y76.95181 Z23.78970
 Y77.69880 Z23.96393
 Y80.68675 Z24.68856
 Y81.43373 Z24.87097
 Y84.42169 Z25.62650
 Y85.16867 Z25.81713
 Y88.15663 Z26.60379
 Y88.90361 Z26.80271
 Y91.89157 Z27.62073
 Y92.63855 Z27.82699
 Y93.38554 Z28.03658
 Y94.13253 Z28.24816
 Y94.87952 Z28.46125
 Y95.62651 Z28.67587
 Y96.37349 Z28.89194
 Y97.12048 Z29.10984
 Y97.86747 Z29.32950
 Y98.61446 Z29.55061
 Y99.36145 Z29.77316
 Y100.10843 Z29.99742
 Y100.85542 Z30.17872
 Y102.34940 Z30.53256
 Y103.09639 Z30.63694
 Y104.59036 Z30.73334
 Y105.33735 Z30.76019
 Y106.08434 Z30.76058
 Y106.83133 Z30.76060
 Y112.80723
 Y113.55422 Z30.73732
 Y115.04819 Z30.66070
 Y115.79518 Z30.46849
 Y119.71687 Z29.21838
 Y119.81024 Z29.18855
 Y119.90361 Z29.15879
 Y120.27711 Z28.82946
 Y124.33886 Z24.94796
 Y124.36220 Z24.92564
 Y124.38554 Z24.90333
 Y124.75904 Z24.18454
 Y126.25301 Z20.79056
 Y127.00000 Z18.27521
 X15.33459
 Y126.64985 Z19.88071
 Y126.62651 Z19.94216
 Y126.25301 Z20.79056
 Y124.48475 Z24.80766
 Y124.47892 Z24.81410
 Y124.38554 Z24.90333
 Y124.01205 Z25.26026
 Y119.95030 Z29.14177
 Y119.90361 Z29.15879
 Y119.53012 Z29.27791
 Y115.23494 Z30.64708
 Y115.04819 Z30.66070
 Y113.55422 Z30.73732
 Y112.80723 Z30.76060
 Y106.83133
 Y106.08434 Z30.76058
 Y105.33735 Z30.76019
 Y104.59036 Z30.73334
 Y102.72289 Z30.61284
 Y102.34940 Z30.53256
 Y100.85542 Z30.17872
 Y100.10843 Z29.99742
 Y99.36145 Z29.77316
 Y98.61446 Z29.55061
 Y97.86747 Z29.32950
 Y97.12048 Z29.10984
 Y96.37349 Z28.89194
 Y95.62651 Z28.67587
 Y94.87952 Z28.46125
 Y94.13253 Z28.24816
 Y93.38554 Z28.03658
 Y92.63855 Z27.82699
 Y91.89157 Z27.62073
 Y88.90361 Z26.80271
 Y88.15663 Z26.60379
 Y85.16867 Z25.81713
 Y84.42169 Z25.62650
 Y81.43373 Z24.87097
 Y80.68675 Z24.68856
 Y77.69880 Z23.96393
 Y76.95181 Z23.78970
 Y74.71084 Z23.26922
 Y73.96386 Z23.09575
 Y73.21687 Z22.92957
 Y70.97590 Z22.43195
 Y70.22892 Z22.26628
 Y69.48193 Z22.10800
 Y67.24096 Z21.63309
 Y66.49398 Z21.47549
 Y63.50602 Z20.87237
 Y62.75904 Z20.72272
 Y59.77108 Z20.14950
 Y59.02410 Z20.00782
 Y56.03614 Z19.46436
 Y55.28916 Z19.33054
 Y52.30120 Z18.81666
 Y51.55422 Z18.69068
 Y48.56627 Z18.20626
 Y47.81928 Z18.08815
 Y44.83133 Z17.63303
 Y44.08434 Z17.52269
 Y41.09639 Z17.09675
 Y40.34940 Z16.99410
 Y37.36145 Z16.59724
 Y36.61446 Z16.50230
 Y33.62651 Z16.13438
 Y32.87952 Z16.04714
 Y29.89157 Z15.70807
 Y29.14458 Z15.62847
 Y26.15663 Z15.31817
 Y25.40964 Z15.24620
 Y23.16867 Z15.03497
 Y22.42169 Z14.96458
 Y21.67470 Z14.90021
 Y18.68675 Z14.64718
 Y17.93976 Z14.58830
 Y17.19277 Z14.53025
 Y16.44578 Z14.47433
 Y15.69880 Z14.41949
 Y14.95181 Z14.36608
 Y14.20482 Z14.31439
 Y13.45783 Z14.26348
 Y12.71084 Z14.21495
 Y11.96386 Z14.16709
 Y11.21687 Z14.12119
 Y10.46988 Z14.07647
 Y9.72289 Z14.03308
 Y8.97590 Z13.99104
 Y8.22892 Z13.89725
 Y6.73494 Z13.69206
 Y5.98795 Z13.43209
 Y3.00000 Z12.10421
 X15.93233
 Y6.50005 Z13.65968
 Y6.50151 Z13.66000
 Y8.22892 Z13.89725
 Y8.97590 Z13.99104
 Y9.72289 Z14.03308
 Y10.46988 Z14.07647
 Y11.21687 Z14.12119
 Y11.96386 Z14.16709
 Y12.71084 Z14.21495
 Y13.45783 Z14.26348
 Y14.20482 Z14.31439
 Y14.95181 Z14.36608
 Y15.69880 Z14.41949
 Y16.44578 Z14.47433
 Y17.19277 Z14.53025
 Y17.93976 Z14.58830
 Y18.68675 Z14.64718
 Y21.67470 Z14.90021
 Y22.42169 Z14.96458
 Y23.16867 Z15.03497
 Y25.40964 Z15.24620
 Y26.15663 Z15.31817
 Y29.14458 Z15.62847
 Y29.89157 Z15.70807
 Y32.87952 Z16.04714
 Y33.62651 Z16.13438
 Y36.61446 Z16.50230
 Y37.36145 Z16.59724
 Y40.34940 Z16.99410
 Y41.09639 Z17.09675
 Y44.08434 Z17.52269
 Y44.83133 Z17.63303
 Y47.81928 Z18.08815
 Y48.56627 Z18.20626
 Y51.55422 Z18.69068
 Y52.30120 Z18.81666
 Y55.28916 Z19.33054
 Y56.03614 Z19.46436
 Y59.02410 Z20.00782
 Y59.77108 Z20.14950
 Y62.75904 Z20.72272
 Y63.50602 Z20.87237
 Y66.49398 Z21.47549
 Y67.24096 Z21.63309
 Y69.48193 Z22.10800
 Y70.22892 Z22.26628
 Y70.97590 Z22.43195
 Y73.21687 Z22.92957
 Y73.96386 Z23.09575
 Y74.71084 Z23.26922
 Y76.95181 Z23.78970
 Y77.69880 Z23.96393
 Y80.68675 Z24.68856
 Y81.43373 Z24.87097
 Y84.42169 Z25.62650
 Y85.16867 Z25.81713
 Y88.15663 Z26.60379
 Y88.90361 Z26.80271
 Y91.89157 Z27.62073
 Y92.63855 Z27.82699
 Y93.38554 Z28.03658
 Y94.13253 Z28.24816
 Y94.87952 Z28.46125
 Y95.62651 Z28.67587
 Y96.37349 Z28.89194
 Y97.12048 Z29.10984
 Y97.86747 Z29.32950
 Y98.61446 Z29.55061
 Y99.36145 Z29.77316
 Y100.10843 Z29.99742
 Y100.85542 Z30.17872
 Y102.34940 Z30.53256
 Y103.09639 Z30.63694
 Y104.59036 Z30.73334
 Y105.33735 Z30.76019
 Y106.08434 Z30.76058
 Y106.83133 Z30.76060
 Y112.80723
 Y113.55422 Z30.73732
 Y115.04819 Z30.66070
 Y115.79518 Z30.46849
 Y119.71687 Z29.21838
 Y119.81024 Z29.18855
 Y119.90361 Z29.15879
 Y120.27711 Z28.82946
 Y124.29217 Z24.99257
 Y124.33886 Z24.94795
 Y124.38554 Z24.90333
 Y124.75904 Z24.18454
 Y126.25301 Z20.79056
 Y127.00000 Z18.27521
 X16.53008
 Y126.64985 Z19.88071
 Y126.62651 Z19.94216
 Y126.25301 Z20.79056
 Y124.48475 Z24.80766
 Y124.47892 Z24.81410
 Y124.38554 Z24.90333
 Y124.01205 Z25.26026
 Y119.95030 Z29.14177
 Y119.90361 Z29.15879
 Y119.53012 Z29.27791
 Y115.23494 Z30.64708
 Y115.04819 Z30.66070
 Y113.55422 Z30.73732
 Y112.80723 Z30.76060
 Y106.83133
 Y106.08434 Z30.76058
 Y105.33735 Z30.76019
 Y104.59036 Z30.73334
 Y102.72289 Z30.61284
 Y102.34940 Z30.53256
 Y100.85542 Z30.17872
 Y100.10843 Z29.99742
 Y99.36145 Z29.77316
 Y98.61446 Z29.55061
 Y97.86747 Z29.32950
 Y97.12048 Z29.10984
 Y96.37349 Z28.89194
 Y95.62651 Z28.67587
 Y94.87952 Z28.46125
 Y94.13253 Z28.24816
 Y93.38554 Z28.03658
 Y92.63855 Z27.82699
 Y91.89157 Z27.62073
 Y88.90361 Z26.80271
 Y88.15663 Z26.60379
 Y85.16867 Z25.81713
 Y84.42169 Z25.62650
 Y81.43373 Z24.87097
 Y80.68675 Z24.68856
 Y77.69880 Z23.96393
 Y76.95181 Z23.78970
 Y74.71084 Z23.26922
 Y73.96386 Z23.09575
 Y73.21687 Z22.92957
 Y70.97590 Z22.43195
 Y70.22892 Z22.26628
 Y69.48193 Z22.10800
 Y67.24096 Z21.63309
 Y66.49398 Z21.47549
 Y63.50602 Z20.87237
 Y62.75904 Z20.72272
 Y59.77108 Z20.14950
 Y59.02410 Z20.00782
 Y56.03614 Z19.46436
 Y55.28916 Z19.33054
 Y52.30120 Z18.81666
 Y51.55422 Z18.69068
 Y48.56627 Z18.20626
 Y47.81928 Z18.08815
 Y44.83133 Z17.63303
 Y44.08434 Z17.52269
 Y41.09639 Z17.09675
 Y40.34940 Z16.99410
 Y37.36145 Z16.59724
 Y36.61446 Z16.50230
 Y33.62651 Z16.13438
 Y32.87952 Z16.04714
 Y29.89157 Z15.70807
 Y29.14458 Z15.62847
 Y26.15663 Z15.31817
 Y25.40964 Z15.24620
 Y23.16867 Z15.03497
 Y22.42169 Z14.96458
 Y21.67470 Z14.90021
 Y18.68675 Z14.64718
 Y17.93976 Z14.58830
 Y17.19277 Z14.53025
 Y16.44578 Z14.47433
 Y15.69880 Z14.41949
 Y14.95181 Z14.36608
 Y14.20482 Z14.31439
 Y13.45783 Z14.26348
 Y12.71084 Z14.21495
 Y11.96386 Z14.16709
 Y11.21687 Z14.12119
 Y10.46988 Z14.07647
 Y9.72289 Z14.03308
 Y8.97590 Z13.99104
 Y8.22892 Z13.89725
 Y6.73494 Z13.69206
 Y5.98795 Z13.43209
 Y3.00000 Z12.10421
 X17.12782
 Y6.50005 Z13.65968
 Y6.50151 Z13.66000
 Y8.22892 Z13.89725
 Y8.97590 Z13.99104
 Y9.72289 Z14.03308
 Y10.46988 Z14.07647
 Y11.21687 Z14.12119
 Y11.96386 Z14.16709
 Y12.71084 Z14.21495
 Y13.45783 Z14.26348
 Y14.20482 Z14.31439
 Y14.95181 Z14.36608
 Y15.69880 Z14.41949
 Y16.44578 Z14.47433
 Y17.19277 Z14.53025
 Y17.93976 Z14.58830
 Y18.68675 Z14.64718
 Y21.67470 Z14.90021
 Y22.42169 Z14.96458
 Y23.16867 Z15.03497
 Y25.40964 Z15.24620
 Y26.15663 Z15.31817
 Y29.14458 Z15.62847
 Y29.89157 Z15.70807
 Y32.87952 Z16.04714
 Y33.62651 Z16.13438
 Y36.61446 Z16.50230
 Y37.36145 Z16.59724
 Y40.34940 Z16.99410
 Y41.09639 Z17.09675
 Y44.08434 Z17.52269
 Y44.83133 Z17.63303
 Y47.81928 Z18.08815
 Y48.56627 Z18.20626
 Y51.55422 Z18.69068
 Y52.30120 Z18.81666
 Y55.28916 Z19.33054
 Y56.03614 Z19.46436
 Y59.02410 Z20.00782
 Y59.77108 Z20.14950
 Y62.75904 Z20.72272
 Y63.50602 Z20.87237
 Y66.49398 Z21.47549
 Y67.24096 Z21.63309
 Y69.48193 Z22.10800
 Y70.22892 Z22.26628
 Y70.97590 Z22.43195
 Y73.21687 Z22.92957
 Y73.96386 Z23.09575
 Y74.71084 Z23.26922
 Y76.95181 Z23.78970
 Y77.69880 Z23.96393
 Y80.68675 Z24.68856
 Y81.43373 Z24.87097
 Y84.42169 Z25.62650
 Y85.16867 Z25.81713
 Y88.15663 Z26.60379
 Y88.90361 Z26.80271
 Y91.89157 Z27.62073
 Y92.63855 Z27.82699
 Y93.38554 Z28.03658
 Y94.13253 Z28.24816
 Y94.87952 Z28.46125
 Y95.62651 Z28.67587
 Y96.37349 Z28.89194
 Y97.12048 Z29.10984
 Y97.86747 Z29.32950
 Y98.61446 Z29.55061
 Y99.36145 Z29.77316
 Y100.10843 Z29.99742
 Y100.85542 Z30.17872
 Y102.34940 Z30.53256
 Y103.09639 Z30.63694
 Y104.59036 Z30.73334
 Y105.33735 Z30.76019
 Y106.08434 Z30.76058
 Y106.83133 Z30.76060
 Y112.80723
 Y113.55422 Z30.73732
 Y115.04819 Z30.66070
 Y115.79518 Z30.46849
 Y119.71687 Z29.21838
 Y119.81024 Z29.18855
 Y119.90361 Z29.15879
 Y120.27711 Z28.82946
 Y124.19880 Z25.08180
 Y124.29217 Z24.99256
 Y124.38554 Z24.90333
 Y124.75904 Z24.18454
 Y126.25301 Z20.79056
 Y127.00000 Z18.27521
 X17.72556
 Y126.64985 Z19.88071
 Y126.62651 Z19.94216
 Y126.25301 Z20.79056
 Y124.48475 Z24.80766
 Y124.47892 Z24.81410
 Y124.38554 Z24.90333
 Y124.01205 Z25.26026
 Y119.95030 Z29.14177
 Y119.90361 Z29.15879
 Y119.53012 Z29.27791
 Y115.23494 Z30.64708
 Y115.04819 Z30.66070
 Y113.55422 Z30.73732
 Y112.80723 Z30.76060
 Y106.83133
 Y106.08434 Z30.76058
 Y105.33735 Z30.76019
 Y104.59036 Z30.73334
 Y102.72289 Z30.61284
 Y102.34940 Z30.53256
 Y100.85542 Z30.17872
 Y100.10843 Z29.99742
 Y99.36145 Z29.77316
 Y98.61446 Z29.55061
 Y97.86747 Z29.32950
 Y97.12048 Z29.10984
 Y96.37349 Z28.89194
 Y95.62651 Z28.67587
 Y94.87952 Z28.46125
 Y94.13253 Z28.24816
 Y93.38554 Z28.03658
 Y92.63855 Z27.82699
 Y91.89157 Z27.62073
 Y88.90361 Z26.80271
 Y88.15663 Z26.60379
 Y85.16867 Z25.81713
 Y84.42169 Z25.62650
 Y81.43373 Z24.87097
 Y80.68675 Z24.68856
 Y77.69880 Z23.96393
 Y76.95181 Z23.78970
 Y74.71084 Z23.26922
 Y73.96386 Z23.09575
 Y73.21687 Z22.92957
 Y70.97590 Z22.43195
 Y70.22892 Z22.26628
 Y69.48193 Z22.10800
 Y67.24096 Z21.63309
 Y66.49398 Z21.47549
 Y63.50602 Z20.87237
 Y62.75904 Z20.72272
 Y59.77108 Z20.14950
 Y59.02410 Z20.00782
 Y56.03614 Z19.46436
 Y55.28916 Z19.33054
 Y52.30120 Z18.81666
 Y51.55422 Z18.69068
 Y48.56627 Z18.20626
 Y47.81928 Z18.08815
 Y44.83133 Z17.63303
 Y44.08434 Z17.52269
 Y41.09639 Z17.09675
 Y40.34940 Z16.99410
 Y37.36145 Z16.59724
 Y36.61446 Z16.50230
 Y33.62651 Z16.13438
 Y32.87952 Z16.04714
 Y29.89157 Z15.70807
 Y29.14458 Z15.62847
 Y26.15663 Z15.31817
 Y25.40964 Z15.24620
 Y23.16867 Z15.03497
 Y22.42169 Z14.96458
 Y21.67470 Z14.90021
 Y18.68675 Z14.64718
 Y17.93976 Z14.58830
 Y17.19277 Z14.53025
 Y16.44578 Z14.47433
 Y15.69880 Z14.41949
 Y14.95181 Z14.36608
 Y14.20482 Z14.31439
 Y13.45783 Z14.26348
 Y12.71084 Z14.21495
 Y11.96386 Z14.16709
 Y11.21687 Z14.12119
 Y10.46988 Z14.07647
 Y9.72289 Z14.03308
 Y8.97590 Z13.99104
 Y8.22892 Z13.89725
 Y6.73494 Z13.69206
 Y5.98795 Z13.43209
 Y3.00000 Z12.10421
 X18.32331
 Y6.50005 Z13.65968
 Y6.50151 Z13.66000
 Y8.22892 Z13.89725
 Y8.97590 Z13.99104
 Y9.72289 Z14.03308
 Y10.46988 Z14.07647
 Y11.21687 Z14.12119
 Y11.96386 Z14.16709
 Y12.71084 Z14.21495
 Y13.45783 Z14.26348
 Y14.20482 Z14.31439
 Y14.95181 Z14.36608
 Y15.69880 Z14.41949
 Y16.44578 Z14.47433
 Y17.19277 Z14.53025
 Y17.93976 Z14.58830
 Y18.68675 Z14.64718
 Y21.67470 Z14.90021
 Y22.42169 Z14.96458
 Y23.16867 Z15.03497
 Y25.40964 Z15.24620
 Y26.15663 Z15.31817
 Y29.14458 Z15.62847
 Y29.89157 Z15.70807
 Y32.87952 Z16.04714
 Y33.62651 Z16.13438
 Y36.61446 Z16.50230
 Y37.36145 Z16.59724
 Y40.34940 Z16.99410
 Y41.09639 Z17.09675
 Y44.08434 Z17.52269
 Y44.83133 Z17.63303
 Y47.81928 Z18.08815
 Y48.56627 Z18.20626
 Y51.55422 Z18.69068
 Y52.30120 Z18.81666
 Y55.28916 Z19.33054
 Y56.03614 Z19.46436
 Y59.02410 Z20.00782
 Y59.77108 Z20.14950
 Y62.75904 Z20.72272
 Y63.50602 Z20.87237
 Y66.49398 Z21.47549
 Y67.24096 Z21.63309
 Y69.48193 Z22.10800
 Y70.22892 Z22.26628
 Y70.97590 Z22.43195
 Y73.21687 Z22.92957
 Y73.96386 Z23.09575
 Y74.71084 Z23.26922
 Y76.95181 Z23.78970
 Y77.69880 Z23.96393
 Y80.68675 Z24.68856
 Y81.43373 Z24.87097
 Y84.42169 Z25.62650
 Y85.16867 Z25.81713
 Y88.15663 Z26.60379
 Y88.90361 Z26.80271
 Y91.89157 Z27.62073
 Y92.63855 Z27.82699
 Y93.38554 Z28.03658
 Y94.13253 Z28.24816
 Y94.87952 Z28.46125
 Y95.62651 Z28.67587
 Y96.37349 Z28.89194
 Y97.12048 Z29.10984
 Y97.86747 Z29.32950
 Y98.61446 Z29.55061
 Y99.36145 Z29.77316
 Y100.10843 Z29.99742
 Y100.85542 Z30.17872
 Y102.34940 Z30.53256
 Y103.09639 Z30.63694
 Y104.59036 Z30.73334
 Y105.33735 Z30.76019
 Y106.08434 Z30.76058
 Y106.83133 Z30.76060
 Y112.80723
 Y113.55422 Z30.73732
 Y115.04819 Z30.66070
 Y115.79518 Z30.46849
 Y119.53012 Z29.27791
 Y119.71687 Z29.21832
 Y119.90361 Z29.15879
 Y120.27711 Z28.82946
 Y124.19880 Z25.08180
 Y124.29217 Z24.99256
 Y124.38554 Z24.90333
 Y124.75904 Z24.18454
 Y126.25301 Z20.79056
 Y127.00000 Z18.27521
 X18.92105
 Y126.64985 Z19.88071
 Y126.62651 Z19.94216
 Y126.25301 Z20.79056
 Y124.48475 Z24.80766
 Y124.47892 Z24.81410
 Y124.38554 Z24.90333
 Y124.01205 Z25.26026
 Y119.95030 Z29.14177
 Y119.90361 Z29.15879
 Y119.53012 Z29.27791
 Y115.23494 Z30.64708
 Y115.04819 Z30.66070
 Y113.55422 Z30.73732
 Y112.80723 Z30.76060
 Y106.83133
 Y106.08434 Z30.76058
 Y105.33735 Z30.76019
 Y104.59036 Z30.73334
 Y102.72289 Z30.61284
 Y102.34940 Z30.53256
 Y100.85542 Z30.17872
 Y100.10843 Z29.99742
 Y99.36145 Z29.77316
 Y98.61446 Z29.55061
 Y97.86747 Z29.32950
 Y97.12048 Z29.10984
 Y96.37349 Z28.89194
 Y95.62651 Z28.67587
 Y94.87952 Z28.46125
 Y94.13253 Z28.24816
 Y93.38554 Z28.03658
 Y92.63855 Z27.82699
 Y91.89157 Z27.62073
 Y88.90361 Z26.80271
 Y88.15663 Z26.60379
 Y85.16867 Z25.81713
 Y84.42169 Z25.62650
 Y81.43373 Z24.87097
 Y80.68675 Z24.68856
 Y77.69880 Z23.96393
 Y76.95181 Z23.78970
 Y74.71084 Z23.26922
 Y73.96386 Z23.09575
 Y73.21687 Z22.92957
 Y70.97590 Z22.43195
 Y70.22892 Z22.26628
 Y69.48193 Z22.10800
 Y67.24096 Z21.63309
 Y66.49398 Z21.47549
 Y63.50602 Z20.87237
 Y62.75904 Z20.72272
 Y59.77108 Z20.14950
 Y59.02410 Z20.00782
 Y56.03614 Z19.46436
 Y55.28916 Z19.33054
 Y52.30120 Z18.81666
 Y51.55422 Z18.69068
 Y48.56627 Z18.20626
 Y47.81928 Z18.08815
 Y44.83133 Z17.63303
 Y44.08434 Z17.52269
 Y41.09639 Z17.09675
 Y40.34940 Z16.99410
 Y37.36145 Z16.59724
 Y36.61446 Z16.50230
 Y33.62651 Z16.13438
 Y32.87952 Z16.04714
 Y29.89157 Z15.70807
 Y29.14458 Z15.62847
 Y26.15663 Z15.31817
 Y25.40964 Z15.24620
 Y23.16867 Z15.03497
 Y22.42169 Z14.96458
 Y21.67470 Z14.90021
 Y18.68675 Z14.64718
 Y17.93976 Z14.58830
 Y17.19277 Z14.53025
 Y16.44578 Z14.47433
 Y15.69880 Z14.41949
 Y14.95181 Z14.36608
 Y14.20482 Z14.31439
 Y13.45783 Z14.26348
 Y12.71084 Z14.21495
 Y11.96386 Z14.16709
 Y11.21687 Z14.12119
 Y10.46988 Z14.07647
 Y9.72289 Z14.03308
 Y8.97590 Z13.99104
 Y8.22892 Z13.89725
 Y6.73494 Z13.69206
 Y5.98795 Z13.43209
 Y3.00000 Z12.10421
 X19.51880
 Y6.50005 Z13.65968
 Y6.50151 Z13.66000
 Y8.22892 Z13.89725
 Y8.97590 Z13.99104
 Y9.72289 Z14.03308
 Y10.46988 Z14.07647
 Y11.21687 Z14.12119
 Y11.96386 Z14.16709
 Y12.71084 Z14.21495
 Y13.45783 Z14.26348
 Y14.20482 Z14.31439
 Y14.95181 Z14.36608
 Y15.69880 Z14.41949
 Y16.44578 Z14.47433
 Y17.19277 Z14.53025
 Y17.93976 Z14.58830
 Y18.68675 Z14.64718
 Y21.67470 Z14.90021
 Y22.42169 Z14.96458
 Y23.16867 Z15.03497
 Y25.40964 Z15.24620
 Y26.15663 Z15.31817
 Y29.14458 Z15.62847
 Y29.89157 Z15.70807
 Y32.87952 Z16.04714
 Y33.62651 Z16.13438
 Y36.61446 Z16.50230
 Y37.36145 Z16.59724
 Y40.34940 Z16.99410
 Y41.09639 Z17.09675
 Y44.08434 Z17.52269
 Y44.83133 Z17.63303
 Y47.81928 Z18.08815
 Y48.56627 Z18.20626
 Y51.55422 Z18.69068
 Y52.30120 Z18.81666
 Y55.28916 Z19.33054
 Y56.03614 Z19.46436
 Y59.02410 Z20.00782
 Y59.77108 Z20.14950
 Y62.75904 Z20.72272
 Y63.50602 Z20.87237
 Y66.49398 Z21.47549
 Y67.24096 Z21.63309
 Y69.48193 Z22.10800
 Y70.22892 Z22.26628
 Y70.97590 Z22.43195
 Y73.21687 Z22.92957
 Y73.96386 Z23.09575
 Y74.71084 Z23.26922
 Y76.95181 Z23.78970
 Y77.69880 Z23.96393
 Y80.68675 Z24.68856
 Y81.43373 Z24.87097
 Y84.42169 Z25.62650
 Y85.16867 Z25.81713
 Y88.15663 Z26.60379
 Y88.90361 Z26.80271
 Y91.89157 Z27.62073
 Y92.63855 Z27.82699
 Y93.38554 Z28.03658
 Y94.13253 Z28.24816
 Y94.87952 Z28.46125
 Y95.62651 Z28.67587
 Y96.37349 Z28.89194
 Y97.12048 Z29.10984
 Y97.86747 Z29.32950
 Y98.61446 Z29.55061
 Y99.36145 Z29.77316
 Y100.10843 Z29.99742
 Y100.85542 Z30.17872
 Y102.34940 Z30.53256
 Y103.09639 Z30.63694
 Y104.59036 Z30.73334
 Y105.33735 Z30.76019
 Y106.08434 Z30.76058
 Y106.83133 Z30.76060
 Y112.80723
 Y113.55422 Z30.73732
 Y115.04819 Z30.66070
 Y115.79518 Z30.46849
 Y119.53012 Z29.27791
 Y119.71687 Z29.21832
 Y119.90361 Z29.15879
 Y120.27711 Z28.82946
 Y124.01205 Z25.26026
 Y124.19880 Z25.08179
 Y124.38554 Z24.90333
 Y124.75904 Z24.18454
 Y126.25301 Z20.79056
 Y127.00000 Z18.27521
 X20.11654
 Y126.64985 Z19.88071
 Y126.62651 Z19.94216
 Y126.25301 Z20.79056
 Y124.48475 Z24.80766
 Y124.47892 Z24.81410
 Y124.38554 Z24.90333
 Y124.01205 Z25.26026
 Y119.95030 Z29.14177
 Y119.90361 Z29.15879
 Y119.53012 Z29.27791
 Y115.23494 Z30.64708
 Y115.04819 Z30.66070
 Y113.55422 Z30.73732
 Y112.80723 Z30.76060
 Y106.83133
 Y106.08434 Z30.76058
 Y105.33735 Z30.76019
 Y104.59036 Z30.73334
 Y102.72289 Z30.61284
 Y102.34940 Z30.53256
 Y100.85542 Z30.17872
 Y100.10843 Z29.99742
 Y99.36145 Z29.77316
 Y98.61446 Z29.55061
 Y97.86747 Z29.32950
 Y97.12048 Z29.10984
 Y96.37349 Z28.89194
 Y95.62651 Z28.67587
 Y94.87952 Z28.46125
 Y94.13253 Z28.24816
 Y93.38554 Z28.03658
 Y92.63855 Z27.82699
 Y91.89157 Z27.62073
 Y88.90361 Z26.80271
 Y88.15663 Z26.60379
 Y85.16867 Z25.81713
 Y84.42169 Z25.62650
 Y81.43373 Z24.87097
 Y80.68675 Z24.68856
 Y77.69880 Z23.96393
 Y76.95181 Z23.78970
 Y74.71084 Z23.26922
 Y73.96386 Z23.09575
 Y73.21687 Z22.92957
 Y70.97590 Z22.43195
 Y70.22892 Z22.26628
 Y69.48193 Z22.10800
 Y67.24096 Z21.63309
 Y66.49398 Z21.47549
 Y63.50602 Z20.87237
 Y62.75904 Z20.72272
 Y59.77108 Z20.14950
 Y59.02410 Z20.00782
 Y56.03614 Z19.46436
 Y55.28916 Z19.33054
 Y52.30120 Z18.81666
 Y51.55422 Z18.69068
 Y48.56627 Z18.20626
 Y47.81928 Z18.08815
 Y44.83133 Z17.63303
 Y44.08434 Z17.52269
 Y41.09639 Z17.09675
 Y40.34940 Z16.99410
 Y37.36145 Z16.59724
 Y36.61446 Z16.50230
 Y33.62651 Z16.13438
 Y32.87952 Z16.04714
 Y29.89157 Z15.70807
 Y29.14458 Z15.62847
 Y26.15663 Z15.31817
 Y25.40964 Z15.24620
 Y23.16867 Z15.03497
 Y22.42169 Z14.96458
 Y21.67470 Z14.90021
 Y18.68675 Z14.64718
 Y17.93976 Z14.58830
 Y17.19277 Z14.53025
 Y16.44578 Z14.47433
 Y15.69880 Z14.41949
 Y14.95181 Z14.36608
 Y14.20482 Z14.31439
 Y13.45783 Z14.26348
 Y12.71084 Z14.21495
 Y11.96386 Z14.16709
 Y11.21687 Z14.12119
 Y10.46988 Z14.07647
 Y9.72289 Z14.03308
 Y8.97590 Z13.99104
 Y8.22892 Z13.89725
 Y6.73494 Z13.69206
 Y5.98795 Z13.43209
 Y3.00000 Z12.10421
 X20.71429
 Y6.50005 Z13.65968
 Y6.50151 Z13.66000
 Y8.22892 Z13.89725
 Y8.97590 Z13.99104
 Y9.72289 Z14.03308
 Y10.46988 Z14.07647
 Y11.21687 Z14.12119
 Y11.96386 Z14.16709
 Y12.71084 Z14.21495
 Y13.45783 Z14.26348
 Y14.20482 Z14.31439
 Y14.95181 Z14.36608
 Y15.69880 Z14.41949
 Y16.44578 Z14.47433
 Y17.19277 Z14.53025
 Y17.93976 Z14.58830
 Y18.68675 Z14.64718
 Y21.67470 Z14.90021
 Y22.42169 Z14.96458
 Y23.16867 Z15.03497
 Y25.40964 Z15.24620
 Y26.15663 Z15.31817
 Y29.14458 Z15.62847
 Y29.89157 Z15.70807
 Y32.87952 Z16.04714
 Y33.62651 Z16.13438
 Y36.61446 Z16.50230
 Y37.36145 Z16.59724
 Y40.34940 Z16.99410
 Y41.09639 Z17.09675
 Y44.08434 Z17.52269
 Y44.83133 Z17.63303
 Y47.81928 Z18.08815
 Y48.56627 Z18.20626
 Y51.55422 Z18.69068
 Y52.30120 Z18.81666
 Y55.28916 Z19.33054
 Y56.03614 Z19.46436
 Y59.02410 Z20.00782
 Y59.77108 Z20.14950
 Y62.75904 Z20.72272
 Y63.50602 Z20.87237
 Y66.49398 Z21.47549
 Y67.24096 Z21.63309
 Y69.48193 Z22.10800
 Y70.22892 Z22.26628
 Y70.97590 Z22.43195
 Y73.21687 Z22.92957
 Y73.96386 Z23.09575
 Y74.71084 Z23.26922
 Y76.95181 Z23.78970
 Y77.69880 Z23.96393
 Y80.68675 Z24.68856
 Y81.43373 Z24.87097
 Y84.42169 Z25.62650
 Y85.16867 Z25.81713
 Y88.15663 Z26.60379
 Y88.90361 Z26.80271
 Y91.89157 Z27.62073
 Y92.63855 Z27.82699
 Y93.38554 Z28.03658
 Y94.13253 Z28.24816
 Y94.87952 Z28.46125
 Y95.62651 Z28.67587
 Y96.37349 Z28.89194
 Y97.12048 Z29.10984
 Y97.86747 Z29.32950
 Y98.61446 Z29.55061
 Y99.36145 Z29.77316
 Y100.10843 Z29.99742
 Y100.85542 Z30.17872
 Y102.34940 Z30.53256
 Y103.09639 Z30.63694
 Y104.59036 Z30.73334
 Y105.33735 Z30.76019
 Y106.08434 Z30.76058
 Y106.83133 Z30.76060
 Y112.80723
 Y113.55422 Z30.73732
 Y115.04819 Z30.66070
 Y115.79518 Z30.46849
 Y119.53012 Z29.27791
 Y119.71687 Z29.21832
 Y119.90361 Z29.15879
 Y120.27711 Z28.82946
 Y124.01205 Z25.26026
 Y124.19880 Z25.08179
 Y124.38554 Z24.90333
 Y124.75904 Z24.18454
 Y126.25301 Z20.79056
 Y127.00000 Z18.27521
 X21.31203
 Y126.64985 Z19.88071
 Y126.62651 Z19.94216
 Y126.25301 Z20.79056
 Y124.48475 Z24.80766
 Y124.47892 Z24.81410
 Y124.38554 Z24.90333
 Y124.01205 Z25.26026
 Y119.95030 Z29.14177
 Y119.90361 Z29.15879
 Y119.53012 Z29.27791
 Y115.23494 Z30.64708
 Y115.04819 Z30.66070
 Y113.55422 Z30.73732
 Y112.80723 Z30.76060
 Y106.83133
 Y106.08434 Z30.76058
 Y105.33735 Z30.76019
 Y104.59036 Z30.73334
 Y102.72289 Z30.61284
 Y102.34940 Z30.53256
 Y100.85542 Z30.17872
 Y100.10843 Z29.99742
 Y99.36145 Z29.77316
 Y98.61446 Z29.55061
 Y97.86747 Z29.32950
 Y97.12048 Z29.10984
 Y96.37349 Z28.89194
 Y95.62651 Z28.67587
 Y94.87952 Z28.46125
 Y94.13253 Z28.24816
 Y93.38554 Z28.03658
 Y92.63855 Z27.82699
 Y91.89157 Z27.62073
 Y88.90361 Z26.80271
 Y88.15663 Z26.60379
 Y85.16867 Z25.81713
 Y84.42169 Z25.62650
 Y81.43373 Z24.87097
 Y80.68675 Z24.68856
 Y77.69880 Z23.96393
 Y76.95181 Z23.78970
 Y74.71084 Z23.26922
 Y73.96386 Z23.09575
 Y73.21687 Z22.92957
 Y70.97590 Z22.43195
 Y70.22892 Z22.26628
 Y69.48193 Z22.10800
 Y67.24096 Z21.63309
 Y66.49398 Z21.47549
 Y63.50602 Z20.87237
 Y62.75904 Z20.72272
 Y59.77108 Z20.14950
 Y59.02410 Z20.00782
 Y56.03614 Z19.46436
 Y55.28916 Z19.33054
 Y52.30120 Z18.81666
 Y51.55422 Z18.69068
 Y48.56627 Z18.20626
 Y47.81928 Z18.08815
 Y44.83133 Z17.63303
 Y44.08434 Z17.52269
 Y41.09639 Z17.09675
 Y40.34940 Z16.99410
 Y37.36145 Z16.59724
 Y36.61446 Z16.50230
 Y33.62651 Z16.13438
 Y32.87952 Z16.04714
 Y29.89157 Z15.70807
 Y29.14458 Z15.62847
 Y26.15663 Z15.31817
 Y25.40964 Z15.24620
 Y23.16867 Z15.03497
 Y22.42169 Z14.96458
 Y21.67470 Z14.90021
 Y18.68675 Z14.64718
 Y17.93976 Z14.58830
 Y17.19277 Z14.53025
 Y16.44578 Z14.47433
 Y15.69880 Z14.41949
 Y14.95181 Z14.36608
 Y14.20482 Z14.31439
 Y13.45783 Z14.26348
 Y12.71084 Z14.21495
 Y11.96386 Z14.16709
 Y11.21687 Z14.12119
 Y10.46988 Z14.07647
 Y9.72289 Z14.03308
 Y8.97590 Z13.99104
 Y8.22892 Z13.89725
 Y6.73494 Z13.69206
 Y5.98795 Z13.43209
 Y3.00000 Z12.10421
 X21.90977
 Y6.50005 Z13.65968
 Y6.50151 Z13.66000
 Y8.22892 Z13.89725
 Y8.97590 Z13.99104
 Y9.72289 Z14.03308
 Y10.46988 Z14.07647
 Y11.21687 Z14.12119
 Y11.96386 Z14.16709
 Y12.71084 Z14.21495
 Y13.45783 Z14.26348
 Y14.20482 Z14.31439
 Y14.95181 Z14.36608
 Y15.69880 Z14.41949
 Y16.44578 Z14.47433
 Y17.19277 Z14.53025
 Y17.93976 Z14.58830
 Y18.68675 Z14.64718
 Y21.67470 Z14.90021
 Y22.42169 Z14.96458
 Y23.16867 Z15.03497
 Y25.40964 Z15.24620
 Y26.15663 Z15.31817
 Y29.14458 Z15.62847
 Y29.89157 Z15.70807
 Y32.87952 Z16.04714
 Y33.62651 Z16.13438
 Y36.61446 Z16.50230
 Y37.36145 Z16.59724
 Y40.34940 Z16.99410
 Y41.09639 Z17.09675
 Y44.08434 Z17.52269
 Y44.83133 Z17.63303
 Y47.81928 Z18.08815
 Y48.56627 Z18.20626
 Y51.55422 Z18.69068
 Y52.30120 Z18.81666
 Y55.28916 Z19.33054
 Y56.03614 Z19.46436
 Y59.02410 Z20.00782
 Y59.77108 Z20.14950
 Y62.75904 Z20.72272
 Y63.50602 Z20.87237
 Y66.49398 Z21.47549
 Y67.24096 Z21.63309
 Y69.48193 Z22.10800
 Y70.22892 Z22.26628
 Y70.97590 Z22.43195
 Y73.21687 Z22.92957
 Y73.96386 Z23.09575
 Y74.71084 Z23.26922
 Y76.95181 Z23.78970
 Y77.69880 Z23.96393
 Y80.68675 Z24.68856
 Y81.43373 Z24.87097
 Y84.42169 Z25.62650
 Y85.16867 Z25.81713
 Y88.15663 Z26.60379
 Y88.90361 Z26.80271
 Y91.89157 Z27.62073
 Y92.63855 Z27.82699
 Y93.38554 Z28.03658
 Y94.13253 Z28.24816
 Y94.87952 Z28.46125
 Y95.62651 Z28.67587
 Y96.37349 Z28.89194
 Y97.12048 Z29.10984
 Y97.86747 Z29.32950
 Y98.61446 Z29.55061
 Y99.36145 Z29.77316
 Y100.10843 Z29.99742
 Y100.85542 Z30.17872
 Y102.34940 Z30.53256
 Y103.09639 Z30.63694
 Y104.59036 Z30.73334
 Y105.33735 Z30.76019
 Y106.08434 Z30.76058
 Y106.83133 Z30.76060
 Y112.80723
 Y113.55422 Z30.73732
 Y115.04819 Z30.66070
 Y115.79518 Z30.46849
 Y119.53012 Z29.27791
 Y119.71687 Z29.21832
 Y119.90361 Z29.15879
 Y120.27711 Z28.82946
 Y124.01205 Z25.26026
 Y124.19880 Z25.08179
 Y124.38554 Z24.90333
 Y124.75904 Z24.18454
 Y126.25301 Z20.79056
 Y127.00000 Z18.27521
 X22.50752
 Y126.64985 Z19.88071
 Y126.62651 Z19.94216
 Y126.25301 Z20.79056
 Y124.48475 Z24.80766
 Y124.47892 Z24.81410
 Y124.38554 Z24.90333
 Y124.01205 Z25.26026
 Y119.95030 Z29.14177
 Y119.90361 Z29.15879
 Y119.53012 Z29.27791
 Y115.23494 Z30.64708
 Y115.04819 Z30.66070
 Y113.55422 Z30.73732
 Y112.80723 Z30.76060
 Y106.83133
 Y106.08434 Z30.76058
 Y105.33735 Z30.76019
 Y104.59036 Z30.73334
 Y102.72289 Z30.61284
 Y102.34940 Z30.53256
 Y100.85542 Z30.17872
 Y100.10843 Z29.99742
 Y99.36145 Z29.77316
 Y98.61446 Z29.55061
 Y97.86747 Z29.32950
 Y97.12048 Z29.10984
 Y96.37349 Z28.89194
 Y95.62651 Z28.67587
 Y94.87952 Z28.46125
 Y94.13253 Z28.24816
 Y93.38554 Z28.03658
 Y92.63855 Z27.82699
 Y91.89157 Z27.62073
 Y88.90361 Z26.80271
 Y88.15663 Z26.60379
 Y85.16867 Z25.81713
 Y84.42169 Z25.62650
 Y81.43373 Z24.87097
 Y80.68675 Z24.68856
 Y77.69880 Z23.96393
 Y76.95181 Z23.78970
 Y74.71084 Z23.26922
 Y73.96386 Z23.09575
 Y73.21687 Z22.92957
 Y70.97590 Z22.43195
 Y70.22892 Z22.26628
 Y69.48193 Z22.10800
 Y67.24096 Z21.63309
 Y66.49398 Z21.47549
 Y63.50602 Z20.87237
 Y62.75904 Z20.72272
 Y59.77108 Z20.14950
 Y59.02410 Z20.00782
 Y56.03614 Z19.46436
 Y55.28916 Z19.33054
 Y52.30120 Z18.81666
 Y51.55422 Z18.69068
 Y48.56627 Z18.20626
 Y47.81928 Z18.08814
 Y47.07229 Z17.97437
 Y44.83133 Z17.63303
 Y44.08434 Z17.52269
 Y41.09639 Z17.09675
 Y40.34940 Z16.99410
 Y37.36145 Z16.59724
 Y36.61446 Z16.50230
 Y33.62651 Z16.13438
 Y32.87952 Z16.04714
 Y29.89157 Z15.70807
 Y29.14458 Z15.62847
 Y26.15663 Z15.31817
 Y25.40964 Z15.24620
 Y23.16867 Z15.03497
 Y22.42169 Z14.96458
 Y21.67470 Z14.90021
 Y18.68675 Z14.64718
 Y17.93976 Z14.58830
 Y17.19277 Z14.53025
 Y16.44578 Z14.47433
 Y15.69880 Z14.41949
 Y14.95181 Z14.36608
 Y14.20482 Z14.31439
 Y13.45783 Z14.26348
 Y12.71084 Z14.21495
 Y11.96386 Z14.16709
 Y11.21687 Z14.12119
 Y10.46988 Z14.07647
 Y9.72289 Z14.03308
 Y8.97590 Z13.99104
 Y8.22892 Z13.89725
 Y6.73494 Z13.69206
 Y5.98795 Z13.43209
 Y3.00000 Z12.10421
 X23.10526
 Y6.50005 Z13.65968
 Y6.50151 Z13.66000
 Y8.22892 Z13.89725
 Y8.97590 Z13.99104
 Y9.72289 Z14.03308
 Y10.46988 Z14.07647
 Y11.21687 Z14.12119
 Y11.96386 Z14.16709
 Y12.71084 Z14.21495
 Y13.45783 Z14.26348
 Y14.20482 Z14.31439
 Y14.95181 Z14.36608
 Y15.69880 Z14.41949
 Y16.44578 Z14.47433
 Y17.19277 Z14.53025
 Y17.93976 Z14.58830
 Y18.68675 Z14.64718
 Y21.67470 Z14.90021
 Y22.42169 Z14.96458
 Y23.16867 Z15.03497
 Y25.40964 Z15.24620
 Y26.15663 Z15.31817
 Y29.14458 Z15.62847
 Y29.89157 Z15.70807
 Y32.87952 Z16.04714
 Y33.62651 Z16.13438
 Y36.61446 Z16.50230
 Y37.36145 Z16.59724
 Y40.34940 Z16.99410
 Y41.09639 Z17.09675
 Y44.08434 Z17.52269
 Y44.83133 Z17.63303
 Y47.07229 Z17.97437
 Y47.81928 Z18.08814
 Y48.56627 Z18.20626
 Y51.55422 Z18.69068
 Y52.30120 Z18.81666
 Y55.28916 Z19.33054
 Y56.03614 Z19.46436
 Y59.02410 Z20.00782
 Y59.77108 Z20.14950
 Y62.75904 Z20.72272
 Y63.50602 Z20.87237
 Y66.49398 Z21.47549
 Y67.24096 Z21.63309
 Y69.48193 Z22.10800
 Y70.22892 Z22.26628
 Y70.97590 Z22.43195
 Y73.21687 Z22.92957
 Y73.96386 Z23.09575
 Y74.71084 Z23.26922
 Y76.95181 Z23.78970
 Y77.69880 Z23.96393
 Y80.68675 Z24.68856
 Y81.43373 Z24.87097
 Y84.42169 Z25.62650
 Y85.16867 Z25.81713
 Y88.15663 Z26.60379
 Y88.90361 Z26.80271
 Y91.89157 Z27.62073
 Y92.63855 Z27.82699
 Y93.38554 Z28.03658
 Y94.13253 Z28.24816
 Y94.87952 Z28.46125
 Y95.62651 Z28.67587
 Y96.37349 Z28.89194
 Y97.12048 Z29.10984
 Y97.86747 Z29.32950
 Y98.61446 Z29.55061
 Y99.36145 Z29.77316
 Y100.10843 Z29.99742
 Y100.85542 Z30.17872
 Y102.34940 Z30.53256
 Y103.09639 Z30.63694
 Y104.59036 Z30.73334
 Y105.33735 Z30.76019
 Y106.08434 Z30.76058
 Y106.83133 Z30.76060
 Y112.80723
 Y113.55422 Z30.73732
 Y115.04819 Z30.66070
 Y115.79518 Z30.46849
 Y119.53012 Z29.27791
 Y119.71687 Z29.21832
 Y119.90361 Z29.15879
 Y120.27711 Z28.82946
 Y124.01205 Z25.26026
 Y124.19880 Z25.08179
 Y124.38554 Z24.90333
 Y124.75904 Z24.18454
 Y126.25301 Z20.79056
 Y127.00000 Z18.27521
 X23.70301
 Y126.64985 Z19.88071
 Y126.62651 Z19.94216
 Y126.25301 Z20.79056
 Y124.48475 Z24.80766
 Y124.47892 Z24.81410
 Y124.38554 Z24.90333
 Y124.01205 Z25.26026
 Y119.95030 Z29.14177
 Y119.90361 Z29.15879
 Y119.53012 Z29.27785
 Y118.78313 Z29.51602
 Y115.23494 Z30.64708
 Y115.04819 Z30.66070
 Y113.55422 Z30.73732
 Y112.80723 Z30.76060
 Y106.83133
 Y106.08434 Z30.76058
 Y105.33735 Z30.76019
 Y104.59036 Z30.73334
 Y102.72289 Z30.61284
 Y102.34940 Z30.53256
 Y100.85542 Z30.17872
 Y100.10843 Z29.99742
 Y99.36145 Z29.77316
 Y98.61446 Z29.55061
 Y97.86747 Z29.32950
 Y97.12048 Z29.10984
 Y96.37349 Z28.89194
 Y95.62651 Z28.67587
 Y94.87952 Z28.46125
 Y94.13253 Z28.24816
 Y93.38554 Z28.03658
 Y92.63855 Z27.82699
 Y91.89157 Z27.62073
 Y88.90361 Z26.80271
 Y88.15663 Z26.60379
 Y85.16867 Z25.81713
