G40 (disable tool radius compensation)
G49 (disable tool length compensation)
G80 (cancel modal motion)
G54 (select coordinate system 1)
G90 (disable incremental moves)
G21 (metric)
F1400.00000
S250.00000
G61 (exact path mode)
;PYCAM_TOOLPATH_SETTINGS: START
;[Bounds]
;maxz = 34.0
;maxx = 242.0
;maxy = 127.0
;minx = 83.0
;miny = 3.0
;minz = 8.0
;
;[Tool]
;torus_radius = 0.125
;shape = CylindricalCutter
;tool_radius = 3.0
;feedrate = 1400.0
;
;[Process]
;engrave_offset = 0.0
;step_down = 1.0
;generator = PushCutter
;postprocessor = SimpleCutter
;overlap_percent = 60
;milling_style = ignore
;material_allowance = 0.5
;pocketing_type = none
;path_direction = x
;
;PYCAM_TOOLPATH_SETTINGS: END
G0 Z35.00000
 X83.00000 Y3.00000
G1 Z34.00000
 X242.00000
 Y5.38462
 X83.00000
 Y7.76923
 X242.00000
 Y10.15385
 X83.00000
 Y12.53846
 X242.00000
 Y14.92308
 X83.00000
 Y17.30769
 X242.00000
 Y19.69231
 X83.00000
 Y22.07692
 X242.00000
 Y24.46154
 X83.00000
 Y26.84615
 X242.00000
 Y29.23077
 X83.00000
 Y31.61538
 X242.00000
 Y34.00000
 X83.00000
 Y36.38462
 X242.00000
 Y38.76923
 X83.00000
 Y41.15385
 X242.00000
 Y43.53846
 X83.00000
 Y45.92308
 X242.00000
 Y48.30769
 X83.00000
 Y50.69231
 X242.00000
 Y53.07692
 X83.00000
 Y55.46154
 X242.00000
 Y57.84615
 X83.00000
 Y60.23077
 X242.00000
 Y62.61538
 X83.00000
 Y65.00000
 X242.00000
 Y67.38462
 X83.00000
 Y69.76923
 X242.00000
 Y72.15385
 X83.00000
 Y74.53846
 X242.00000
 Y76.92308
 X83.00000
 Y79.30769
 X242.00000
 Y81.69231
 X83.00000
 Y84.07692
 X242.00000
 Y86.46154
 X83.00000
 Y88.84615
 X242.00000
 Y91.23077
 X83.00000
 Y93.61538
 X242.00000
 Y96.00000
 X83.00000
 Y98.38462
 X242.00000
 Y100.76923
 X83.00000
 Y103.15385
 X242.00000
 Y105.53846
 X83.00000
 Y107.92308
 X242.00000
 Y110.30769
 X83.00000
 Y112.69231
 X242.00000
 Y115.07692
 X83.00000
 Y117.46154
 X242.00000
 Y119.84615
 X83.00000
 Y122.23077
 X242.00000
 Y124.61538
 X83.00000
 Y127.00000
 X242.00000
 Z33.00000
 X83.00000
 Y124.61538
 X242.00000
 Y122.23077
 X83.00000
 Y119.84615
 X242.00000
 Y117.46154
 X83.00000
 Y115.07692
 X242.00000
 Y112.69231
 X83.00000
 Y110.30769
 X242.00000
 Y107.92308
 X83.00000
 Y105.53846
 X242.00000
 Y103.15385
 X83.00000
 Y100.76923
 X242.00000
 Y98.38462
 X83.00000
 Y96.00000
 X242.00000
 Y93.61538
 X83.00000
 Y91.23077
 X242.00000
 Y88.84615
 X83.00000
 Y86.46154
 X242.00000
 Y84.07692
 X83.00000
 Y81.69231
 X242.00000
 Y79.30769
 X83.00000
 Y76.92308
 X242.00000
 Y74.53846
 X83.00000
 Y72.15385
 X242.00000
 Y69.76923
 X83.00000
 Y67.38462
 X242.00000
 Y65.00000
 X83.00000
 Y62.61538
 X242.00000
 Y60.23077
 X83.00000
 Y57.84615
 X242.00000
 Y55.46154
 X83.00000
 Y53.07692
 X242.00000
 Y50.69231
 X83.00000
 Y48.30769
 X242.00000
 Y45.92308
 X83.00000
 Y43.53846
 X242.00000
 Y41.15385
 X83.00000
 Y38.76923
 X242.00000
 Y36.38462
 X83.00000
 Y34.00000
 X242.00000
 Y31.61538
 X83.00000
 Y29.23077
 X242.00000
 Y26.84615
 X83.00000
 Y24.46154
 X242.00000
 Y22.07692
 X83.00000
 Y19.69231
 X242.00000
 Y17.30769
 X83.00000
 Y14.92308
 X242.00000
 Y12.53846
 X83.00000
 Y10.15385
 X242.00000
 Y7.76923
 X83.00000
 Y5.38462
 X242.00000
 Y3.00000
 X83.00000
 Z32.00000
 X242.00000
 Y5.38462
 X83.00000
 Y7.76923
 X242.00000
 Y10.15385
 X83.00000
 Y12.53846
 X242.00000
 Y14.92308
 X83.00000
 Y17.30769
 X242.00000
 Y19.69231
 X83.00000
 Y22.07692
 X242.00000
 Y24.46154
 X83.00000
 Y26.84615
 X242.00000
 Y29.23077
 X83.00000
 Y31.61538
 X242.00000
 Y34.00000
 X83.00000
 Y36.38462
 X242.00000
 Y38.76923
 X83.00000
 Y41.15385
 X242.00000
 Y43.53846
 X83.00000
 Y45.92308
 X242.00000
 Y48.30769
 X83.00000
 Y50.69231
 X242.00000
 Y53.07692
 X83.00000
 Y55.46154
 X242.00000
 Y57.84615
 X83.00000
 Y60.23077
 X242.00000
 Y62.61538
 X83.00000
 Y65.00000
 X242.00000
 Y67.38462
 X83.00000
 Y69.76923
 X242.00000
 Y72.15385
 X83.00000
 Y74.53846
 X242.00000
 Y76.92308
 X83.00000
 Y79.30769
 X242.00000
 Y81.69231
 X83.00000
 Y84.07692
 X242.00000
 Y86.46154
 X83.00000
 Y88.84615
 X242.00000
 Y91.23077
 X83.00000
 Y93.61538
 X242.00000
 Y96.00000
 X83.00000
 Y98.38462
 X242.00000
 Y100.76923
 X83.00000
 Y103.15385
 X242.00000
 Y105.53846
 X83.00000
 Y107.92308
 X242.00000
 Y110.30769
 X83.00000
 Y112.69231
 X242.00000
 Y115.07692
 X83.00000
 Y117.46154
 X242.00000
 Y119.84615
 X83.00000
 Y122.23077
 X242.00000
 Y124.61538
 X83.00000
 Y127.00000
 X242.00000
 Z31.00000
 X83.00000
 Y124.61538
 X242.00000
 Y122.23077
 X83.00000
 Y119.84615
 X242.00000
 Y117.46154
 X83.00000
 Y115.07692
 X242.00000
 Y112.69231
 X83.00000
 Y110.30769
 X242.00000
 Y107.92308
 X83.00000
 Y105.53846
 X242.00000
 Y103.15385
 X83.00000
 Y100.76923
 X242.00000
 Y98.38462
 X83.00000
 Y96.00000
 X242.00000
 Y93.61538
 X83.00000
 Y91.23077
 X242.00000
 Y88.84615
 X83.00000
 Y86.46154
 X242.00000
 Y84.07692
 X83.00000
 Y81.69231
 X242.00000
 Y79.30769
 X83.00000
 Y76.92308
 X242.00000
 Y74.53846
 X83.00000
 Y72.15385
 X242.00000
 Y69.76923
 X83.00000
 Y67.38462
 X242.00000
 Y65.00000
 X83.00000
 Y62.61538
 X242.00000
 Y60.23077
 X83.00000
 Y57.84615
 X242.00000
 Y55.46154
 X83.00000
 Y53.07692
 X242.00000
 Y50.69231
 X83.00000
 Y48.30769
 X242.00000
 Y45.92308
 X83.00000
 Y43.53846
 X242.00000
 Y41.15385
 X83.00000
 Y38.76923
 X242.00000
 Y36.38462
 X83.00000
 Y34.00000
 X242.00000
 Y31.61538
 X83.00000
 Y29.23077
 X242.00000
 Y26.84615
 X83.00000
 Y24.46154
 X242.00000
 Y22.07692
 X83.00000
 Y19.69231
 X242.00000
 Y17.30769
 X83.00000
 Y14.92308
 X242.00000
 Y12.53846
 X83.00000
 Y10.15385
 X242.00000
 Y7.76923
 X83.00000
 Y5.38462
 X242.00000
 Y3.00000
 X83.00000
 Z30.00000
 X242.00000
 Y5.38462
 X83.00000
 Y7.76923
 X242.00000
 Y10.15385
 X83.00000
 Y12.53846
 X242.00000
 Y14.92308
 X83.00000
 Y17.30769
 X242.00000
 Y19.69231
 X83.00000
 Y22.07692
 X242.00000
 Y24.46154
 X83.00000
 Y26.84615
 X242.00000
 Y29.23077
 X83.00000
 Y31.61538
 X242.00000
 Y34.00000
 X83.00000
 Y36.38462
 X242.00000
 Y38.76923
 X83.00000
 Y41.15385
 X242.00000
 Y43.53846
 X83.00000
 Y45.92308
 X242.00000
 Y48.30769
 X83.00000
 Y50.69231
 X242.00000
 Y53.07692
 X83.00000
 Y55.46154
 X242.00000
 Y57.84615
 X83.00000
 Y60.23077
 X242.00000
 Y62.61538
 X83.00000
 Y65.00000
 X242.00000
 Y67.38462
 X83.00000
 Y69.76923
 X242.00000
 Y72.15385
 X83.00000
 Y74.53846
 X242.00000
 Y76.92308
 X83.00000
 Y79.30769
 X242.00000
 Y81.69231
 X83.00000
 Y84.07692
 X242.00000
 Y86.46154
 X83.00000
 Y88.84615
 X242.00000
 Y91.23077
 X83.00000
 Y93.61538
 X242.00000
 Y96.00000
 X83.00000
 Y98.38462
 X242.00000
 Y100.76923
 X224.24966
 X227.66395 Y103.15385
 X242.00000
 Y105.53846
 X228.82669
 X229.20165 Y107.92308
 X242.00000
 Y110.30769
 X229.19088
 X228.83922 Y112.69231
 X242.00000
 Y115.07692
 X227.27374
G0 Z35.00000
 X83.00000 Y117.46154
G1 Z30.00000
 X242.00000
 Y119.84615
 X83.00000
 Y122.23077
 X242.00000
 Y124.61538
 X83.00000
 Y127.00000
 X242.00000
 Z29.00000
 X83.00000
 Y124.61538
 X242.00000
 Y122.23077
 X83.00000
G0 Z35.00000
 X223.84057 Y119.84615
G1 Z29.00000
 X242.00000
 Y117.46154
 X227.86798
 X229.64964 Y115.07692
 X242.00000
 Y112.69231
 X230.87184
 X231.15944 Y110.30769
 X242.00000
 Y107.92308
 X231.16102
 X230.91440 Y105.53846
 X242.00000
 Y103.15385
 X230.02927
 X228.51231 Y100.76923
 X242.00000
 Y98.38462
 X226.41812
G0 Z35.00000
 X83.00000 Y96.00000
G1 Z29.00000
 X242.00000
 Y93.61538
 X83.00000
 Y91.23077
 X242.00000
 Y88.84615
 X83.00000
 Y86.46154
 X242.00000
 Y84.07692
 X83.00000
 Y81.69231
 X242.00000
 Y79.30769
 X83.00000
 Y76.92308
 X242.00000
 Y74.53846
 X83.00000
 Y72.15385
 X242.00000
 Y69.76923
 X83.00000
 Y67.38462
 X242.00000
 Y65.00000
 X83.00000
 Y62.61538
 X242.00000
 Y60.23077
 X83.00000
 Y57.84615
 X242.00000
 Y55.46154
 X83.00000
 Y53.07692
 X242.00000
 Y50.69231
 X83.00000
 Y48.30769
 X242.00000
 Y45.92308
 X83.00000
 Y43.53846
 X242.00000
 Y41.15385
 X83.00000
 Y38.76923
 X242.00000
 Y36.38462
 X83.00000
 Y34.00000
 X242.00000
 Y31.61538
 X83.00000
 Y29.23077
 X242.00000
 Y26.84615
 X83.00000
 Y24.46154
 X242.00000
 Y22.07692
 X83.00000
 Y19.69231
 X242.00000
 Y17.30769
 X83.00000
 Y14.92308
 X242.00000
 Y12.53846
 X83.00000
 Y10.15385
 X242.00000
 Y7.76923
 X83.00000
 Y5.38462
 X242.00000
 Y3.00000
 X83.00000
 Z28.00000
 X242.00000
 Y5.38462
 X83.00000
 Y7.76923
 X242.00000
 Y10.15385
 X83.00000
 Y12.53846
 X242.00000
 Y14.92308
 X83.00000
 Y17.30769
 X242.00000
 Y19.69231
 X83.00000
 Y22.07692
 X242.00000
 Y24.46154
 X83.00000
 Y26.84615
 X242.00000
 Y29.23077
 X83.00000
 Y31.61538
 X242.00000
 Y34.00000
 X83.00000
 Y36.38462
 X242.00000
 Y38.76923
 X83.00000
 Y41.15385
 X242.00000
 Y43.53846
 X83.00000
 Y45.92308
 X242.00000
 Y48.30769
 X83.00000
 Y50.69231
 X242.00000
 Y53.07692
 X83.00000
 Y55.46154
 X242.00000
 Y57.84615
 X83.00000
 Y60.23077
 X242.00000
 Y62.61538
 X83.00000
 Y65.00000
 X242.00000
 Y67.38462
 X83.00000
 Y69.76923
 X242.00000
 Y72.15385
 X83.00000
 Y74.53846
 X242.00000
 Y76.92308
 X83.00000
 Y79.30769
 X242.00000
 Y81.69231
 X83.00000
 Y84.07692
 X242.00000
 Y86.46154
 X83.00000
 Y88.84615
 X242.00000
 Y91.23077
 X83.00000
G0 Z35.00000
 X223.69610 Y93.61538
G1 Z28.00000
 X242.00000
 Y96.00000
 X227.60615
 X229.20097 Y98.38462
 X242.00000
 Y100.76923
 X230.57544
 X231.46288 Y103.15385
 X242.00000
 Y105.53846
 X232.19145
 X232.46377 Y107.92308
 X242.00000
 Y110.30769
 X232.46248
 X232.14055 Y112.69231
 X242.00000
 Y115.07692
 X231.18203
 X230.18403 Y117.46154
 X242.00000
 Y119.84615
 X227.09368
G0 Z35.00000
 X83.00000 Y122.23077
G1 Z28.00000
 X242.00000
 Y124.61538
 X83.00000
 Y127.00000
 X242.00000
 Z27.00000
 X83.00000
 Y124.61538
 X242.00000
 Y122.23077
 X83.00000
G0 Z35.00000
 X228.89523 Y119.84615
G1 Z27.00000
 X242.00000
 Y117.46154
 X231.31735
 X232.44839 Y115.07692
 X242.00000
 Y112.69231
 X233.06138
 X233.33478 Y110.30769
 X242.00000
 Y107.92308
 X233.33417
 X233.12076 Y105.53846
 X242.00000
 Y103.15385
 X232.66025
 X231.82559 Y100.76923
 X242.00000
 Y98.38462
 X230.95587
 X229.93028 Y96.00000
 X242.00000
 Y93.61538
 X228.37933
 X226.19622 Y91.23077
 X242.00000
 Y88.84615
 X83.00000
 Y86.46154
 X242.00000
 Y84.07692
 X83.00000
 Y81.69231
 X242.00000
 Y79.30769
 X83.00000
 Y76.92308
 X242.00000
 Y74.53846
 X83.00000
 Y72.15385
 X242.00000
 Y69.76923
 X83.00000
 Y67.38462
 X242.00000
 Y65.00000
 X83.00000
 Y62.61538
 X242.00000
 Y60.23077
 X83.00000
 Y57.84615
 X242.00000
 Y55.46154
 X83.00000
 Y53.07692
 X242.00000
 Y50.69231
 X83.00000
 Y48.30769
 X242.00000
 Y45.92308
 X83.00000
 Y43.53846
 X242.00000
 Y41.15385
 X83.00000
 Y38.76923
 X242.00000
 Y36.38462
 X83.00000
 Y34.00000
 X242.00000
 Y31.61538
 X83.00000
 Y29.23077
 X242.00000
 Y26.84615
 X83.00000
 Y24.46154
 X242.00000
 Y22.07692
 X83.00000
 Y19.69231
 X242.00000
 Y17.30769
 X83.00000
 Y14.92308
 X242.00000
 Y12.53846
 X83.00000
 Y10.15385
 X242.00000
 Y7.76923
 X83.00000
 Y5.38462
 X242.00000
 Y3.00000
 X83.00000
 Z26.00000
 X242.00000
 Y5.38462
 X83.00000
 Y7.76923
 X242.00000
 Y10.15385
 X83.00000
 Y12.53846
 X242.00000
 Y14.92308
 X83.00000
 Y17.30769
 X242.00000
 Y19.69231
 X83.00000
 Y22.07692
 X242.00000
 Y24.46154
 X83.00000
 Y26.84615
 X242.00000
 Y29.23077
 X83.00000
 Y31.61538
 X242.00000
 Y34.00000
 X83.00000
 Y36.38462
 X242.00000
 Y38.76923
 X83.00000
 Y41.15385
 X242.00000
 Y43.53846
 X83.00000
 Y45.92308
 X242.00000
 Y48.30769
 X83.00000
 Y50.69231
 X242.00000
 Y53.07692
 X83.00000
 Y55.46154
 X242.00000
 Y57.84615
 X83.00000
 Y60.23077
 X242.00000
 Y62.61538
 X83.00000
 Y65.00000
 X242.00000
 Y67.38462
 X83.00000
 Y69.76923
 X242.00000
 Y72.15385
 X83.00000
 Y74.53846
 X242.00000
 Y76.92308
 X83.00000
 Y79.30769
 X242.00000
 Y81.69231
 X83.00000
 Y84.07692
 X242.00000
 Y86.46154
 X224.15817
 X227.70576 Y88.84615
 X242.00000
 Y91.23077
 X229.18764
 X230.53144 Y93.61538
 X242.00000
 Y96.00000
 X231.35816
 X232.20790 Y98.38462
 X242.00000
 Y100.76923
 X232.87610
 X233.39518 Y103.15385
 X242.00000
 Y105.53846
 X233.86987
 X234.10123 Y107.92308
 X242.00000
 Y110.30769
 X234.10194
 X233.80652 Y112.69231
 X242.00000
 Y115.07692
 X233.24337
 X232.20386 Y117.46154
 X242.00000
 Y119.84615
 X230.08000
 X226.59107 Y122.23077
 X242.00000
 Y124.61538
 X83.00000
 Y127.00000
 X242.00000
 Z25.00000
 X83.00000
 Y124.61538
 X242.00000
 Y122.23077
 X228.38675
 X231.05072 Y119.84615
 X242.00000
 Y117.46154
 X232.78062
 X233.98680 Y115.07692
 X242.00000
 Y112.69231
 X234.41735
 X234.61159 Y110.30769
 X242.00000
 Y107.92308
 X234.61085
 X234.46172 Y105.53846
 X242.00000
 Y103.15385
 X234.13043
 X233.61271 Y100.76923
 X242.00000
 Y98.38462
 X233.10517
 X232.60200 Y96.00000
 X242.00000
 Y93.61538
 X231.78840
 X230.97155 Y91.23077
 X242.00000
 Y88.84615
 X230.04073
 X228.58474 Y86.46154
 X242.00000
 Y84.07692
 X226.89401
G0 Z35.00000
 X83.00000 Y81.69231
G1 Z25.00000
 X242.00000
 Y79.30769
 X83.00000
 Y76.92308
 X242.00000
 Y74.53846
 X83.00000
 Y72.15385
 X242.00000
 Y69.76923
 X83.00000
 Y67.38462
 X242.00000
 Y65.00000
 X83.00000
 Y62.61538
 X242.00000
 Y60.23077
 X83.00000
 Y57.84615
 X242.00000
 Y55.46154
 X83.00000
 Y53.07692
 X242.00000
 Y50.69231
 X83.00000
 Y48.30769
 X242.00000
 Y45.92308
 X83.00000
 Y43.53846
 X242.00000
 Y41.15385
 X83.00000
 Y38.76923
 X242.00000
 Y36.38462
 X83.00000
 Y34.00000
 X242.00000
 Y31.61538
 X83.00000
 Y29.23077
 X242.00000
 Y26.84615
 X83.00000
 Y24.46154
 X242.00000
 Y22.07692
 X83.00000
 Y19.69231
 X242.00000
 Y17.30769
 X83.00000
 Y14.92308
 X242.00000
 Y12.53846
 X83.00000
 Y10.15385
 X242.00000
 Y7.76923
 X83.00000
 Y5.38462
 X242.00000
 Y3.00000
 X83.00000
 Z24.00000
 X242.00000
 Y5.38462
 X83.00000
 Y7.76923
 X242.00000
 Y10.15385
 X83.00000
 Y12.53846
 X242.00000
 Y14.92308
 X83.00000
 Y17.30769
 X242.00000
 Y19.69231
 X83.00000
 Y22.07692
 X242.00000
 Y24.46154
 X83.00000
 Y26.84615
 X242.00000
 Y29.23077
 X83.00000
 Y31.61538
 X242.00000
 Y34.00000
 X83.00000
 Y36.38462
 X242.00000
 Y38.76923
 X83.00000
 Y41.15385
 X242.00000
 Y43.53846
 X83.00000
 Y45.92308
 X242.00000
 Y48.30769
 X83.00000
 Y50.69231
 X242.00000
 Y53.07692
 X83.00000
 Y55.46154
 X242.00000
 Y57.84615
 X83.00000
 Y60.23077
 X242.00000
 Y62.61538
 X83.00000
 Y65.00000
 X242.00000
 Y67.38462
 X83.00000
 Y69.76923
 X242.00000
 Y72.15385
 X83.00000
 Y74.53846
 X242.00000
 Y76.92308
 X83.00000
G0 Z35.00000
 X225.67528 Y79.30769
G1 Z24.00000
 X242.00000
 Y81.69231
 X228.13858
 X229.51390 Y84.07692
 X242.00000
 Y86.46154
 X230.66683
 X231.44066 Y88.84615
 X242.00000
 Y91.23077
 X232.23185
 X232.86442 Y93.61538
 X242.00000
 Y96.00000
 X233.34754
 X233.84291 Y98.38462
 X242.00000
 Y100.76923
 X234.31154
 X234.58974 Y103.15385
 X242.00000
 Y105.53846
 X234.86503
 X235.02506 Y107.92308
 X242.00000
 Y110.30769
 X235.02601
 X234.82075 Y112.69231
 X242.00000
 Y115.07692
 X234.38403
 X233.35205 Y117.46154
 X242.00000
 Y119.84615
 X231.99705
 X229.79835 Y122.23077
 X242.00000
 Y124.61538
 X223.98208
G0 Z35.00000
 X83.00000 Y127.00000
G1 Z24.00000
 X242.00000
 Z23.00000
 X83.00000
G0 Z35.00000
 X226.15002 Y124.61538
G1 Z23.00000
 X242.00000
 Y122.23077
 X230.34631
 X232.61415 Y119.84615
 X242.00000
 Y117.46154
 X233.91878
 X234.69233 Y115.07692
 X242.00000
 Y112.69231
 X235.22347
 X235.35071 Y110.30769
 X242.00000
 Y107.92308
 X235.35031
 X235.26726 Y105.53846
 X242.00000
 Y103.15385
 X234.98682
 X234.70948 Y100.76923
 X242.00000
 Y98.38462
 X234.43764
 X234.08764 Y96.00000
 X242.00000
 Y93.61538
 X233.60453
 X233.13063 Y91.23077
 X242.00000
 Y88.84615
 X232.66476
 X231.93031 Y86.46154
 X242.00000
 Y84.07692
 X231.17021
 X230.43190 Y81.69231
 X242.00000
 Y79.30769
 X229.13575
 X227.83326 Y76.92308
 X242.00000
 Y74.53846
 X224.78980
G0 Z35.00000
 X83.00000 Y72.15385
G1 Z23.00000
 X242.00000
 Y69.76923
 X83.00000
 Y67.38462
 X242.00000
 Y65.00000
 X83.00000
 Y62.61538
 X242.00000
 Y60.23077
 X83.00000
 Y57.84615
 X242.00000
 Y55.46154
 X83.00000
 Y53.07692
 X242.00000
 Y50.69231
 X83.00000
 Y48.30769
 X242.00000
 Y45.92308
 X83.00000
 Y43.53846
 X242.00000
 Y41.15385
 X83.00000
 Y38.76923
 X242.00000
 Y36.38462
 X83.00000
 Y34.00000
 X242.00000
 Y31.61538
 X83.00000
 Y29.23077
 X242.00000
 Y26.84615
 X83.00000
 Y24.46154
 X242.00000
 Y22.07692
 X83.00000
 Y19.69231
 X242.00000
 Y17.30769
 X83.00000
 Y14.92308
 X242.00000
 Y12.53846
 X83.00000
 Y10.15385
 X242.00000
 Y7.76923
 X83.00000
 Y5.38462
 X242.00000
 Y3.00000
 X83.00000
 Z22.00000
 X242.00000
 Y5.38462
 X83.00000
 Y7.76923
 X242.00000
 Y10.15385
 X83.00000
 Y12.53846
 X242.00000
 Y14.92308
 X83.00000
 Y17.30769
 X242.00000
 Y19.69231
 X83.00000
 Y22.07692
 X242.00000
 Y24.46154
 X83.00000
 Y26.84615
 X242.00000
 Y29.23077
 X83.00000
 Y31.61538
 X242.00000
 Y34.00000
 X83.00000
 Y36.38462
 X242.00000
 Y38.76923
 X83.00000
 Y41.15385
 X242.00000
 Y43.53846
 X83.00000
 Y45.92308
 X242.00000
 Y48.30769
 X83.00000
 Y50.69231
 X242.00000
 Y53.07692
 X83.00000
 Y55.46154
 X242.00000
 Y57.84615
 X83.00000
 Y60.23077
 X242.00000
 Y62.61538
 X83.00000
 Y65.00000
 X242.00000
 Y67.38462
 X83.00000
G0 Z35.00000
 X224.42225 Y69.76923
G1 Z22.00000
 X242.00000
 Y72.15385
 X227.64530
 X228.91669 Y74.53846
 X242.00000
 Y76.92308
 X230.18498
 X230.98755 Y79.30769
 X242.00000
 Y81.69231
 X231.70430
 X232.43674 Y84.07692
 X242.00000
 Y86.46154
 X232.95804
 X233.40682 Y88.84615
 X242.00000
 Y91.23077
 X233.87262
 X234.31110 Y93.61538
 X242.00000
 Y96.00000
 X234.57193
 X234.83618 Y98.38462
 X242.00000
 Y100.76923
 X235.10743
 X235.32781 Y103.15385
 X242.00000
 Y105.53846
 X235.41729
 X235.48216 Y107.92308
 X242.00000
 Y110.30769
 X235.48254
 X235.40278 Y112.69231
 X242.00000
 Y115.07692
 X234.99879
 X234.29109 Y117.46154
 X242.00000
 Y119.84615
 X232.95442
 X230.87617 Y122.23077
 X242.00000
 Y124.61538
 X227.13343
G0 Z35.00000
 X83.00000 Y127.00000
G1 Z22.00000
 X242.00000
 Z21.00000
 X83.00000
G0 Z35.00000
 X228.11208 Y124.61538
G1 Z21.00000
 X242.00000
 Y122.23077
 X231.40178
 X233.26484 Y119.84615
 X242.00000
 Y117.46154
 X234.48166
 X235.26901 Y115.07692
 X242.00000
 Y112.69231
 X235.50156
 X235.61436 Y110.30769
 X242.00000
 Y107.92308
 X235.61392
 X235.54347 Y105.53846
 X242.00000
 Y103.15385
 X235.45409
 X235.36662 Y100.76923
 X242.00000
 Y98.38462
 X235.23477
 X234.97144 Y96.00000
 X242.00000
 Y93.61538
 X234.71062
 X234.45812 Y91.23077
 X242.00000
 Y88.84615
 X234.15045
 X233.70197 Y86.46154
 X242.00000
 Y84.07692
 X233.26099
 X232.82979 Y81.69231
 X242.00000
 Y79.30769
 X232.25696
 X231.55413 Y76.92308
 X242.00000
 Y74.53846
 X230.88048
 X230.03180 Y72.15385
 X242.00000
 Y69.76923
 X228.83816
 X227.62682 Y67.38462
 X242.00000
 Y65.00000
 X224.50282
G0 Z35.00000
 X83.00000 Y62.61538
G1 Z21.00000
 X242.00000
 Y60.23077
 X83.00000
 Y57.84615
 X242.00000
 Y55.46154
 X83.00000
 Y53.07692
 X242.00000
 Y50.69231
 X83.00000
 Y48.30769
 X242.00000
 Y45.92308
 X83.00000
 Y43.53846
 X242.00000
 Y41.15385
 X83.00000
 Y38.76923
 X242.00000
 Y36.38462
 X83.00000
 Y34.00000
 X242.00000
 Y31.61538
 X83.00000
 Y29.23077
 X242.00000
 Y26.84615
 X83.00000
 Y24.46154
 X242.00000
 Y22.07692
 X83.00000
 Y19.69231
 X242.00000
 Y17.30769
 X83.00000
 Y14.92308
 X242.00000
 Y12.53846
 X83.00000
 Y10.15385
 X242.00000
 Y7.76923
 X83.00000
 Y5.38462
 X242.00000
 Y3.00000
 X83.00000
 Z20.00000
 X242.00000
 Y5.38462
 X83.00000
 Y7.76923
 X242.00000
 Y10.15385
 X83.00000
 Y12.53846
 X242.00000
 Y14.92308
 X83.00000
 Y17.30769
 X242.00000
 Y19.69231
 X83.00000
 Y22.07692
 X242.00000
 Y24.46154
 X83.00000
 Y26.84615
 X242.00000
 Y29.23077
 X83.00000
 Y31.61538
 X242.00000
 Y34.00000
 X83.00000
 Y36.38462
 X242.00000
 Y38.76923
 X83.00000
 Y41.15385
 X242.00000
 Y43.53846
 X83.00000
 Y45.92308
 X242.00000
 Y48.30769
 X83.00000
 Y50.69231
 X242.00000
 Y53.07692
 X83.00000
 Y55.46154
 X242.00000
 Y57.84615
 X83.00000
G0 Z35.00000
 X225.02455 Y60.23077
G1 Z20.00000
 X242.00000
 Y62.61538
 X227.80562
 X228.90136 Y65.00000
 X242.00000
 Y67.38462
 X230.03952
 X230.84901 Y69.76923
 X242.00000
 Y72.15385
 X231.49329
 X232.15270 Y74.53846
 X242.00000
 Y76.92308
 X232.75039
 X233.15979 Y79.30769
 X242.00000
 Y81.69231
 X233.57551
 X234.00671 Y84.07692
 X242.00000
 Y86.46154
 X234.36814
 X234.61029 Y88.84615
 X242.00000
 Y91.23077
 X234.85869
 X235.11017 Y93.61538
 X242.00000
 Y96.00000
 X235.32427
 X235.40753 Y98.38462
 X242.00000
 Y100.76923
 X235.49320
 X235.58051 Y103.15385
 X242.00000
 Y105.53846
 X235.65000
 Y107.92308
 X242.00000
 Y110.30769
 X235.65000
 X235.59794 Y112.69231
 X242.00000
 Y115.07692
 X235.33711
 X234.64863 Y117.46154
 X242.00000
 Y119.84615
 X233.57234
 X231.85765 Y122.23077
 X242.00000
 Y124.61538
 X229.00896
G0 Z35.00000
 X83.00000 Y127.00000
G1 Z20.00000
 X242.00000
 Z19.00000
 X83.00000
G0 Z35.00000
 X229.45491 Y124.61538
G1 Z19.00000
 X242.00000
 Y122.23077
 X232.18803
 X233.85736 Y119.84615
 X242.00000
 Y117.46154
 X234.81327
 X235.38970 Y115.07692
 X242.00000
 Y112.69231
 X235.65000
 Y110.30769
 X242.00000
 Y107.92308
 X235.65000
 Y105.53846
 X242.00000
 Y103.15385
 X235.65000
 X235.61977 Y100.76923
 X242.00000
 Y98.38462
 X235.53428
 X235.45124 Y96.00000
 X242.00000
 Y93.61538
 X235.36910
 X235.25926 Y91.23077
 X242.00000
 Y88.84615
 X235.01187
 X234.76972 Y86.46154
 X242.00000
 Y84.07692
 X234.53478
 X234.30306 Y81.69231
 X242.00000
 Y79.30769
 X233.90718
 X233.49943 Y76.92308
 X242.00000
 Y74.53846
 X233.10283
 X232.71884 Y72.15385
 X242.00000
 Y69.76923
 X232.12394
 X231.50795 Y67.38462
 X242.00000
 Y65.00000
 X230.90370
 X230.18770 Y62.61538
 X242.00000
 Y60.23077
 X229.13114
 X228.10082 Y57.84615
 X242.00000
 Y55.46154
 X226.04556
G0 Z35.00000
 X83.00000 Y53.07692
G1 Z19.00000
 X242.00000
 Y50.69231
 X83.00000
 Y48.30769
 X242.00000
 Y45.92308
 X83.00000
 Y43.53846
 X242.00000
 Y41.15385
 X83.00000
 Y38.76923
 X242.00000
 Y36.38462
 X83.00000
 Y34.00000
 X242.00000
 Y31.61538
 X83.00000
 Y29.23077
 X242.00000
 Y26.84615
 X83.00000
 Y24.46154
 X242.00000
 Y22.07692
 X83.00000
 Y19.69231
 X242.00000
 Y17.30769
 X83.00000
 Y14.92308
 X242.00000
 Y12.53846
 X83.00000
 Y10.15385
 X242.00000
 Y7.76923
 X83.00000
 Y5.38462
 X242.00000
 Y3.00000
 X83.00000
 Z18.00000
 X242.00000
 Y5.38462
 X83.00000
 Y7.76923
 X242.00000
 Y10.15385
 X83.00000
 Y12.53846
 X242.00000
 Y14.92308
 X83.00000
 Y17.30769
 X242.00000
 Y19.69231
 X83.00000
 Y22.07692
 X242.00000
 Y24.46154
 X83.00000
 Y26.84615
 X242.00000
 Y29.23077
 X83.00000
 Y31.61538
 X242.00000
 Y34.00000
 X83.00000
 Y36.38462
 X242.00000
 Y38.76923
 X83.00000
 Y41.15385
 X242.00000
 Y43.53846
 X83.00000
 Y45.92308
 X242.00000
 Y48.30769
 X224.68478
 X227.43491 Y50.69231
 X242.00000
 Y53.07692
 X228.54962
 X229.50116 Y55.46154
 X242.00000
 Y57.84615
 X230.46900
 X231.03745 Y60.23077
 X242.00000
 Y62.61538
 X231.59809
 X232.18359 Y65.00000
 X242.00000
 Y67.38462
 X232.73156
 X233.09355 Y69.76923
 X242.00000
 Y72.15385
 X233.46951
 X233.85192 Y74.53846
 X242.00000
 Y76.92308
 X234.24852
 X234.48309 Y79.30769
 X242.00000
 Y81.69231
 X234.70654
 X234.93733 Y84.07692
 X242.00000
 Y86.46154
 X235.17130
 X235.33839 Y88.84615
 X242.00000
 Y91.23077
 X235.41639
 X235.49641 Y93.61538
 X242.00000
 Y96.00000
 X235.57831
 X235.65000 Y98.38462
 X242.00000
 Y100.76923
 X235.65000
 Y103.15385
 X242.00000
 Y105.53846
 X235.65000
 Y107.92308
 X242.00000
 Y110.30769
 X235.65000
 Y112.69231
 X242.00000
 Y115.07692
 X235.44183
 X234.97756 Y117.46154
 X242.00000
 Y119.84615
 X234.02255
 X232.35149 Y122.23077
 X242.00000
 Y124.61538
 X229.73300
G0 Z35.00000
 X222.83205 Y127.00000
G1 Z18.00000
 X242.00000
 Z17.00000
 X224.45582
G0 Z35.00000
 X230.01108 Y124.61538
G1 Z17.00000
 X242.00000
 Y122.23077
 X232.51492
 X234.11143 Y119.84615
 X242.00000
 Y117.46154
 X235.07853
 X235.48467 Y115.07692
 X242.00000
 Y112.69231
 X235.65000
 Y110.30769
 X242.00000
 Y107.92308
 X235.65000
 Y105.53846
 X242.00000
 Y103.15385
 X235.65000
 Y100.76923
 X242.00000
 Y98.38462
 X235.65000
 Y96.00000
 X242.00000
 Y93.61538
 X235.62372
 X235.54370 Y91.23077
 X242.00000
 Y88.84615
 X235.46611
 X235.38938 Y86.46154
 X242.00000
 Y84.07692
 X235.31530
 X235.11002 Y81.69231
 X242.00000
 Y79.30769
 X234.88657
 X234.66927 Y76.92308
 X242.00000
 Y74.53846
 X234.45534
 X234.22010 Y72.15385
 X242.00000
 Y69.76923
 X233.84572
 X233.48373 Y67.38462
 X242.00000
 Y65.00000
 X233.13327
 X232.78953 Y62.61538
 X242.00000
 Y60.23077
 X232.31966
 X231.77329 Y57.84615
 X242.00000
 Y55.46154
 X231.24660
 X230.74189 Y53.07692
 X242.00000
 Y50.69231
 X230.01141
 X229.14185 Y48.30769
 X242.00000
 Y45.92308
 X228.29618
 X226.87420 Y43.53846
 X242.00000
 Y41.15385
 X224.32729
G0 Z35.00000
 X83.00000 Y38.76923
G1 Z17.00000
 X242.00000
 Y36.38462
 X83.00000
 Y34.00000
 X242.00000
 Y31.61538
 X83.00000
 Y29.23077
 X242.00000
 Y26.84615
 X83.00000
 Y24.46154
 X242.00000
 Y22.07692
 X83.00000
 Y19.69231
 X242.00000
 Y17.30769
 X83.00000
 Y14.92308
 X242.00000
 Y12.53846
 X83.00000
 Y10.15385
 X242.00000
 Y7.76923
 X83.00000
 Y5.38462
 X242.00000
 Y3.00000
 X83.00000
 Z16.00000
 X242.00000
 Y5.38462
 X83.00000
 Y7.76923
 X242.00000
 Y10.15385
 X83.00000
 Y12.53846
 X242.00000
 Y14.92308
 X83.00000
 Y17.30769
 X242.00000
 Y19.69231
 X83.00000
 Y22.07692
 X242.00000
 Y24.46154
 X83.00000
 Y26.84615
 X242.00000
 Y29.23077
 X83.00000
 Y31.61538
 X242.00000
 Y34.00000
 X225.07611
 X227.24976 Y36.38462
 X242.00000
 Y38.76923
 X228.37123
 X229.11022 Y41.15385
 X242.00000
 Y43.53846
 X229.87381
 X230.62169 Y45.92308
 X242.00000
 Y48.30769
 X231.07009
 X231.53800 Y50.69231
 X242.00000
 Y53.07692
 X232.02831
 X232.53094 Y55.46154
 X242.00000
 Y57.84615
 X232.89897
 X233.21710 Y60.23077
 X242.00000
 Y62.61538
 X233.54448
 X233.88679 Y65.00000
 X242.00000
 Y67.38462
 X234.23583
 X234.45545 Y69.76923
 X242.00000
 Y72.15385
 X234.65578
 X234.86056 Y74.53846
 X242.00000
 Y76.92308
 X235.07365
 X235.29004 Y79.30769
 X242.00000
 Y81.69231
 X235.37076
 X235.44324 Y84.07692
 X242.00000
 Y86.46154
 X235.51732
 X235.59374 Y88.84615
 X242.00000
 Y91.23077
 X235.65000
 Y93.61538
 X242.00000
 Y96.00000
 X235.65000
 Y98.38462
 X242.00000
 Y100.76923
 X235.65000
 Y103.15385
 X242.00000
 Y105.53846
 X235.65000
 Y107.92308
 X242.00000
 Y110.30769
 X235.65000
 Y112.69231
 X242.00000
 Y115.07692
 X235.51253
 X235.15299 Y117.46154
 X242.00000
 Y119.84615
 X234.19941
 X232.67834 Y122.23077
 X242.00000
 Y124.61538
 X230.28877
 X225.74698 Y127.00000
 X242.00000
 Z15.00000
 X226.31477
 X230.56591 Y124.61538
 X242.00000
 Y122.23077
 X232.84121
 X234.28740 Y119.84615
 X242.00000
 Y117.46154
 X235.21218
 X235.54036 Y115.07692
 X242.00000
 Y112.69231
 X235.65000
 Y110.30769
 X242.00000
 Y107.92308
 X235.65000
 Y105.53846
 X242.00000
 Y103.15385
 X235.65000
 Y100.76923
 X242.00000
 Y98.38462
 X235.65000
 Y96.00000
 X242.00000
 Y93.61538
 X235.65000
 Y91.23077
 X242.00000
 Y88.84615
 X235.65000
 X235.64526 Y86.46154
 X242.00000
 Y84.07692
 X235.57127
 X235.49909 Y81.69231
 X242.00000
 Y79.30769
 X235.42798
 X235.35976 Y76.92308
 X242.00000
 Y74.53846
 X235.26578
 X235.06100 Y72.15385
 X242.00000
 Y69.76923
 X234.86148
 X234.66604 Y67.38462
 X242.00000
 Y65.00000
 X234.47930
 X234.29564 Y62.61538
 X242.00000
 Y60.23077
 X233.97199
 X233.65514 Y57.84615
 X242.00000
 Y55.46154
 X233.34526
 X233.05247 Y53.07692
 X242.00000
 Y50.69231
 X232.76695
 X232.35842 Y48.30769
 X242.00000
 Y45.92308
 X231.91189
 X231.47792 Y43.53846
 X242.00000
 Y41.15385
 X231.06876
 X230.67704 Y38.76923
 X242.00000
 Y36.38462
 X230.06380
 X229.40701 Y34.00000
 X242.00000
 Y31.61538
 X228.77528
 X228.18051 Y29.23077
 X242.00000
 Y26.84615
 X226.83902
 X225.13942 Y24.46154
 X242.00000
 Y22.07692
 X83.00000
 Y19.69231
 X242.00000
 Y17.30769
 X83.00000
 Y14.92308
 X242.00000
 Y12.53846
 X83.00000
 Y10.15385
 X242.00000
 Y7.76923
 X83.00000
 Y5.38462
 X242.00000
 Y3.00000
 X83.00000
 Z14.00000
 X242.00000
 Y5.38462
 X83.00000
 Y7.76923
 X242.00000
 Y10.15385
 X224.61603
 X225.92134 Y12.53846
 X242.00000
 Y14.92308
 X227.04315
 X228.14613 Y17.30769
 X242.00000
 Y19.69231
 X228.56701
 X229.02181 Y22.07692
 X242.00000
 Y24.46154
 X229.50771
 X230.03210 Y26.84615
 X242.00000
 Y29.23077
 X230.57875
 X230.90796 Y31.61538
 X242.00000
 Y34.00000
 X231.24280
 X231.59320 Y36.38462
 X242.00000
 Y38.76923
 X231.97051
 X232.36063 Y41.15385
 X242.00000
 Y43.53846
 X232.73739
 X232.99007 Y45.92308
 X242.00000
 Y48.30769
 X233.25000
 X233.52547 Y50.69231
 X242.00000
 Y53.07692
 X233.80987
 X234.10270 Y55.46154
 X242.00000
 Y57.84615
 X234.35739
 X234.52690 Y60.23077
 X242.00000
 Y62.61538
 X234.70365
 X234.88610 Y65.00000
 X242.00000
 Y67.38462
 X235.07220
 X235.26751 Y69.76923
 X242.00000
 Y72.15385
 X235.35627
 X235.42144 Y74.53846
 X242.00000
 Y76.92308
 X235.48827
 X235.55642 Y79.30769
 X242.00000
 Y81.69231
 X235.62733
 X235.65000 Y84.07692
 X242.00000
 Y86.46154
 X235.65000
 Y88.84615
 X242.00000
 Y91.23077
 X235.65000
 Y93.61538
 X242.00000
 Y96.00000
 X235.65000
 Y98.38462
 X242.00000
 Y100.76923
 X235.65000
 Y103.15385
 X242.00000
 Y105.53846
 X235.65000
 Y107.92308
 X242.00000
 Y110.30769
 X235.65000
 Y112.69231
 X242.00000
 Y115.07692
 X235.56806
 X235.25688 Y117.46154
 X242.00000
 Y119.84615
 X234.37505
 X233.00394 Y122.23077
 X242.00000
 Y124.61538
 X230.84305
 X226.82966 Y127.00000
 X242.00000
 Z13.00000
 X227.15376
 X231.05441 Y124.61538
 X242.00000
 Y122.23077
 X233.14717
 X234.46159 Y119.84615
 X242.00000
 Y117.46154
 X235.28835
 X235.59576 Y115.07692
 X242.00000
 Y112.69231
 X235.65000
 Y110.30769
 X242.00000
 Y107.92308
 X235.65000
 Y105.53846
 X242.00000
 Y103.15385
 X235.65000
 Y100.76923
 X242.00000
 Y98.38462
 X235.65000
 Y96.00000
 X242.00000
 Y93.61538
 X235.65000
 Y91.23077
 X242.00000
 Y88.84615
 X235.65000
 Y86.46154
 X242.00000
 Y84.07692
 X235.65000
 Y81.69231
 X242.00000
 Y79.30769
 X235.65000
 X235.61688 Y76.92308
 X242.00000
 Y74.53846
 X235.55023
 X235.48506 Y72.15385
 X242.00000
 Y69.76923
 X235.42240
 X235.36091 Y67.38462
 X242.00000
 Y65.00000
 X235.29291
 X235.11119 Y62.61538
 X242.00000
 Y60.23077
 X234.93443
 X234.76562 Y57.84615
 X242.00000
 Y55.46154
 X234.60042
 X234.44235 Y53.07692
 X242.00000
 Y50.69231
 X234.28405
 X234.00859 Y48.30769
 X242.00000
 Y45.92308
 X233.74966
 X233.49797 Y43.53846
 X242.00000
 Y41.15385
 X233.25712
 X233.03001 Y38.76923
 X242.00000
 Y36.38462
 X232.81029
 X232.53772 Y34.00000
 X242.00000
 Y31.61538
 X232.20419
 X231.88374 Y29.23077
 X242.00000
 Y26.84615
 X231.59215
 X231.31422 Y24.46154
 X242.00000
 Y22.07692
 X231.05201
 X230.81144 Y19.69231
 X242.00000
 Y17.30769
 X230.56220
 X230.18541 Y14.92308
 X242.00000
 Y12.53846
 X229.84408
 X229.23584 Y10.15385
 X242.00000
 Y7.76923
 X228.11328
 X223.85294 Y5.38462
 X242.00000
 Y3.00000
 X83.00000
G0 Z35.00000
 X223.43016
G1 Z12.00000
 X242.00000
 Y5.38462
 X227.98305
 X230.19003 Y7.76923
 X242.00000
 Y10.15385
 X231.13793
 X231.50844 Y12.53846
 X242.00000
 Y14.92308
 X231.69025
 X231.89110 Y17.30769
 X242.00000
 Y19.69231
 X232.11108
 X232.35060 Y22.07692
 X242.00000
 Y24.46154
 X232.61281
 X232.81389 Y26.84615
 X242.00000
 Y29.23077
 X232.98553
 X233.17224 Y31.61538
 X242.00000
 Y34.00000
 X233.36642
 X233.57267 Y36.38462
 X242.00000
 Y38.76923
 X233.79153
 X234.01777 Y41.15385
 X242.00000
 Y43.53846
 X234.25863
 X234.41248 Y45.92308
 X242.00000
 Y48.30769
 X234.55187
 X234.69968 Y50.69231
 X242.00000
 Y53.07692
 X234.85123
 X235.00930 Y55.46154
 X242.00000
 Y57.84615
 X235.17384
 X235.31749 Y60.23077
 X242.00000
 Y62.61538
 X235.37366
 X235.43096 Y65.00000
 X242.00000
 Y67.38462
 X235.49020
 X235.55154 Y69.76923
 X242.00000
 Y72.15385
 X235.61384
 X235.65000 Y74.53846
 X242.00000
 Y76.92308
 X235.65000
 Y79.30769
 X242.00000
 Y81.69231
 X235.65000
 Y84.07692
 X242.00000
 Y86.46154
 X235.65000
 Y88.84615
 X242.00000
 Y91.23077
 X235.65000
 Y93.61538
 X242.00000
 Y96.00000
 X235.65000
 Y98.38462
 X242.00000
 Y100.76923
 X235.65000
 Y103.15385
 X242.00000
 Y105.53846
 X235.65000
 Y107.92308
 X242.00000
 Y110.30769
 X235.65000
 Y112.69231
 X242.00000
 Y115.07692
 X235.61906
 X235.30713 Y117.46154
 X242.00000
 Y119.84615
 X234.51276
 X233.24204 Y122.23077
 X242.00000
 Y124.61538
 X231.21535
 X227.45252 Y127.00000
 X242.00000
 Z11.00000
 X227.75138
 X231.37612 Y124.61538
 X242.00000
 Y122.23077
 X233.33684
 X234.56394 Y119.84615
 X242.00000
 Y117.46154
 X235.32338
 X235.63343 Y115.07692
 X242.00000
 Y112.69231
 X235.65000
 Y110.30769
 X242.00000
 Y107.92308
 X235.65000
 Y105.53846
 X242.00000
 Y103.15385
 X235.65000
 Y100.76923
 X242.00000
 Y98.38462
 X235.65000
 Y96.00000
 X242.00000
 Y93.61538
 X235.65000
 Y91.23077
 X242.00000
 Y88.84615
 X235.65000
 Y86.46154
 X242.00000
 Y84.07692
 X235.65000
 Y81.69231
 X242.00000
 Y79.30769
 X235.65000
 Y76.92308
 X242.00000
 Y74.53846
 X235.65000
 Y72.15385
 X242.00000
 Y69.76923
 X235.65000
 X235.61949 Y67.38462
 X242.00000
 Y65.00000
 X235.56025
 X235.50328 Y62.61538
 X242.00000
 Y60.23077
 X235.44731
 X235.39401 Y57.84615
 X242.00000
 Y55.46154
 X235.34212
 X235.26011 Y53.07692
 X242.00000
 Y50.69231
 X235.10918
 X234.96194 Y48.30769
 X242.00000
 Y45.92308
 X234.82256
 X234.68842 Y43.53846
 X242.00000
 Y41.15385
 X234.55837
 X234.43739 Y38.76923
 X242.00000
 Y36.38462
 X234.32027
 X234.12880 Y34.00000
 X242.00000
 Y31.61538
 X233.93542
 X233.74948 Y29.23077
 X242.00000
 Y26.84615
 X233.57784
 X233.41667 Y24.46154
 X242.00000
 Y22.07692
 X233.26274
 X233.12315 Y19.69231
 X242.00000
 Y17.30769
 X232.99465
 X232.87721 Y14.92308
 X242.00000
 Y12.53846
 X232.77089
 X232.43444 Y10.15385
 X242.00000
 Y7.76923
 X231.40489
 X230.11015 Y5.38462
 X242.00000
 Y3.00000
 X227.37901
G0 Z35.00000
 X229.01828
G1 Z10.00000
 X242.00000
 Y5.38462
 X231.33299
 X232.55237 Y7.76923
 X242.00000
 Y10.15385
 X233.28668
 X233.53704 Y12.53846
 X242.00000
 Y14.92308
 X233.64302
 X233.76018 Y17.30769
 X242.00000
 Y19.69231
 X233.88839
 X234.02768 Y22.07692
 X242.00000
 Y24.46154
 X234.18127
 X234.32484 Y26.84615
 X242.00000
 Y29.23077
 X234.41753
 X234.51704 Y31.61538
 X242.00000
 Y34.00000
 X234.62048
 X234.73184 Y36.38462
 X242.00000
 Y38.76923
 X234.84850
 X234.96922 Y41.15385
 X242.00000
 Y43.53846
 X235.09904
 X235.23262 Y45.92308
 X242.00000
 Y48.30769
 X235.32783
 X235.37425 Y50.69231
 X242.00000
 Y53.07692
 X235.42184
 X235.47217 Y55.46154
 X242.00000
 Y57.84615
 X235.52375
 X235.57705 Y60.23077
 X242.00000
 Y62.61538
 X235.63288
 X235.65000 Y65.00000
 X242.00000
 Y67.38462
 X235.65000
 Y69.76923
 X242.00000
 Y72.15385
 X235.65000
 Y74.53846
 X242.00000
 Y76.92308
 X235.65000
 Y79.30769
 X242.00000
 Y81.69231
 X235.65000
 Y84.07692
 X242.00000
 Y86.46154
 X235.65000
 Y88.84615
 X242.00000
 Y91.23077
 X235.65000
 Y93.61538
 X242.00000
 Y96.00000
 X235.65000
 Y98.38462
 X242.00000
 Y100.76923
 X235.65000
 Y103.15385
 X242.00000
 Y105.53846
 X235.65000
 Y107.92308
 X242.00000
 Y110.30769
 X235.65000
 Y112.69231
 X242.00000
 Y115.07692
 X235.64333
 X235.33963 Y117.46154
 X242.00000
 Y119.84615
 X234.61512
 X233.43162 Y122.23077
 X242.00000
 Y124.61538
 X231.52660
 X228.04993 Y127.00000
 X242.00000
 Z9.00000
 X228.34848
 X231.66151 Y124.61538
 X242.00000
 Y122.23077
 X233.52639
 X234.66630 Y119.84615
 X242.00000
 Y117.46154
 X235.35588
 X235.64880 Y115.07692
 X242.00000
 Y112.69231
 X235.65000
 Y110.30769
 X242.00000
 Y107.92308
 X235.65000
 Y105.53846
 X242.00000
 Y103.15385
 X235.65000
 Y100.76923
 X242.00000
 Y98.38462
 X235.65000
 Y96.00000
 X242.00000
 Y93.61538
 X235.65000
 Y91.23077
 X242.00000
 Y88.84615
 X235.65000
 Y86.46154
 X242.00000
 Y84.07692
 X235.65000
 Y81.69231
 X242.00000
 Y79.30769
 X235.65000
 Y76.92308
 X242.00000
 Y74.53846
 X235.65000
 Y72.15385
 X242.00000
 Y69.76923
 X235.65000
 Y67.38462
 X242.00000
 Y65.00000
 X235.65000
 Y62.61538
 X242.00000
 Y60.23077
 X235.65000
 Y57.84615
 X242.00000
 Y55.46154
 X235.60212
 X235.55179 Y53.07692
 X242.00000
 Y50.69231
 X235.50440
 X235.45825 Y48.30769
 X242.00000
 Y45.92308
 X235.41385
 X235.37173 Y43.53846
 X242.00000
 Y41.15385
 X235.33079
 X235.25962 Y38.76923
 X242.00000
 Y36.38462
 X235.14342
 X235.03206 Y34.00000
 X242.00000
 Y31.61538
 X234.92905
 X234.82992 Y29.23077
 X242.00000
 Y26.84615
 X234.73723
 X234.65139 Y24.46154
 X242.00000
 Y22.07692
 X234.56891
 X234.49411 Y19.69231
 X242.00000
 Y17.30769
 X234.42529
 X234.36243 Y14.92308
 X242.00000
 Y12.53846
 X234.30312
 X234.01942 Y10.15385
 X242.00000
 Y7.76923
 X233.26739
 X232.24649 Y5.38462
 X242.00000
 Y3.00000
 X230.03629
G0 Z35.00000
 X230.92881
G1 Z8.00000
 X242.00000
 Y5.38462
 X232.77211
 X233.98244 Y7.76923
 X242.00000
 Y10.15385
 X234.49907
 X234.71819 Y12.53846
 X242.00000
 Y14.92308
 X234.77589
 X234.83857 Y17.30769
 X242.00000
 Y19.69231
 X234.90724
 X234.98183 Y22.07692
 X242.00000
 Y24.46154
 X235.06413
 X235.14963 Y26.84615
 X242.00000
 Y29.23077
 X235.24231
 X235.31858 Y31.61538
 X242.00000
 Y34.00000
 X235.35105
 X235.38645 Y36.38462
 X242.00000
 Y38.76923
 X235.42308
 X235.46154 Y41.15385
 X242.00000
 Y43.53846
 X235.50233
 X235.54419 Y45.92308
 X242.00000
 Y48.30769
 X235.58858
 X235.63464 Y50.69231
 X242.00000
 Y53.07692
 X235.65000
 Y55.46154
 X242.00000
 Y57.84615
 X235.65000
 Y60.23077
 X242.00000
 Y62.61538
 X235.65000
 Y65.00000
 X242.00000
 Y67.38462
 X235.65000
 Y69.76923
 X242.00000
 Y72.15385
 X235.65000
 Y74.53846
 X242.00000
 Y76.92308
 X235.65000
 Y79.30769
 X242.00000
 Y81.69231
 X235.65000
 Y84.07692
 X242.00000
 Y86.46154
 X235.65000
 Y88.84615
 X242.00000
 Y91.23077
 X235.65000
 Y93.61538
 X242.00000
 Y96.00000
 X235.65000
 Y98.38462
 X242.00000
 Y100.76923
 X235.65000
 Y103.15385
 X242.00000
 Y105.53846
 X235.65000
 Y107.92308
 X242.00000
 Y110.30769
 X235.65000
 Y112.69231
 X242.00000
 Y115.07692
 X235.65000
 X235.37214 Y117.46154
 X242.00000
 Y119.84615
 X234.71742
 X233.62079 Y122.23077
 X242.00000
 Y124.61538
 X231.78329
 X228.63849 Y127.00000
 X242.00000
G0 Z35.00000
G0 Z35.00000
M2 (end program)
