G40 (disable tool radius compensation)
G49 (disable tool length compensation)
G80 (cancel modal motion)
G54 (select coordinate system 1)
G90 (disable incremental moves)
G21 (metric)
F1400.00000
S250.00000
G61 (exact path mode)
;PYCAM_TOOLPATH_SETTINGS: START
;[Bounds]
;maxz = 34.0
;maxx = 163.0
;maxy = 133.0
;minx = -3.0
;miny = -3.0
;minz = -0.5
;
;[Tool]
;torus_radius = 0.125
;shape = CylindricalCutter
;tool_radius = 3.0
;feedrate = 1400.0
;
;[Process]
;engrave_offset = 0.0
;step_down = 1.0
;generator = PushCutter
;postprocessor = SimpleCutter
;overlap_percent = 60
;milling_style = ignore
;material_allowance = 0.5
;pocketing_type = none
;path_direction = xy
;
;PYCAM_TOOLPATH_SETTINGS: END
G0 Z35.00000
 X-3.00000 Y-3.00000
G1 Z34.00000
 X163.00000
 Y-0.61404
 X-3.00000
 Y1.77193
 X163.00000
 Y4.15789
 X-3.00000
 Y6.54386
 X163.00000
 Y8.92982
 X-3.00000
 Y11.31579
 X163.00000
 Y13.70175
 X-3.00000
 Y16.08772
 X163.00000
 Y18.47368
 X-3.00000
 Y20.85965
 X163.00000
 Y23.24561
 X-3.00000
 Y25.63158
 X163.00000
 Y28.01754
 X-3.00000
 Y30.40351
 X163.00000
 Y32.78947
 X-3.00000
 Y35.17544
 X163.00000
 Y37.56140
 X-3.00000
 Y39.94737
 X163.00000
 Y42.33333
 X-3.00000
 Y44.71930
 X163.00000
 Y47.10526
 X-3.00000
 Y49.49123
 X163.00000
 Y51.87719
 X-3.00000
 Y54.26316
 X163.00000
 Y56.64912
 X-3.00000
 Y59.03509
 X163.00000
 Y61.42105
 X-3.00000
 Y63.80702
 X163.00000
 Y66.19298
 X-3.00000
 Y68.57895
 X163.00000
 Y70.96491
 X-3.00000
 Y73.35088
 X163.00000
 Y75.73684
 X-3.00000
 Y78.12281
 X163.00000
 Y80.50877
 X-3.00000
 Y82.89474
 X163.00000
 Y85.28070
 X-3.00000
 Y87.66667
 X163.00000
 Y90.05263
 X-3.00000
 Y92.43860
 X163.00000
 Y94.82456
 X-3.00000
 Y97.21053
 X163.00000
 Y99.59649
 X-3.00000
 Y101.98246
 X163.00000
 Y104.36842
 X-3.00000
 Y106.75439
 X163.00000
 Y109.14035
 X-3.00000
 Y111.52632
 X163.00000
 Y113.91228
 X-3.00000
 Y116.29825
 X163.00000
 Y118.68421
 X-3.00000
 Y121.07018
 X163.00000
 Y123.45614
 X-3.00000
 Y125.84211
 X163.00000
 Y128.22807
 X-3.00000
 Y130.61404
 X163.00000
 Y133.00000
 X-3.00000
 Y-3.00000
 X-0.62857
 Y133.00000
 X1.74286
 Y-3.00000
 X4.11429
 Y133.00000
 X6.48571
 Y-3.00000
 X8.85714
 Y133.00000
 X11.22857
 Y-3.00000
 X13.60000
 Y133.00000
 X15.97143
 Y-3.00000
 X18.34286
 Y133.00000
 X20.71429
 Y-3.00000
 X23.08571
 Y133.00000
 X25.45714
 Y-3.00000
 X27.82857
 Y133.00000
 X30.20000
 Y-3.00000
 X32.57143
 Y133.00000
 X34.94286
 Y-3.00000
 X37.31429
 Y133.00000
 X39.68571
 Y-3.00000
 X42.05714
 Y133.00000
 X44.42857
 Y-3.00000
 X46.80000
 Y133.00000
 X49.17143
 Y-3.00000
 X51.54286
 Y133.00000
 X53.91429
 Y-3.00000
 X56.28571
 Y133.00000
 X58.65714
 Y-3.00000
 X61.02857
 Y133.00000
 X63.40000
 Y-3.00000
 X65.77143
 Y133.00000
 X68.14286
 Y-3.00000
 X70.51429
 Y133.00000
 X72.88571
 Y-3.00000
 X75.25714
 Y133.00000
 X77.62857
 Y-3.00000
 X80.00000
 Y133.00000
 X82.37143
 Y-3.00000
 X84.74286
 Y133.00000
 X87.11429
 Y-3.00000
 X89.48571
 Y133.00000
 X91.85714
 Y-3.00000
 X94.22857
 Y133.00000
 X96.60000
 Y-3.00000
 X98.97143
 Y133.00000
 X101.34286
 Y-3.00000
 X103.71429
 Y133.00000
 X106.08571
 Y-3.00000
 X108.45714
 Y133.00000
 X110.82857
 Y-3.00000
 X113.20000
 Y133.00000
 X115.57143
 Y-3.00000
 X117.94286
 Y133.00000
 X120.31429
 Y-3.00000
 X122.68571
 Y133.00000
 X125.05714
 Y-3.00000
 X127.42857
 Y133.00000
 X129.80000
 Y-3.00000
 X132.17143
 Y133.00000
 X134.54286
 Y-3.00000
 X136.91429
 Y133.00000
 X139.28571
 Y-3.00000
 X141.65714
 Y133.00000
 X144.02857
 Y-3.00000
 X146.40000
 Y133.00000
 X148.77143
 Y-3.00000
 X151.14286
 Y133.00000
 X153.51429
 Y-3.00000
 X155.88571
 Y133.00000
 X158.25714
 Y-3.00000
 X160.62857
 Y133.00000
 X163.00000
 Y-3.00000
 Z33.01429
 X-3.00000
 Y-0.61404
 X163.00000
 Y1.77193
 X-3.00000
 Y4.15789
 X163.00000
 Y6.54386
 X-3.00000
 Y8.92982
 X163.00000
 Y11.31579
 X-3.00000
 Y13.70175
 X163.00000
 Y16.08772
 X-3.00000
 Y18.47368
 X163.00000
 Y20.85965
 X-3.00000
 Y23.24561
 X163.00000
 Y25.63158
 X-3.00000
 Y28.01754
 X163.00000
 Y30.40351
 X-3.00000
 Y32.78947
 X163.00000
 Y35.17544
 X-3.00000
 Y37.56140
 X163.00000
 Y39.94737
 X-3.00000
 Y42.33333
 X163.00000
 Y44.71930
 X-3.00000
 Y47.10526
 X163.00000
 Y49.49123
 X-3.00000
 Y51.87719
 X163.00000
 Y54.26316
 X-3.00000
 Y56.64912
 X163.00000
 Y59.03509
 X-3.00000
 Y61.42105
 X163.00000
 Y63.80702
 X-3.00000
 Y66.19298
 X163.00000
 Y68.57895
 X-3.00000
 Y70.96491
 X163.00000
 Y73.35088
 X-3.00000
 Y75.73684
 X163.00000
 Y78.12281
 X-3.00000
 Y80.50877
 X163.00000
 Y82.89474
 X-3.00000
 Y85.28070
 X163.00000
 Y87.66667
 X-3.00000
 Y90.05263
 X163.00000
 Y92.43860
 X-3.00000
 Y94.82456
 X163.00000
 Y97.21053
 X-3.00000
 Y99.59649
 X163.00000
 Y101.98246
 X-3.00000
 Y104.36842
 X163.00000
 Y106.75439
 X-3.00000
 Y109.14035
 X163.00000
 Y111.52632
 X-3.00000
 Y113.91228
 X163.00000
 Y116.29825
 X-3.00000
 Y118.68421
 X163.00000
 Y121.07018
 X-3.00000
 Y123.45614
 X163.00000
 Y125.84211
 X-3.00000
 Y128.22807
 X163.00000
 Y130.61404
 X-3.00000
 Y133.00000
 X163.00000
 Y-3.00000
 X160.62857
 Y133.00000
 X158.25714
 Y-3.00000
 X155.88571
 Y133.00000
 X153.51429
 Y-3.00000
 X151.14286
 Y133.00000
 X148.77143
 Y-3.00000
 X146.40000
 Y133.00000
 X144.02857
 Y-3.00000
 X141.65714
 Y133.00000
 X139.28571
 Y-3.00000
 X136.91429
 Y133.00000
 X134.54286
 Y-3.00000
 X132.17143
 Y133.00000
 X129.80000
 Y-3.00000
 X127.42857
 Y133.00000
 X125.05714
 Y-3.00000
 X122.68571
 Y133.00000
 X120.31429
 Y-3.00000
 X117.94286
 Y133.00000
 X115.57143
 Y-3.00000
 X113.20000
 Y133.00000
 X110.82857
 Y-3.00000
 X108.45714
 Y133.00000
 X106.08571
 Y-3.00000
 X103.71429
 Y133.00000
 X101.34286
 Y-3.00000
 X98.97143
 Y133.00000
 X96.60000
 Y-3.00000
 X94.22857
 Y133.00000
 X91.85714
 Y-3.00000
 X89.48571
 Y133.00000
 X87.11429
 Y-3.00000
 X84.74286
 Y133.00000
 X82.37143
 Y-3.00000
 X80.00000
 Y133.00000
 X77.62857
 Y-3.00000
 X75.25714
 Y133.00000
 X72.88571
 Y-3.00000
 X70.51429
 Y133.00000
 X68.14286
 Y-3.00000
 X65.77143
 Y133.00000
 X63.40000
 Y-3.00000
 X61.02857
 Y133.00000
 X58.65714
 Y-3.00000
 X56.28571
 Y133.00000
 X53.91429
 Y-3.00000
 X51.54286
 Y133.00000
 X49.17143
 Y-3.00000
 X46.80000
 Y133.00000
 X44.42857
 Y-3.00000
 X42.05714
 Y133.00000
 X39.68571
 Y-3.00000
 X37.31429
 Y133.00000
 X34.94286
 Y-3.00000
 X32.57143
 Y133.00000
 X30.20000
 Y-3.00000
 X27.82857
 Y133.00000
 X25.45714
 Y-3.00000
 X23.08571
 Y133.00000
 X20.71429
 Y-3.00000
 X18.34286
 Y133.00000
 X15.97143
 Y-3.00000
 X13.60000
 Y133.00000
 X11.22857
 Y-3.00000
 X8.85714
 Y133.00000
 X6.48571
 Y-3.00000
 X4.11429
 Y133.00000
 X1.74286
 Y-3.00000
 X-0.62857
 Y133.00000
 X-3.00000
 Y-3.00000
 Z32.02857
 X163.00000
 Y-0.61404
 X-3.00000
 Y1.77193
 X163.00000
 Y4.15789
 X-3.00000
 Y6.54386
 X163.00000
 Y8.92982
 X-3.00000
 Y11.31579
 X163.00000
 Y13.70175
 X-3.00000
 Y16.08772
 X163.00000
 Y18.47368
 X-3.00000
 Y20.85965
 X163.00000
 Y23.24561
 X-3.00000
 Y25.63158
 X163.00000
 Y28.01754
 X-3.00000
 Y30.40351
 X163.00000
 Y32.78947
 X-3.00000
 Y35.17544
 X163.00000
 Y37.56140
 X-3.00000
 Y39.94737
 X163.00000
 Y42.33333
 X-3.00000
 Y44.71930
 X163.00000
 Y47.10526
 X-3.00000
 Y49.49123
 X163.00000
 Y51.87719
 X-3.00000
 Y54.26316
 X163.00000
 Y56.64912
 X-3.00000
 Y59.03509
 X163.00000
 Y61.42105
 X-3.00000
 Y63.80702
 X163.00000
 Y66.19298
 X-3.00000
 Y68.57895
 X163.00000
 Y70.96491
 X-3.00000
 Y73.35088
 X163.00000
 Y75.73684
 X-3.00000
 Y78.12281
 X163.00000
 Y80.50877
 X-3.00000
 Y82.89474
 X163.00000
 Y85.28070
 X-3.00000
 Y87.66667
 X163.00000
 Y90.05263
 X-3.00000
 Y92.43860
 X163.00000
 Y94.82456
 X-3.00000
 Y97.21053
 X163.00000
 Y99.59649
 X-3.00000
 Y101.98246
 X163.00000
 Y104.36842
 X-3.00000
 Y106.75439
 X163.00000
 Y109.14035
 X-3.00000
 Y111.52632
 X163.00000
 Y113.91228
 X-3.00000
 Y116.29825
 X163.00000
 Y118.68421
 X-3.00000
 Y121.07018
 X163.00000
 Y123.45614
 X-3.00000
 Y125.84211
 X163.00000
 Y128.22807
 X-3.00000
 Y130.61404
 X163.00000
 Y133.00000
 X-3.00000
 Y-3.00000
 X-0.62857
 Y133.00000
 X1.74286
 Y-3.00000
 X4.11429
 Y133.00000
 X6.48571
 Y-3.00000
 X8.85714
 Y133.00000
 X11.22857
 Y-3.00000
 X13.60000
 Y133.00000
 X15.97143
 Y-3.00000
 X18.34286
 Y133.00000
 X20.71429
 Y-3.00000
 X23.08571
 Y133.00000
 X25.45714
 Y-3.00000
 X27.82857
 Y133.00000
 X30.20000
 Y-3.00000
 X32.57143
 Y133.00000
 X34.94286
 Y-3.00000
 X37.31429
 Y133.00000
 X39.68571
 Y-3.00000
 X42.05714
 Y133.00000
 X44.42857
 Y-3.00000
 X46.80000
 Y133.00000
 X49.17143
 Y-3.00000
 X51.54286
 Y133.00000
 X53.91429
 Y-3.00000
 X56.28571
 Y133.00000
 X58.65714
 Y-3.00000
 X61.02857
 Y133.00000
 X63.40000
 Y-3.00000
 X65.77143
 Y133.00000
 X68.14286
 Y-3.00000
 X70.51429
 Y133.00000
 X72.88571
 Y-3.00000
 X75.25714
 Y133.00000
 X77.62857
 Y-3.00000
 X80.00000
 Y133.00000
 X82.37143
 Y-3.00000
 X84.74286
 Y133.00000
 X87.11429
 Y-3.00000
 X89.48571
 Y133.00000
 X91.85714
 Y-3.00000
 X94.22857
 Y133.00000
 X96.60000
 Y-3.00000
 X98.97143
 Y133.00000
 X101.34286
 Y-3.00000
 X103.71429
 Y133.00000
 X106.08571
 Y-3.00000
 X108.45714
 Y133.00000
 X110.82857
 Y-3.00000
 X113.20000
 Y133.00000
 X115.57143
 Y-3.00000
 X117.94286
 Y133.00000
 X120.31429
 Y-3.00000
 X122.68571
 Y133.00000
 X125.05714
 Y-3.00000
 X127.42857
 Y133.00000
 X129.80000
 Y-3.00000
 X132.17143
 Y133.00000
 X134.54286
 Y-3.00000
 X136.91429
 Y133.00000
 X139.28571
 Y-3.00000
 X141.65714
 Y133.00000
 X144.02857
 Y-3.00000
 X146.40000
 Y133.00000
 X148.77143
 Y-3.00000
 X151.14286
 Y133.00000
 X153.51429
 Y-3.00000
 X155.88571
 Y133.00000
 X158.25714
 Y-3.00000
 X160.62857
 Y133.00000
 X163.00000
 Y-3.00000
 Z31.04286
 X-3.00000
 Y-0.61404
 X163.00000
 Y1.77193
 X-3.00000
 Y4.15789
 X163.00000
 Y6.54386
 X-3.00000
 Y8.92982
 X163.00000
 Y11.31579
 X-3.00000
 Y13.70175
 X163.00000
 Y16.08772
 X-3.00000
 Y18.47368
 X163.00000
 Y20.85965
 X-3.00000
 Y23.24561
 X163.00000
 Y25.63158
 X-3.00000
 Y28.01754
 X163.00000
 Y30.40351
 X-3.00000
 Y32.78947
 X163.00000
 Y35.17544
 X-3.00000
 Y37.56140
 X163.00000
 Y39.94737
 X-3.00000
 Y42.33333
 X163.00000
 Y44.71930
 X-3.00000
 Y47.10526
 X163.00000
 Y49.49123
 X-3.00000
 Y51.87719
 X163.00000
 Y54.26316
 X-3.00000
 Y56.64912
 X163.00000
 Y59.03509
 X-3.00000
 Y61.42105
 X163.00000
 Y63.80702
 X-3.00000
 Y66.19298
 X163.00000
 Y68.57895
 X-3.00000
 Y70.96491
 X163.00000
 Y73.35088
 X-3.00000
 Y75.73684
 X163.00000
 Y78.12281
 X-3.00000
 Y80.50877
 X163.00000
 Y82.89474
 X-3.00000
 Y85.28070
 X163.00000
 Y87.66667
 X-3.00000
 Y90.05263
 X163.00000
 Y92.43860
 X-3.00000
 Y94.82456
 X163.00000
 Y97.21053
 X-3.00000
 Y99.59649
 X163.00000
 Y101.98246
 X-3.00000
 Y104.36842
 X163.00000
 Y106.75439
 X-3.00000
 Y109.14035
 X163.00000
 Y111.52632
 X-3.00000
 Y113.91228
 X163.00000
 Y116.29825
 X-3.00000
 Y118.68421
 X163.00000
 Y121.07018
 X-3.00000
 Y123.45614
 X163.00000
 Y125.84211
 X-3.00000
 Y128.22807
 X163.00000
 Y130.61404
 X-3.00000
 Y133.00000
 X163.00000
 Y-3.00000
 X160.62857
 Y133.00000
 X158.25714
 Y-3.00000
 X155.88571
 Y133.00000
 X153.51429
 Y-3.00000
 X151.14286
 Y133.00000
 X148.77143
 Y-3.00000
 X146.40000
 Y133.00000
 X144.02857
 Y-3.00000
 X141.65714
 Y133.00000
 X139.28571
 Y-3.00000
 X136.91429
 Y133.00000
 X134.54286
 Y-3.00000
 X132.17143
 Y133.00000
 X129.80000
 Y-3.00000
 X127.42857
 Y133.00000
 X125.05714
 Y-3.00000
 X122.68571
 Y133.00000
 X120.31429
 Y-3.00000
 X117.94286
 Y133.00000
 X115.57143
 Y-3.00000
 X113.20000
 Y133.00000
 X110.82857
 Y-3.00000
 X108.45714
 Y133.00000
 X106.08571
 Y-3.00000
 X103.71429
 Y133.00000
 X101.34286
 Y-3.00000
 X98.97143
 Y133.00000
 X96.60000
 Y-3.00000
 X94.22857
 Y133.00000
 X91.85714
 Y-3.00000
 X89.48571
 Y133.00000
 X87.11429
 Y-3.00000
 X84.74286
 Y133.00000
 X82.37143
 Y-3.00000
 X80.00000
 Y133.00000
 X77.62857
 Y-3.00000
 X75.25714
 Y133.00000
 X72.88571
 Y-3.00000
 X70.51429
 Y133.00000
 X68.14286
 Y-3.00000
 X65.77143
 Y133.00000
 X63.40000
 Y-3.00000
 X61.02857
 Y133.00000
 X58.65714
 Y-3.00000
 X56.28571
 Y133.00000
 X53.91429
 Y-3.00000
 X51.54286
 Y133.00000
 X49.17143
 Y-3.00000
 X46.80000
 Y133.00000
 X44.42857
 Y-3.00000
 X42.05714
 Y133.00000
 X39.68571
 Y-3.00000
 X37.31429
 Y133.00000
 X34.94286
 Y-3.00000
 X32.57143
 Y133.00000
 X30.20000
 Y-3.00000
 X27.82857
 Y133.00000
 X25.45714
 Y-3.00000
 X23.08571
 Y133.00000
 X20.71429
 Y-3.00000
 X18.34286
 Y133.00000
 X15.97143
 Y-3.00000
 X13.60000
 Y133.00000
 X11.22857
 Y-3.00000
 X8.85714
 Y133.00000
 X6.48571
 Y-3.00000
 X4.11429
 Y133.00000
 X1.74286
 Y-3.00000
 X-0.62857
 Y133.00000
 X-3.00000
 Y-3.00000
 Z30.05714
 X163.00000
 Y-0.61404
 X-3.00000
 Y1.77193
 X163.00000
 Y4.15789
 X-3.00000
 Y6.54386
 X163.00000
 Y8.92982
 X-3.00000
 Y11.31579
 X163.00000
 Y13.70175
 X-3.00000
 Y16.08772
 X163.00000
 Y18.47368
 X-3.00000
 Y20.85965
 X163.00000
 Y23.24561
 X-3.00000
 Y25.63158
 X163.00000
 Y28.01754
 X-3.00000
 Y30.40351
 X163.00000
 Y32.78947
 X-3.00000
 Y35.17544
 X163.00000
 Y37.56140
 X-3.00000
 Y39.94737
 X163.00000
 Y42.33333
 X-3.00000
 Y44.71930
 X163.00000
 Y47.10526
 X-3.00000
 Y49.49123
 X163.00000
 Y51.87719
 X-3.00000
 Y54.26316
 X163.00000
 Y56.64912
 X-3.00000
 Y59.03509
 X163.00000
 Y61.42105
 X-3.00000
 Y63.80702
 X163.00000
 Y66.19298
 X-3.00000
 Y68.57895
 X163.00000
 Y70.96491
 X-3.00000
 Y73.35088
 X163.00000
 Y75.73684
 X-3.00000
 Y78.12281
 X163.00000
 Y80.50877
 X-3.00000
 Y82.89474
 X163.00000
 Y85.28070
 X-3.00000
 Y87.66667
 X163.00000
 Y90.05263
 X-3.00000
 Y92.43860
 X163.00000
 Y94.82456
 X-3.00000
 Y97.21053
 X163.00000
 Y99.59649
 X-3.00000
 Y101.98246
 X6.19349
G0 Z35.00000
 X162.96497
G1 Z30.05714
 X163.00000
G0 Z35.00000
 X3.93149 Y104.36842
G1 Z30.05714
 X-3.00000
 Y106.75439
 X3.26702
 X3.03674 Y109.14035
 X-3.00000
 Y111.52632
 X3.24700
 X4.10940 Y113.91228
 X-3.00000
 Y116.29825
 X7.43401
G0 Z35.00000
 X162.21165
G1 Z30.05714
 X163.00000
 Y118.68421
 X-3.00000
 Y121.07018
 X163.00000
 Y123.45614
 X-3.00000
 Y125.84211
 X163.00000
 Y128.22807
 X-3.00000
 Y130.61404
 X163.00000
 Y133.00000
 X-3.00000
 Y-3.00000
 X-0.62857
 Y133.00000
 X1.74286
 Y-3.00000
 X4.11429
 Y104.04192
G0 Z35.00000
 Y113.91883
G1 Z30.05714
 Y133.00000
 X6.48571
 Y115.89464
G0 Z35.00000
 Y101.81650
G1 Z30.05714
 Y-3.00000
 X8.85714
 Y100.53384
G0 Z35.00000
 Y116.89373
G1 Z30.05714
 Y133.00000
 X11.22857
 Y117.08561
G0 Z35.00000
 Y100.34200
G1 Z30.05714
 Y-3.00000
 X13.60000
 Y100.34200
G0 Z35.00000
 Y117.08561
G1 Z30.05714
 Y133.00000
 X15.97143
 Y117.08561
G0 Z35.00000
 Y100.34200
G1 Z30.05714
 Y-3.00000
 X18.34286
 Y100.34200
G0 Z35.00000
 Y117.08561
G1 Z30.05714
 Y133.00000
 X20.71429
 Y117.08561
G0 Z35.00000
 Y100.34200
G1 Z30.05714
 Y-3.00000
 X23.08571
 Y100.34200
G0 Z35.00000
 Y117.08561
G1 Z30.05714
 Y133.00000
 X25.45714
 Y117.08561
G0 Z35.00000
 Y100.34200
G1 Z30.05714
 Y-3.00000
 X27.82857
 Y100.34200
G0 Z35.00000
 Y117.08561
G1 Z30.05714
 Y133.00000
 X30.20000
 Y117.08561
G0 Z35.00000
 Y100.34200
G1 Z30.05714
 Y-3.00000
 X32.57143
 Y100.34200
G0 Z35.00000
 Y117.08561
G1 Z30.05714
 Y133.00000
 X34.94286
 Y117.08561
G0 Z35.00000
 Y100.34200
G1 Z30.05714
 Y-3.00000
 X37.31429
 Y100.34200
G0 Z35.00000
 Y117.08561
G1 Z30.05714
 Y133.00000
 X39.68571
 Y117.08561
G0 Z35.00000
 Y100.34200
G1 Z30.05714
 Y-3.00000
 X42.05714
 Y100.34200
G0 Z35.00000
 Y117.08561
G1 Z30.05714
 Y133.00000
 X44.42857
 Y117.08561
G0 Z35.00000
 Y100.34200
G1 Z30.05714
 Y-3.00000
 X46.80000
 Y100.34200
G0 Z35.00000
 Y117.08561
G1 Z30.05714
 Y133.00000
 X49.17143
 Y117.08561
G0 Z35.00000
 Y100.34200
G1 Z30.05714
 Y-3.00000
 X51.54286
 Y100.34200
G0 Z35.00000
 Y117.08561
G1 Z30.05714
 Y133.00000
 X53.91429
 Y117.08561
G0 Z35.00000
 Y100.34200
G1 Z30.05714
 Y-3.00000
 X56.28571
 Y100.34200
G0 Z35.00000
 Y117.08561
G1 Z30.05714
 Y133.00000
 X58.65714
 Y117.08561
G0 Z35.00000
 Y100.34200
G1 Z30.05714
 Y-3.00000
 X61.02857
 Y100.34200
G0 Z35.00000
 Y117.08561
G1 Z30.05714
 Y133.00000
 X63.40000
 Y117.08561
G0 Z35.00000
 Y100.34200
G1 Z30.05714
 Y-3.00000
 X65.77143
 Y100.34200
G0 Z35.00000
 Y117.08561
G1 Z30.05714
 Y133.00000
 X68.14286
 Y117.08561
G0 Z35.00000
 Y100.34200
G1 Z30.05714
 Y-3.00000
 X70.51429
 Y100.34200
G0 Z35.00000
 Y117.08561
G1 Z30.05714
 Y133.00000
 X72.88571
 Y117.08561
G0 Z35.00000
 Y100.34200
G1 Z30.05714
 Y-3.00000
 X75.25714
 Y100.34200
G0 Z35.00000
 Y117.08561
G1 Z30.05714
 Y133.00000
 X77.62857
 Y117.08561
G0 Z35.00000
 Y100.34200
G1 Z30.05714
 Y-3.00000
 X80.00000
 Y100.34200
G0 Z35.00000
 Y117.08561
G1 Z30.05714
 Y133.00000
 X82.37143
 Y117.08561
G0 Z35.00000
 Y100.34200
G1 Z30.05714
 Y-3.00000
 X84.74286
 Y100.34200
G0 Z35.00000
 Y117.08561
G1 Z30.05714
 Y133.00000
 X87.11429
 Y117.08561
G0 Z35.00000
 Y100.34200
G1 Z30.05714
 Y-3.00000
 X89.48571
 Y100.34200
G0 Z35.00000
 Y117.08561
G1 Z30.05714
 Y133.00000
 X91.85714
 Y117.08561
G0 Z35.00000
 Y100.34200
G1 Z30.05714
 Y-3.00000
 X94.22857
 Y100.34200
G0 Z35.00000
 Y117.08561
G1 Z30.05714
 Y133.00000
 X96.60000
 Y117.08561
G0 Z35.00000
 Y100.34200
G1 Z30.05714
 Y-3.00000
 X98.97143
 Y100.34200
G0 Z35.00000
 Y117.08561
G1 Z30.05714
 Y133.00000
 X101.34286
 Y117.08542
G0 Z35.00000
 Y100.34200
G1 Z30.05714
 Y-3.00000
 X103.71429
 Y100.34200
G0 Z35.00000
 Y117.08542
G1 Z30.05714
 Y133.00000
 X106.08571
 Y117.08542
G0 Z35.00000
 Y100.34200
G1 Z30.05714
 Y-3.00000
 X108.45714
 Y100.34212
G0 Z35.00000
 Y117.08542
G1 Z30.05714
 Y133.00000
 X110.82857
 Y117.08542
G0 Z35.00000
 Y100.34212
G1 Z30.05714
 Y-3.00000
 X113.20000
 Y100.34212
G0 Z35.00000
 Y117.08542
G1 Z30.05714
 Y133.00000
 X115.57143
 Y117.08542
G0 Z35.00000
 Y100.34212
G1 Z30.05714
 Y-3.00000
 X117.94286
 Y100.34212
G0 Z35.00000
 Y117.08542
G1 Z30.05714
 Y133.00000
 X120.31429
 Y117.08542
G0 Z35.00000
 Y100.34212
G1 Z30.05714
 Y-3.00000
 X122.68571
 Y100.34212
G0 Z35.00000
 Y117.08542
G1 Z30.05714
 Y133.00000
 X125.05714
 Y117.08542
G0 Z35.00000
 Y100.34212
G1 Z30.05714
 Y-3.00000
 X127.42857
 Y100.34212
G0 Z35.00000
 Y117.08542
G1 Z30.05714
 Y133.00000
 X129.80000
 Y117.08542
G0 Z35.00000
 Y100.34212
G1 Z30.05714
 Y-3.00000
 X132.17143
 Y100.34212
G0 Z35.00000
 Y117.08542
G1 Z30.05714
 Y133.00000
 X134.54286
 Y117.08542
G0 Z35.00000
 Y100.34212
G1 Z30.05714
 Y-3.00000
 X136.91429
 Y100.34212
G0 Z35.00000
 Y117.08542
G1 Z30.05714
 Y133.00000
 X139.28571
 Y117.08542
G0 Z35.00000
 Y100.34212
G1 Z30.05714
 Y-3.00000
 X141.65714
 Y100.34212
G0 Z35.00000
 Y117.08542
G1 Z30.05714
 Y133.00000
 X144.02857
 Y117.08542
G0 Z35.00000
 Y100.34212
G1 Z30.05714
 Y-3.00000
 X146.40000
 Y100.34212
G0 Z35.00000
 Y117.08542
G1 Z30.05714
 Y133.00000
 X148.77143
 Y117.08542
G0 Z35.00000
 Y100.34212
G1 Z30.05714
 Y-3.00000
 X151.14286
 Y100.34251
G0 Z35.00000
 Y117.08542
G1 Z30.05714
 Y133.00000
 X153.51429
 Y117.08542
G0 Z35.00000
 Y100.34251
G1 Z30.05714
 Y-3.00000
 X155.88571
 Y100.34251
G0 Z35.00000
 Y117.08542
G1 Z30.05714
 Y133.00000
 X158.25714
 Y117.08542
G0 Z35.00000
 Y100.34251
G1 Z30.05714
 Y-3.00000
 X160.62857
 Y100.39919
G0 Z35.00000
 Y117.02867
G1 Z30.05714
 Y133.00000
 X163.00000
 Y115.38835
G0 Z35.00000
 Y102.03951
G1 Z30.05714
 Y-3.00000
 Z29.07143
 X-3.00000
 Y-0.61404
 X163.00000
 Y1.77193
 X-3.00000
 Y4.15789
 X163.00000
 Y6.54386
 X-3.00000
 Y8.92982
 X163.00000
 Y11.31579
 X-3.00000
 Y13.70175
 X163.00000
 Y16.08772
 X-3.00000
 Y18.47368
 X163.00000
 Y20.85965
 X-3.00000
 Y23.24561
 X163.00000
 Y25.63158
 X-3.00000
 Y28.01754
 X163.00000
 Y30.40351
 X-3.00000
 Y32.78947
 X163.00000
 Y35.17544
 X-3.00000
 Y37.56140
 X163.00000
 Y39.94737
 X-3.00000
 Y42.33333
 X163.00000
 Y44.71930
 X-3.00000
 Y47.10526
 X163.00000
 Y49.49123
 X-3.00000
 Y51.87719
 X163.00000
 Y54.26316
 X-3.00000
 Y56.64912
 X163.00000
 Y59.03509
 X-3.00000
 Y61.42105
 X163.00000
 Y63.80702
 X-3.00000
 Y66.19298
 X163.00000
 Y68.57895
 X-3.00000
 Y70.96491
 X163.00000
 Y73.35088
 X-3.00000
 Y75.73684
 X163.00000
 Y78.12281
 X-3.00000
 Y80.50877
 X163.00000
 Y82.89474
 X-3.00000
 Y85.28070
 X163.00000
 Y87.66667
 X-3.00000
 Y90.05263
 X163.00000
 Y92.43860
 X-3.00000
 Y94.82456
 X163.00000
 Y97.21053
 X161.22592
G0 Z35.00000
 X8.77408
G1 Z29.07143
 X-3.00000
 Y99.59649
 X4.61255
 X2.96128 Y101.98246
 X-3.00000
 Y104.36842
 X1.67916
 X1.17914 Y106.75439
 X-3.00000
 Y109.14035
 X1.04495
 X1.16420 Y111.52632
 X-3.00000
 Y113.91228
 X1.86822
 X3.57933 Y116.29825
 X-3.00000
 Y118.68421
 X5.79831
G0 Z35.00000
 X162.75372
G1 Z29.07143
 X163.00000
 Y121.07018
 X-3.00000
 Y123.45614
 X163.00000
 Y125.84211
 X-3.00000
 Y128.22807
 X163.00000
 Y130.61404
 X-3.00000
 Y133.00000
 X163.00000
 Y118.32666
G0 Z35.00000
 Y98.68603
G1 Z29.07143
 Y-3.00000
 X160.62857
 Y97.04571
G0 Z35.00000
 Y119.96698
G1 Z29.07143
 Y133.00000
 X158.25714
 Y120.02390
G0 Z35.00000
 Y96.98881
G1 Z29.07143
 Y-3.00000
 X155.88571
 Y96.98881
G0 Z35.00000
 Y120.02391
G1 Z29.07143
 Y133.00000
 X153.51429
 Y120.02391
G0 Z35.00000
 Y96.98881
G1 Z29.07143
 Y-3.00000
 X151.14286
 Y96.98881
G0 Z35.00000
 Y120.02391
G1 Z29.07143
 Y133.00000
 X148.77143
 Y120.02391
G0 Z35.00000
 Y96.98881
G1 Z29.07143
 Y-3.00000
 X146.40000
 Y96.98881
G0 Z35.00000
 Y120.02391
G1 Z29.07143
 Y133.00000
 X144.02857
 Y120.02391
G0 Z35.00000
 Y96.98881
G1 Z29.07143
 Y-3.00000
 X141.65714
 Y96.98881
G0 Z35.00000
 Y120.02391
G1 Z29.07143
 Y133.00000
 X139.28571
 Y120.02391
G0 Z35.00000
 Y96.98881
G1 Z29.07143
 Y-3.00000
 X136.91429
 Y96.98881
G0 Z35.00000
 Y120.02391
G1 Z29.07143
 Y133.00000
 X134.54286
 Y120.02391
G0 Z35.00000
 Y96.98881
G1 Z29.07143
 Y-3.00000
 X132.17143
 Y96.98881
G0 Z35.00000
 Y120.02391
G1 Z29.07143
 Y133.00000
 X129.80000
 Y120.02391
G0 Z35.00000
 Y96.98881
G1 Z29.07143
 Y-3.00000
 X127.42857
 Y96.98881
G0 Z35.00000
 Y120.02391
G1 Z29.07143
 Y133.00000
 X125.05714
 Y120.02391
G0 Z35.00000
 Y96.98881
G1 Z29.07143
 Y-3.00000
 X122.68571
 Y96.98881
G0 Z35.00000
 Y120.02391
G1 Z29.07143
 Y133.00000
 X120.31429
 Y120.02391
G0 Z35.00000
 Y96.98881
G1 Z29.07143
 Y-3.00000
 X117.94286
 Y96.98881
G0 Z35.00000
 Y120.02391
G1 Z29.07143
 Y133.00000
 X115.57143
 Y120.02391
G0 Z35.00000
 Y96.98881
G1 Z29.07143
 Y-3.00000
 X113.20000
 Y96.98881
G0 Z35.00000
 Y120.02391
G1 Z29.07143
 Y133.00000
 X110.82857
 Y120.02391
G0 Z35.00000
 Y96.98881
G1 Z29.07143
 Y-3.00000
 X108.45714
 Y96.98881
G0 Z35.00000
 Y120.02391
G1 Z29.07143
 Y133.00000
 X106.08571
 Y120.02391
G0 Z35.00000
 Y96.98881
G1 Z29.07143
 Y-3.00000
 X103.71429
 Y96.98881
G0 Z35.00000
 Y120.02391
G1 Z29.07143
 Y133.00000
 X101.34286
 Y120.02391
G0 Z35.00000
 Y96.98881
G1 Z29.07143
 Y-3.00000
 X98.97143
 Y96.98881
G0 Z35.00000
 Y120.02391
G1 Z29.07143
 Y133.00000
 X96.60000
 Y120.02391
G0 Z35.00000
 Y96.98881
G1 Z29.07143
 Y-3.00000
 X94.22857
 Y96.98881
G0 Z35.00000
 Y120.02391
G1 Z29.07143
 Y133.00000
 X91.85714
 Y120.02391
G0 Z35.00000
 Y96.98881
G1 Z29.07143
 Y-3.00000
 X89.48571
 Y96.98881
G0 Z35.00000
 Y120.02391
G1 Z29.07143
 Y133.00000
 X87.11429
 Y120.02391
G0 Z35.00000
 Y96.98881
G1 Z29.07143
 Y-3.00000
 X84.74286
 Y96.98881
G0 Z35.00000
 Y120.02391
G1 Z29.07143
 Y133.00000
 X82.37143
 Y120.02391
G0 Z35.00000
 Y96.98881
G1 Z29.07143
 Y-3.00000
 X80.00000
 Y96.98881
G0 Z35.00000
 Y120.02391
G1 Z29.07143
 Y133.00000
 X77.62857
 Y120.02391
G0 Z35.00000
 Y96.98881
G1 Z29.07143
 Y-3.00000
 X75.25714
 Y96.98881
G0 Z35.00000
 Y120.02391
G1 Z29.07143
 Y133.00000
 X72.88571
 Y120.02391
G0 Z35.00000
 Y96.98881
G1 Z29.07143
 Y-3.00000
 X70.51429
 Y96.98881
G0 Z35.00000
 Y120.02391
G1 Z29.07143
 Y133.00000
 X68.14286
 Y120.02391
G0 Z35.00000
 Y96.98881
G1 Z29.07143
 Y-3.00000
 X65.77143
 Y96.98881
G0 Z35.00000
 Y120.02391
G1 Z29.07143
 Y133.00000
 X63.40000
 Y120.02391
G0 Z35.00000
 Y96.98881
G1 Z29.07143
 Y-3.00000
 X61.02857
 Y96.98881
G0 Z35.00000
 Y120.02391
G1 Z29.07143
 Y133.00000
 X58.65714
 Y120.02391
G0 Z35.00000
 Y96.98881
G1 Z29.07143
 Y-3.00000
 X56.28571
 Y96.98881
G0 Z35.00000
 Y120.02391
G1 Z29.07143
 Y133.00000
 X53.91429
 Y120.02391
G0 Z35.00000
 Y96.98881
G1 Z29.07143
 Y-3.00000
 X51.54286
 Y96.98881
G0 Z35.00000
 Y120.02391
G1 Z29.07143
 Y133.00000
 X49.17143
 Y120.02391
G0 Z35.00000
 Y96.98880
G1 Z29.07143
 Y-3.00000
 X46.80000
 Y96.98880
G0 Z35.00000
 Y120.02391
G1 Z29.07143
 Y133.00000
 X44.42857
 Y120.02391
G0 Z35.00000
 Y96.98880
G1 Z29.07143
 Y-3.00000
 X42.05714
 Y96.98880
G0 Z35.00000
 Y120.02391
G1 Z29.07143
 Y133.00000
 X39.68571
 Y120.02391
G0 Z35.00000
 Y96.98880
G1 Z29.07143
 Y-3.00000
 X37.31429
 Y96.98880
G0 Z35.00000
 Y120.02391
G1 Z29.07143
 Y133.00000
 X34.94286
 Y120.02391
G0 Z35.00000
 Y96.98880
G1 Z29.07143
 Y-3.00000
 X32.57143
 Y96.98880
G0 Z35.00000
 Y120.02391
G1 Z29.07143
 Y133.00000
 X30.20000
 Y120.02391
G0 Z35.00000
 Y96.98880
G1 Z29.07143
 Y-3.00000
 X27.82857
 Y96.98880
G0 Z35.00000
 Y120.02391
G1 Z29.07143
 Y133.00000
 X25.45714
 Y120.02391
G0 Z35.00000
 Y96.98880
G1 Z29.07143
 Y-3.00000
 X23.08571
 Y96.98880
G0 Z35.00000
 Y120.02391
G1 Z29.07143
 Y133.00000
 X20.71429
 Y120.02391
G0 Z35.00000
 Y96.98880
G1 Z29.07143
 Y-3.00000
 X18.34286
 Y96.98880
G0 Z35.00000
 Y120.02391
G1 Z29.07143
 Y133.00000
 X15.97143
 Y120.02391
G0 Z35.00000
 Y96.98880
G1 Z29.07143
 Y-3.00000
 X13.60000
 Y96.98880
G0 Z35.00000
 Y120.02391
G1 Z29.07143
 Y133.00000
 X11.22857
 Y120.02391
G0 Z35.00000
 Y96.98880
G1 Z29.07143
 Y-3.00000
 X8.85714
 Y97.18065
G0 Z35.00000
 Y119.87249
G1 Z29.07143
 Y133.00000
 X6.48571
 Y118.98779
G0 Z35.00000
 Y98.26764
G1 Z29.07143
 Y-3.00000
 X4.11429
 Y100.31659
G0 Z35.00000
 Y117.01332
G1 Z29.07143
 Y133.00000
 X1.74286
 Y113.63088
G0 Z35.00000
 Y104.19286
G1 Z29.07143
 Y-3.00000
 X-0.62857
 Y133.00000
 X-3.00000
 Y-3.00000
 Z28.08571
 X163.00000
 Y-0.61404
 X-3.00000
 Y1.77193
 X163.00000
 Y4.15789
 X-3.00000
 Y6.54386
 X163.00000
 Y8.92982
 X-3.00000
 Y11.31579
 X163.00000
 Y13.70175
 X-3.00000
 Y16.08772
 X163.00000
 Y18.47368
 X-3.00000
 Y20.85965
 X163.00000
 Y23.24561
 X-3.00000
 Y25.63158
 X163.00000
 Y28.01754
 X-3.00000
 Y30.40351
 X163.00000
 Y32.78947
 X-3.00000
 Y35.17544
 X163.00000
 Y37.56140
 X-3.00000
 Y39.94737
 X163.00000
 Y42.33333
 X-3.00000
 Y44.71930
 X163.00000
 Y47.10526
 X-3.00000
 Y49.49123
 X163.00000
 Y51.87719
 X-3.00000
 Y54.26316
 X163.00000
 Y56.64912
 X-3.00000
 Y59.03509
 X163.00000
 Y61.42105
 X-3.00000
 Y63.80702
 X163.00000
 Y66.19298
 X-3.00000
 Y68.57895
 X163.00000
 Y70.96491
 X-3.00000
 Y73.35088
 X163.00000
 Y75.73684
 X-3.00000
 Y78.12281
 X163.00000
 Y80.50877
 X-3.00000
 Y82.89474
 X163.00000
 Y85.28070
 X-3.00000
 Y87.66667
 X163.00000
 Y90.05263
 X-3.00000
 Y92.43860
 X163.00000
 Y94.82456
 X162.69395
G0 Z35.00000
 X6.57775
G1 Z28.08571
 X-3.00000
 Y97.21053
 X3.93631
 X2.32534 Y99.59649
 X-3.00000
 Y101.98246
 X1.23154
 X0.42575 Y104.36842
 X-3.00000
 Y106.75439
 X-0.10647
 X-0.23967 Y109.14035
 X-3.00000
 Y111.52632
 X-0.12149
 X0.60771 Y113.91228
 X-3.00000
 Y116.29825
 X1.56925
 X3.24445 Y118.68421
 X-3.00000
 Y121.07018
 X163.00000
 Y123.45614
 X-3.00000
 Y125.84211
 X163.00000
 Y128.22807
 X-3.00000
 Y130.61404
 X163.00000
 Y133.00000
 X-3.00000
 Y-3.00000
 X-0.62857
 Y133.00000
 X1.74286
 Y116.72864
G0 Z35.00000
 Y100.60537
G1 Z28.08571
 Y-3.00000
 X4.11429
 Y96.94438
G0 Z35.00000
 Y119.21037
G1 Z28.08571
 Y133.00000
 X6.48571
 Y120.45321
G0 Z35.00000
 Y94.86862
G1 Z28.08571
 Y-3.00000
 X8.85714
 Y93.75083
G0 Z35.00000
 Y120.90356
G1 Z28.08571
 Y133.00000
 X11.22857
 Y121.05539
G0 Z35.00000
 Y93.55902
G1 Z28.08571
 Y-3.00000
 X13.60000
 Y93.55902
G0 Z35.00000
 Y121.05539
G1 Z28.08571
 Y133.00000
 X15.97143
 Y121.05539
G0 Z35.00000
 Y93.55902
G1 Z28.08571
 Y-3.00000
 X18.34286
 Y93.55902
G0 Z35.00000
 Y121.05539
G1 Z28.08571
 Y133.00000
 X20.71429
 Y121.05539
G0 Z35.00000
 Y93.55902
G1 Z28.08571
 Y-3.00000
 X23.08571
 Y93.55902
G0 Z35.00000
 Y121.05539
G1 Z28.08571
 Y133.00000
 X25.45714
 Y121.05539
G0 Z35.00000
 Y93.55902
G1 Z28.08571
 Y-3.00000
 X27.82857
 Y93.55902
G0 Z35.00000
 Y121.05539
G1 Z28.08571
 Y133.00000
 X30.20000
 Y121.05539
G0 Z35.00000
 Y93.55902
G1 Z28.08571
 Y-3.00000
 X32.57143
 Y93.55902
G0 Z35.00000
 Y121.05539
G1 Z28.08571
 Y133.00000
 X34.94286
 Y121.05539
G0 Z35.00000
 Y93.55902
G1 Z28.08571
 Y-3.00000
 X37.31429
 Y93.55902
G0 Z35.00000
 Y121.05539
G1 Z28.08571
 Y133.00000
 X39.68571
 Y121.05539
G0 Z35.00000
 Y93.55902
G1 Z28.08571
 Y-3.00000
 X42.05714
 Y93.55902
G0 Z35.00000
 Y121.05539
G1 Z28.08571
 Y133.00000
 X44.42857
 Y121.05539
G0 Z35.00000
 Y93.55902
G1 Z28.08571
 Y-3.00000
 X46.80000
 Y93.55902
G0 Z35.00000
 Y121.05539
G1 Z28.08571
 Y133.00000
 X49.17143
 Y121.05539
G0 Z35.00000
 Y93.55902
G1 Z28.08571
 Y-3.00000
 X51.54286
 Y93.55902
G0 Z35.00000
 Y121.05539
G1 Z28.08571
 Y133.00000
 X53.91429
 Y121.05539
G0 Z35.00000
 Y93.55902
G1 Z28.08571
 Y-3.00000
 X56.28571
 Y93.55902
G0 Z35.00000
 Y121.05539
G1 Z28.08571
 Y133.00000
 X58.65714
 Y121.05539
G0 Z35.00000
 Y93.55902
G1 Z28.08571
 Y-3.00000
 X61.02857
 Y93.55902
G0 Z35.00000
 Y121.05539
G1 Z28.08571
 Y133.00000
 X63.40000
 Y121.05539
G0 Z35.00000
 Y93.55902
G1 Z28.08571
 Y-3.00000
 X65.77143
 Y93.55902
G0 Z35.00000
 Y121.05539
G1 Z28.08571
 Y133.00000
 X68.14286
 Y121.05539
G0 Z35.00000
 Y93.55902
G1 Z28.08571
 Y-3.00000
 X70.51429
 Y93.55901
G0 Z35.00000
 Y121.05539
G1 Z28.08571
 Y133.00000
 X72.88571
 Y121.05539
G0 Z35.00000
 Y93.55901
G1 Z28.08571
 Y-3.00000
 X75.25714
 Y93.55901
G0 Z35.00000
 Y121.05539
G1 Z28.08571
 Y133.00000
 X77.62857
 Y121.05539
G0 Z35.00000
 Y93.55901
G1 Z28.08571
 Y-3.00000
 X80.00000
 Y93.55901
G0 Z35.00000
 Y121.05539
G1 Z28.08571
 Y133.00000
 X82.37143
 Y121.05539
G0 Z35.00000
 Y93.55901
G1 Z28.08571
 Y-3.00000
 X84.74286
 Y93.55901
G0 Z35.00000
 Y121.05539
G1 Z28.08571
 Y133.00000
 X87.11429
 Y121.05539
G0 Z35.00000
 Y93.55901
G1 Z28.08571
 Y-3.00000
 X89.48571
 Y93.55901
G0 Z35.00000
 Y121.05539
G1 Z28.08571
 Y133.00000
 X91.85714
 Y121.05539
G0 Z35.00000
 Y93.55901
G1 Z28.08571
 Y-3.00000
 X94.22857
 Y93.55901
G0 Z35.00000
 Y121.05539
G1 Z28.08571
 Y133.00000
 X96.60000
 Y121.05539
G0 Z35.00000
 Y93.55901
G1 Z28.08571
 Y-3.00000
 X98.97143
 Y93.55901
G0 Z35.00000
 Y121.05539
G1 Z28.08571
 Y133.00000
 X101.34286
 Y121.05539
G0 Z35.00000
 Y93.55901
G1 Z28.08571
 Y-3.00000
 X103.71429
 Y93.55901
G0 Z35.00000
 Y121.05539
G1 Z28.08571
 Y133.00000
 X106.08571
 Y121.05539
G0 Z35.00000
 Y93.55901
G1 Z28.08571
 Y-3.00000
 X108.45714
 Y93.55901
G0 Z35.00000
 Y121.05539
G1 Z28.08571
 Y133.00000
 X110.82857
 Y121.05539
G0 Z35.00000
 Y93.55901
G1 Z28.08571
 Y-3.00000
 X113.20000
 Y93.55901
G0 Z35.00000
 Y121.05539
G1 Z28.08571
 Y133.00000
 X115.57143
 Y121.05539
G0 Z35.00000
 Y93.55901
G1 Z28.08571
 Y-3.00000
 X117.94286
 Y93.55901
G0 Z35.00000
 Y121.05539
G1 Z28.08571
 Y133.00000
 X120.31429
 Y121.05539
G0 Z35.00000
 Y93.55901
G1 Z28.08571
 Y-3.00000
 X122.68571
 Y93.55901
G0 Z35.00000
 Y121.05539
G1 Z28.08571
 Y133.00000
 X125.05714
 Y121.05539
G0 Z35.00000
 Y93.55901
G1 Z28.08571
 Y-3.00000
 X127.42857
 Y93.55901
G0 Z35.00000
 Y121.05539
G1 Z28.08571
 Y133.00000
 X129.80000
 Y121.05539
G0 Z35.00000
 Y93.55909
G1 Z28.08571
 Y-3.00000
 X132.17143
 Y93.55909
G0 Z35.00000
 Y121.05539
G1 Z28.08571
 Y133.00000
 X134.54286
 Y121.05538
G0 Z35.00000
 Y93.55909
G1 Z28.08571
 Y-3.00000
 X136.91429
 Y93.55909
G0 Z35.00000
 Y121.05538
G1 Z28.08571
 Y133.00000
 X139.28571
 Y121.05538
G0 Z35.00000
 Y93.55909
G1 Z28.08571
 Y-3.00000
 X141.65714
 Y93.55909
G0 Z35.00000
 Y121.05538
G1 Z28.08571
 Y133.00000
 X144.02857
 Y121.05538
G0 Z35.00000
 Y93.55909
G1 Z28.08571
 Y-3.00000
 X146.40000
 Y93.55909
G0 Z35.00000
 Y121.05538
G1 Z28.08571
 Y133.00000
 X148.77143
 Y121.05538
G0 Z35.00000
 Y93.55909
G1 Z28.08571
 Y-3.00000
 X151.14286
 Y93.55909
G0 Z35.00000
 Y121.05538
G1 Z28.08571
 Y133.00000
 X153.51429
 Y121.05538
G0 Z35.00000
 Y93.55909
G1 Z28.08571
 Y-3.00000
 X155.88571
 Y93.55909
G0 Z35.00000
 Y121.05538
G1 Z28.08571
 Y133.00000
 X158.25714
 Y121.05538
G0 Z35.00000
 Y93.55909
G1 Z28.08571
 Y-3.00000
 X160.62857
 Y93.61589
G0 Z35.00000
 Y120.99846
G1 Z28.08571
 Y133.00000
 X163.00000
 Y119.35814
G0 Z35.00000
 Y95.25621
G1 Z28.08571
 Y-3.00000
 Z27.10000
 X-3.00000
 Y-0.61404
 X163.00000
 Y1.77193
 X-3.00000
 Y4.15789
 X163.00000
 Y6.54386
 X-3.00000
 Y8.92982
 X163.00000
 Y11.31579
 X-3.00000
 Y13.70175
 X163.00000
 Y16.08772
 X-3.00000
 Y18.47368
 X163.00000
 Y20.85965
 X-3.00000
 Y23.24561
 X163.00000
 Y25.63158
 X-3.00000
 Y28.01754
 X163.00000
 Y30.40351
 X-3.00000
 Y32.78947
 X163.00000
 Y35.17544
 X-3.00000
 Y37.56140
 X163.00000
 Y39.94737
 X-3.00000
 Y42.33333
 X163.00000
 Y44.71930
 X-3.00000
 Y47.10526
 X163.00000
 Y49.49123
 X-3.00000
 Y51.87719
 X163.00000
 Y54.26316
 X-3.00000
 Y56.64912
 X163.00000
 Y59.03509
 X-3.00000
 Y61.42105
 X163.00000
 Y63.80702
 X-3.00000
 Y66.19298
 X163.00000
 Y68.57895
 X-3.00000
 Y70.96491
 X163.00000
 Y73.35088
 X-3.00000
 Y75.73684
 X163.00000
 Y78.12281
 X-3.00000
 Y80.50877
 X163.00000
 Y82.89474
 X-3.00000
 Y85.28070
 X163.00000
 Y87.66667
 X-3.00000
 Y90.05263
 X9.33828
G0 Z35.00000
 X160.66172
G1 Z27.10000
 X163.00000
G0 Z35.00000
 X4.81027 Y92.43860
G1 Z27.10000
 X-3.00000
 Y94.82456
 X3.22306
 X1.74305 Y97.21053
 X-3.00000
 Y99.59649
 X0.87939
 X0.00023 Y101.98246
 X-3.00000
 Y104.36842
 X-0.68499
 X-1.05141 Y106.75439
 X-3.00000
 Y109.14035
 X-1.13233
 X-1.06052 Y111.52632
 X-3.00000
 Y113.91228
 X-0.54810
 X0.31971 Y116.29825
 X-3.00000
 Y118.68421
 X2.05808
G0 Z35.00000
 X163.00000 Y121.07018
G1 Z27.10000
 X162.46638
G0 Z35.00000
 X5.54171
G1 Z27.10000
 X-3.00000
 Y123.45614
 X163.00000
 Y125.84211
 X-3.00000
 Y128.22807
 X163.00000
 Y130.61404
 X-3.00000
 Y133.00000
 X163.00000
 Y120.38962
G0 Z35.00000
 Y91.68673
G1 Z27.10000
 Y-3.00000
 X160.62857
 Y90.04641
G0 Z35.00000
 Y122.02994
G1 Z27.10000
 Y133.00000
 X158.25714
 Y122.08687
G0 Z35.00000
 Y89.98956
G1 Z27.10000
 Y-3.00000
 X155.88571
 Y89.98956
G0 Z35.00000
 Y122.08687
G1 Z27.10000
 Y133.00000
 X153.51429
 Y122.08687
G0 Z35.00000
 Y89.98956
G1 Z27.10000
 Y-3.00000
 X151.14286
 Y89.98956
G0 Z35.00000
 Y122.08687
G1 Z27.10000
 Y133.00000
 X148.77143
 Y122.08687
G0 Z35.00000
 Y89.98956
G1 Z27.10000
 Y-3.00000
 X146.40000
 Y89.98956
G0 Z35.00000
 Y122.08687
G1 Z27.10000
 Y133.00000
 X144.02857
 Y122.08687
G0 Z35.00000
 Y89.98956
G1 Z27.10000
 Y-3.00000
 X141.65714
 Y89.98956
G0 Z35.00000
 Y122.08687
G1 Z27.10000
 Y133.00000
 X139.28571
 Y122.08687
G0 Z35.00000
 Y89.98956
G1 Z27.10000
 Y-3.00000
 X136.91429
 Y89.98956
G0 Z35.00000
 Y122.08687
G1 Z27.10000
 Y133.00000
 X134.54286
 Y122.08687
G0 Z35.00000
 Y89.98956
G1 Z27.10000
 Y-3.00000
 X132.17143
 Y89.98956
G0 Z35.00000
 Y122.08687
G1 Z27.10000
 Y133.00000
 X129.80000
 Y122.08687
G0 Z35.00000
 Y89.98956
G1 Z27.10000
 Y-3.00000
 X127.42857
 Y89.98956
G0 Z35.00000
 Y122.08687
G1 Z27.10000
 Y133.00000
 X125.05714
 Y122.08687
G0 Z35.00000
 Y89.98956
G1 Z27.10000
 Y-3.00000
 X122.68571
 Y89.98956
G0 Z35.00000
 Y122.08687
G1 Z27.10000
 Y133.00000
 X120.31429
 Y122.08687
G0 Z35.00000
 Y89.98956
G1 Z27.10000
 Y-3.00000
 X117.94286
 Y89.98956
G0 Z35.00000
 Y122.08687
G1 Z27.10000
 Y133.00000
 X115.57143
 Y122.08687
G0 Z35.00000
 Y89.98956
G1 Z27.10000
 Y-3.00000
 X113.20000
 Y89.98956
G0 Z35.00000
 Y122.08687
G1 Z27.10000
 Y133.00000
 X110.82857
 Y122.08687
G0 Z35.00000
 Y89.98956
G1 Z27.10000
 Y-3.00000
 X108.45714
 Y89.98956
G0 Z35.00000
 Y122.08687
G1 Z27.10000
 Y133.00000
 X106.08571
 Y122.08687
G0 Z35.00000
 Y89.98950
G1 Z27.10000
 Y-3.00000
 X103.71429
 Y89.98950
G0 Z35.00000
 Y122.08687
G1 Z27.10000
 Y133.00000
 X101.34286
 Y122.08687
G0 Z35.00000
 Y89.98950
G1 Z27.10000
 Y-3.00000
 X98.97143
 Y89.98950
G0 Z35.00000
 Y122.08687
G1 Z27.10000
 Y133.00000
 X96.60000
 Y122.08687
G0 Z35.00000
 Y89.98950
G1 Z27.10000
 Y-3.00000
 X94.22857
 Y89.98950
G0 Z35.00000
 Y122.08687
G1 Z27.10000
 Y133.00000
 X91.85714
 Y122.08687
G0 Z35.00000
 Y89.98950
G1 Z27.10000
 Y-3.00000
 X89.48571
 Y89.98950
G0 Z35.00000
 Y122.08687
G1 Z27.10000
 Y133.00000
 X87.11429
 Y122.08688
G0 Z35.00000
 Y89.98950
G1 Z27.10000
 Y-3.00000
 X84.74286
 Y89.98950
G0 Z35.00000
 Y122.08688
G1 Z27.10000
 Y133.00000
 X82.37143
 Y122.08688
G0 Z35.00000
 Y89.98950
G1 Z27.10000
 Y-3.00000
 X80.00000
 Y89.98950
G0 Z35.00000
 Y122.08688
G1 Z27.10000
 Y133.00000
 X77.62857
 Y122.08688
G0 Z35.00000
 Y89.98950
G1 Z27.10000
 Y-3.00000
 X75.25714
 Y89.98950
G0 Z35.00000
 Y122.08688
G1 Z27.10000
 Y133.00000
 X72.88571
 Y122.08688
G0 Z35.00000
 Y89.98950
G1 Z27.10000
 Y-3.00000
 X70.51429
 Y89.98950
G0 Z35.00000
 Y122.08688
G1 Z27.10000
 Y133.00000
 X68.14286
 Y122.08688
G0 Z35.00000
 Y89.98950
G1 Z27.10000
 Y-3.00000
 X65.77143
 Y89.98950
G0 Z35.00000
 Y122.08688
G1 Z27.10000
 Y133.00000
 X63.40000
 Y122.08688
G0 Z35.00000
 Y89.98950
G1 Z27.10000
 Y-3.00000
 X61.02857
 Y89.98951
G0 Z35.00000
 Y122.08688
G1 Z27.10000
 Y133.00000
 X58.65714
 Y122.08688
G0 Z35.00000
 Y89.98951
G1 Z27.10000
 Y-3.00000
 X56.28571
 Y89.98951
G0 Z35.00000
 Y122.08688
G1 Z27.10000
 Y133.00000
 X53.91429
 Y122.08688
G0 Z35.00000
 Y89.98951
G1 Z27.10000
 Y-3.00000
 X51.54286
 Y89.98951
G0 Z35.00000
 Y122.08688
G1 Z27.10000
 Y133.00000
 X49.17143
 Y122.08688
G0 Z35.00000
 Y89.98951
G1 Z27.10000
 Y-3.00000
 X46.80000
 Y89.98951
G0 Z35.00000
 Y122.08688
G1 Z27.10000
 Y133.00000
 X44.42857
 Y122.08688
G0 Z35.00000
 Y89.98951
G1 Z27.10000
 Y-3.00000
 X42.05714
 Y89.98951
G0 Z35.00000
 Y122.08688
G1 Z27.10000
 Y133.00000
 X39.68571
 Y122.08688
G0 Z35.00000
 Y89.98951
G1 Z27.10000
 Y-3.00000
 X37.31429
 Y89.98951
G0 Z35.00000
 Y122.08688
G1 Z27.10000
 Y133.00000
 X34.94286
 Y122.08688
G0 Z35.00000
 Y89.98951
G1 Z27.10000
 Y-3.00000
 X32.57143
 Y89.98951
G0 Z35.00000
 Y122.08688
G1 Z27.10000
 Y133.00000
 X30.20000
 Y122.08688
G0 Z35.00000
 Y89.98951
G1 Z27.10000
 Y-3.00000
 X27.82857
 Y89.98951
G0 Z35.00000
 Y122.08688
G1 Z27.10000
 Y133.00000
 X25.45714
 Y122.08688
G0 Z35.00000
 Y89.98951
G1 Z27.10000
 Y-3.00000
 X23.08571
 Y89.98951
G0 Z35.00000
 Y122.08688
G1 Z27.10000
 Y133.00000
 X20.71429
 Y122.08688
G0 Z35.00000
 Y89.98951
G1 Z27.10000
 Y-3.00000
 X18.34286
 Y89.98951
G0 Z35.00000
 Y122.08688
G1 Z27.10000
 Y133.00000
 X15.97143
 Y122.08688
G0 Z35.00000
 Y89.98951
G1 Z27.10000
 Y-3.00000
 X13.60000
 Y89.98951
G0 Z35.00000
 Y122.08688
G1 Z27.10000
 Y133.00000
 X11.22857
 Y122.08688
G0 Z35.00000
 Y89.98951
G1 Z27.10000
 Y-3.00000
 X8.85714
 Y90.18136
G0 Z35.00000
 Y121.93505
G1 Z27.10000
 Y133.00000
 X6.48571
 Y121.48442
G0 Z35.00000
 Y91.33080
G1 Z27.10000
 Y-3.00000
 X4.11429
 Y93.44153
G0 Z35.00000
 Y120.24014
G1 Z27.10000
 Y133.00000
 X1.74286
 Y118.34559
G0 Z35.00000
 Y97.21102
G1 Z27.10000
 Y-3.00000
 X-0.62857
 Y104.05560
G0 Z35.00000
 Y113.57267
G1 Z27.10000
 Y133.00000
 X-3.00000
 Y-3.00000
 Z26.11429
 X163.00000
 Y-0.61404
 X-3.00000
 Y1.77193
 X163.00000
 Y4.15789
 X-3.00000
 Y6.54386
 X163.00000
 Y8.92982
 X-3.00000
 Y11.31579
 X163.00000
 Y13.70175
 X-3.00000
 Y16.08772
 X163.00000
 Y18.47368
 X-3.00000
 Y20.85965
 X163.00000
 Y23.24561
 X-3.00000
 Y25.63158
 X163.00000
 Y28.01754
 X-3.00000
 Y30.40351
 X163.00000
 Y32.78947
 X-3.00000
 Y35.17544
 X163.00000
 Y37.56140
 X-3.00000
 Y39.94737
 X163.00000
 Y42.33333
 X-3.00000
 Y44.71930
 X163.00000
 Y47.10526
 X-3.00000
 Y49.49123
 X163.00000
 Y51.87719
 X-3.00000
 Y54.26316
 X163.00000
 Y56.64912
 X-3.00000
 Y59.03509
 X163.00000
 Y61.42105
 X-3.00000
 Y63.80702
 X163.00000
 Y66.19298
 X-3.00000
 Y68.57895
 X163.00000
 Y70.96491
 X-3.00000
 Y73.35088
 X163.00000
 Y75.73684
 X-3.00000
 Y78.12281
 X163.00000
 Y80.50877
 X-3.00000
 Y82.89474
 X163.00000
 Y85.28070
 X-3.00000
 Y87.66667
 X6.50038
G0 Z35.00000
 X162.77672
G1 Z26.11429
 X163.00000
G0 Z35.00000
 X3.96914 Y90.05263
G1 Z26.11429
 X-3.00000
 Y92.43860
 X2.45837
 X1.34608 Y94.82456
 X-3.00000
 Y97.21053
 X0.50602
 X-0.35372 Y99.59649
 X-3.00000
 Y101.98246
 X-0.90486
 X-1.42142 Y104.36842
 X-3.00000
 Y106.75439
 X-1.80851
 X-1.88871 Y109.14035
 X-3.00000
 Y111.52632
 X-1.81286
 X-1.28413 Y113.91228
 X-3.00000
 Y116.29825
 X-0.62801
 X1.09947 Y118.68421
 X-3.00000
 Y121.07018
 X3.76984
G0 Z35.00000
 X163.00000 Y123.45614
G1 Z26.11429
 X-3.00000
 Y125.84211
 X163.00000
 Y128.22807
 X-3.00000
 Y130.61404
 X163.00000
 Y133.00000
 X-3.00000
 Y-3.00000
 X-0.62857
 Y100.70664
G0 Z35.00000
 Y116.29710
G1 Z26.11429
 Y133.00000
 X1.74286
 Y119.37536
G0 Z35.00000
 Y93.68158
G1 Z26.11429
 Y-3.00000
 X4.11429
 Y89.81654
G0 Z35.00000
 Y121.26991
G1 Z26.11429
 Y133.00000
 X6.48571
 Y122.51564
G0 Z35.00000
 Y87.67425
G1 Z26.11429
 Y-3.00000
 X8.85714
 Y86.48920
G0 Z35.00000
 Y122.96654
G1 Z26.11429
 Y133.00000
 X11.22857
 Y123.11837
G0 Z35.00000
 Y86.29736
G1 Z26.11429
 Y-3.00000
 X13.60000
 Y86.29736
G0 Z35.00000
 Y123.11837
G1 Z26.11429
 Y133.00000
 X15.97143
 Y123.11837
G0 Z35.00000
 Y86.29736
G1 Z26.11429
 Y-3.00000
 X18.34286
 Y86.29736
G0 Z35.00000
 Y123.11837
G1 Z26.11429
 Y133.00000
 X20.71429
 Y123.11837
G0 Z35.00000
 Y86.29736
G1 Z26.11429
 Y-3.00000
 X23.08571
 Y86.29736
G0 Z35.00000
 Y123.11837
G1 Z26.11429
 Y133.00000
 X25.45714
 Y123.11837
G0 Z35.00000
 Y86.29736
G1 Z26.11429
 Y-3.00000
 X27.82857
 Y86.29736
G0 Z35.00000
 Y123.11837
G1 Z26.11429
 Y133.00000
 X30.20000
 Y123.11837
G0 Z35.00000
 Y86.29736
G1 Z26.11429
 Y-3.00000
 X32.57143
 Y86.29736
G0 Z35.00000
 Y123.11837
G1 Z26.11429
 Y133.00000
 X34.94286
 Y123.11837
G0 Z35.00000
 Y86.29736
G1 Z26.11429
 Y-3.00000
 X37.31429
 Y86.29736
G0 Z35.00000
 Y123.11837
G1 Z26.11429
 Y133.00000
 X39.68571
 Y123.11837
G0 Z35.00000
 Y86.29736
G1 Z26.11429
 Y-3.00000
 X42.05714
 Y86.29736
G0 Z35.00000
 Y123.11837
G1 Z26.11429
 Y133.00000
 X44.42857
 Y123.11837
G0 Z35.00000
 Y86.29736
G1 Z26.11429
 Y-3.00000
 X46.80000
 Y86.29736
G0 Z35.00000
 Y123.11837
G1 Z26.11429
 Y133.00000
 X49.17143
 Y123.11837
G0 Z35.00000
 Y86.29736
G1 Z26.11429
 Y-3.00000
 X51.54286
 Y86.29736
G0 Z35.00000
 Y123.11837
G1 Z26.11429
 Y133.00000
 X53.91429
 Y123.11837
G0 Z35.00000
 Y86.29736
G1 Z26.11429
 Y-3.00000
 X56.28571
 Y86.29736
G0 Z35.00000
 Y123.11836
G1 Z26.11429
 Y133.00000
 X58.65714
 Y123.11836
G0 Z35.00000
 Y86.29736
G1 Z26.11429
 Y-3.00000
 X61.02857
 Y86.29736
G0 Z35.00000
 Y123.11836
G1 Z26.11429
 Y133.00000
 X63.40000
 Y123.11836
G0 Z35.00000
 Y86.29736
G1 Z26.11429
 Y-3.00000
 X65.77143
 Y86.29736
G0 Z35.00000
 Y123.11836
G1 Z26.11429
 Y133.00000
 X68.14286
 Y123.11836
G0 Z35.00000
 Y86.29736
G1 Z26.11429
 Y-3.00000
 X70.51429
 Y86.29736
G0 Z35.00000
 Y123.11836
G1 Z26.11429
 Y133.00000
 X72.88571
 Y123.11836
G0 Z35.00000
 Y86.29736
G1 Z26.11429
 Y-3.00000
 X75.25714
 Y86.29736
G0 Z35.00000
 Y123.11836
G1 Z26.11429
 Y133.00000
 X77.62857
 Y123.11836
G0 Z35.00000
 Y86.29736
G1 Z26.11429
 Y-3.00000
 X80.00000
 Y86.29736
G0 Z35.00000
 Y123.11836
G1 Z26.11429
 Y133.00000
 X82.37143
 Y123.11836
G0 Z35.00000
 Y86.29736
G1 Z26.11429
 Y-3.00000
 X84.74286
 Y86.29736
G0 Z35.00000
 Y123.11836
G1 Z26.11429
 Y133.00000
 X87.11429
 Y123.11836
G0 Z35.00000
 Y86.29736
G1 Z26.11429
 Y-3.00000
 X89.48571
 Y86.29736
G0 Z35.00000
 Y123.11836
G1 Z26.11429
 Y133.00000
 X91.85714
 Y123.11836
G0 Z35.00000
 Y86.29736
G1 Z26.11429
 Y-3.00000
 X94.22857
 Y86.29736
G0 Z35.00000
 Y123.11836
G1 Z26.11429
 Y133.00000
 X96.60000
 Y123.11836
G0 Z35.00000
 Y86.29736
G1 Z26.11429
 Y-3.00000
 X98.97143
 Y86.29736
G0 Z35.00000
 Y123.11836
G1 Z26.11429
 Y133.00000
 X101.34286
 Y123.11836
G0 Z35.00000
 Y86.29736
G1 Z26.11429
 Y-3.00000
 X103.71429
 Y86.29736
G0 Z35.00000
 Y123.11836
G1 Z26.11429
 Y133.00000
 X106.08571
 Y123.11836
G0 Z35.00000
 Y86.29736
G1 Z26.11429
 Y-3.00000
 X108.45714
 Y86.29731
G0 Z35.00000
 Y123.11836
G1 Z26.11429
 Y133.00000
 X110.82857
 Y123.11836
G0 Z35.00000
 Y86.29731
G1 Z26.11429
 Y-3.00000
 X113.20000
 Y86.29731
G0 Z35.00000
 Y123.11836
G1 Z26.11429
 Y133.00000
 X115.57143
 Y123.11836
G0 Z35.00000
 Y86.29731
G1 Z26.11429
 Y-3.00000
 X117.94286
 Y86.29731
G0 Z35.00000
 Y123.11836
G1 Z26.11429
 Y133.00000
 X120.31429
 Y123.11836
G0 Z35.00000
 Y86.29731
G1 Z26.11429
 Y-3.00000
 X122.68571
 Y86.29731
G0 Z35.00000
 Y123.11836
G1 Z26.11429
 Y133.00000
 X125.05714
 Y123.11836
G0 Z35.00000
 Y86.29731
G1 Z26.11429
 Y-3.00000
 X127.42857
 Y86.29731
G0 Z35.00000
 Y123.11836
G1 Z26.11429
 Y133.00000
 X129.80000
 Y123.11836
G0 Z35.00000
 Y86.29731
G1 Z26.11429
 Y-3.00000
 X132.17143
 Y86.29731
G0 Z35.00000
 Y123.11836
G1 Z26.11429
 Y133.00000
 X134.54286
 Y123.11836
G0 Z35.00000
 Y86.29731
G1 Z26.11429
 Y-3.00000
 X136.91429
 Y86.29731
G0 Z35.00000
 Y123.11836
G1 Z26.11429
 Y133.00000
 X139.28571
 Y123.11836
G0 Z35.00000
 Y86.29731
G1 Z26.11429
 Y-3.00000
 X141.65714
 Y86.29731
G0 Z35.00000
 Y123.11836
G1 Z26.11429
 Y133.00000
 X144.02857
 Y123.11836
G0 Z35.00000
 Y86.29731
G1 Z26.11429
 Y-3.00000
 X146.40000
 Y86.29731
G0 Z35.00000
 Y123.11836
G1 Z26.11429
 Y133.00000
 X148.77143
 Y123.11836
G0 Z35.00000
 Y86.29731
G1 Z26.11429
 Y-3.00000
 X151.14286
 Y86.29731
G0 Z35.00000
 Y123.11836
G1 Z26.11429
 Y133.00000
 X153.51429
 Y123.11836
G0 Z35.00000
 Y86.29731
G1 Z26.11429
 Y-3.00000
 X155.88571
 Y86.29731
G0 Z35.00000
 Y123.11836
G1 Z26.11429
 Y133.00000
 X158.25714
 Y123.11836
G0 Z35.00000
 Y86.29731
G1 Z26.11429
 Y-3.00000
 X160.62857
 Y86.35426
G0 Z35.00000
 Y123.06142
G1 Z26.11429
 Y133.00000
 X163.00000
 Y121.42110
G0 Z35.00000
 Y87.99458
G1 Z26.11429
 Y-3.00000
 Z25.12857
 X-3.00000
 Y-0.61404
 X163.00000
 Y1.77193
 X-3.00000
 Y4.15789
 X163.00000
 Y6.54386
 X-3.00000
 Y8.92982
 X163.00000
 Y11.31579
 X-3.00000
 Y13.70175
 X163.00000
 Y16.08772
 X-3.00000
 Y18.47368
 X163.00000
 Y20.85965
 X-3.00000
 Y23.24561
 X163.00000
 Y25.63158
 X-3.00000
 Y28.01754
 X163.00000
 Y30.40351
 X-3.00000
 Y32.78947
 X163.00000
 Y35.17544
 X-3.00000
 Y37.56140
 X163.00000
 Y39.94737
 X-3.00000
 Y42.33333
 X163.00000
 Y44.71930
 X-3.00000
 Y47.10526
 X163.00000
 Y49.49123
 X-3.00000
 Y51.87719
 X163.00000
 Y54.26316
 X-3.00000
 Y56.64912
 X163.00000
 Y59.03509
 X-3.00000
 Y61.42105
 X163.00000
 Y63.80702
 X-3.00000
 Y66.19298
 X163.00000
 Y68.57895
 X-3.00000
 Y70.96491
 X163.00000
 Y73.35088
 X-3.00000
 Y75.73684
 X163.00000
 Y78.12281
 X-3.00000
 Y80.50877
 X163.00000
 Y82.89474
 X161.70300
G0 Z35.00000
 X8.29626
G1 Z25.12857
 X-3.00000
 Y85.28070
 X4.58354
 X3.13441 Y87.66667
 X-3.00000
 Y90.05263
 X1.73568
 X0.92813 Y92.43860
 X-3.00000
 Y94.82456
 X0.10705
 X-0.61422 Y97.21053
 X-3.00000
 Y99.59649
 X-1.11722
 X-1.63044 Y101.98246
 X-3.00000
 Y104.36842
 X-2.13602
 X-2.37667 Y106.75439
 X-3.00000
 Y109.14035
 X-2.42196
 X-2.36358 Y111.52632
 X-3.00000
 Y113.91228
 X-2.01911
 X-1.19586 Y116.29825
 X-3.00000
 Y118.68421
 X0.16373
 X2.36195 Y121.07018
 X-3.00000
 Y123.45614
 X6.20276
G0 Z35.00000
 X162.09152
G1 Z25.12857
 X163.00000
 Y125.84211
 X-3.00000
 Y128.22807
 X163.00000
 Y130.61404
 X-3.00000
 Y133.00000
 X163.00000
 Y122.45258
G0 Z35.00000
 Y84.14970
G1 Z25.12857
 Y-3.00000
 X160.62857
 Y82.50939
G0 Z35.00000
 Y124.09289
G1 Z25.12857
 Y133.00000
 X158.25714
 Y124.14984
G0 Z35.00000
 Y82.45250
G1 Z25.12857
 Y-3.00000
 X155.88571
 Y82.45250
G0 Z35.00000
 Y124.14984
G1 Z25.12857
 Y133.00000
 X153.51429
 Y124.14984
G0 Z35.00000
 Y82.45250
G1 Z25.12857
 Y-3.00000
 X151.14286
 Y82.45250
G0 Z35.00000
 Y124.14984
G1 Z25.12857
 Y133.00000
 X148.77143
 Y124.14984
G0 Z35.00000
 Y82.45250
G1 Z25.12857
 Y-3.00000
 X146.40000
 Y82.45250
G0 Z35.00000
 Y124.14984
G1 Z25.12857
 Y133.00000
 X144.02857
 Y124.14984
G0 Z35.00000
 Y82.45250
G1 Z25.12857
 Y-3.00000
 X141.65714
 Y82.45250
G0 Z35.00000
 Y124.14984
G1 Z25.12857
 Y133.00000
 X139.28571
 Y124.14984
G0 Z35.00000
 Y82.45250
G1 Z25.12857
 Y-3.00000
 X136.91429
 Y82.45250
G0 Z35.00000
 Y124.14984
G1 Z25.12857
 Y133.00000
 X134.54286
 Y124.14984
G0 Z35.00000
 Y82.45250
G1 Z25.12857
 Y-3.00000
 X132.17143
 Y82.45250
G0 Z35.00000
 Y124.14984
G1 Z25.12857
 Y133.00000
 X129.80000
 Y124.14984
G0 Z35.00000
 Y82.45250
G1 Z25.12857
 Y-3.00000
 X127.42857
 Y82.45250
G0 Z35.00000
 Y124.14984
G1 Z25.12857
 Y133.00000
 X125.05714
 Y124.14984
G0 Z35.00000
 Y82.45250
G1 Z25.12857
 Y-3.00000
 X122.68571
 Y82.45250
G0 Z35.00000
 Y124.14984
G1 Z25.12857
 Y133.00000
 X120.31429
 Y124.14984
G0 Z35.00000
 Y82.45250
G1 Z25.12857
 Y-3.00000
 X117.94286
 Y82.45250
G0 Z35.00000
 Y124.14984
G1 Z25.12857
 Y133.00000
 X115.57143
 Y124.14984
G0 Z35.00000
 Y82.45250
G1 Z25.12857
 Y-3.00000
 X113.20000
 Y82.45248
G0 Z35.00000
 Y124.14984
G1 Z25.12857
 Y133.00000
 X110.82857
 Y124.14984
G0 Z35.00000
 Y82.45248
G1 Z25.12857
 Y-3.00000
 X108.45714
 Y82.45248
G0 Z35.00000
 Y124.14984
G1 Z25.12857
 Y133.00000
 X106.08571
 Y124.14984
G0 Z35.00000
 Y82.45248
G1 Z25.12857
 Y-3.00000
 X103.71429
 Y82.45248
G0 Z35.00000
 Y124.14984
G1 Z25.12857
 Y133.00000
 X101.34286
 Y124.14984
G0 Z35.00000
 Y82.45248
G1 Z25.12857
 Y-3.00000
 X98.97143
 Y82.45248
G0 Z35.00000
 Y124.14984
G1 Z25.12857
 Y133.00000
 X96.60000
 Y124.14984
G0 Z35.00000
 Y82.45248
G1 Z25.12857
 Y-3.00000
 X94.22857
 Y82.45248
G0 Z35.00000
 Y124.14984
G1 Z25.12857
 Y133.00000
 X91.85714
 Y124.14984
G0 Z35.00000
 Y82.45248
G1 Z25.12857
 Y-3.00000
 X89.48571
 Y82.45248
G0 Z35.00000
 Y124.14984
G1 Z25.12857
 Y133.00000
 X87.11429
 Y124.14984
G0 Z35.00000
 Y82.45248
G1 Z25.12857
 Y-3.00000
 X84.74286
 Y82.45248
G0 Z35.00000
 Y124.14984
G1 Z25.12857
 Y133.00000
 X82.37143
 Y124.14984
G0 Z35.00000
 Y82.45248
G1 Z25.12857
 Y-3.00000
 X80.00000
 Y82.45248
G0 Z35.00000
 Y124.14984
G1 Z25.12857
 Y133.00000
 X77.62857
 Y124.14984
G0 Z35.00000
 Y82.45248
G1 Z25.12857
 Y-3.00000
 X75.25714
 Y82.45248
G0 Z35.00000
 Y124.14984
G1 Z25.12857
 Y133.00000
 X72.88571
 Y124.14984
G0 Z35.00000
 Y82.45248
G1 Z25.12857
 Y-3.00000
 X70.51429
 Y82.45248
G0 Z35.00000
 Y124.14984
G1 Z25.12857
 Y133.00000
 X68.14286
 Y124.14984
G0 Z35.00000
 Y82.45248
G1 Z25.12857
 Y-3.00000
 X65.77143
 Y82.45248
G0 Z35.00000
 Y124.14984
G1 Z25.12857
 Y133.00000
 X63.40000
 Y124.14984
G0 Z35.00000
 Y82.45248
G1 Z25.12857
 Y-3.00000
 X61.02857
 Y82.45248
G0 Z35.00000
 Y124.14984
G1 Z25.12857
 Y133.00000
 X58.65714
 Y124.14984
G0 Z35.00000
 Y82.45248
G1 Z25.12857
 Y-3.00000
 X56.28571
 Y82.45248
G0 Z35.00000
 Y124.14984
G1 Z25.12857
 Y133.00000
 X53.91429
 Y124.14984
G0 Z35.00000
 Y82.45248
G1 Z25.12857
 Y-3.00000
 X51.54286
 Y82.45248
G0 Z35.00000
 Y124.14984
G1 Z25.12857
 Y133.00000
 X49.17143
 Y124.14984
G0 Z35.00000
 Y82.45248
G1 Z25.12857
 Y-3.00000
 X46.80000
 Y82.45248
G0 Z35.00000
 Y124.14984
G1 Z25.12857
 Y133.00000
 X44.42857
 Y124.14984
G0 Z35.00000
 Y82.45248
G1 Z25.12857
 Y-3.00000
 X42.05714
 Y82.45248
G0 Z35.00000
 Y124.14984
G1 Z25.12857
 Y133.00000
 X39.68571
 Y124.14984
G0 Z35.00000
 Y82.45248
G1 Z25.12857
 Y-3.00000
 X37.31429
 Y82.45248
G0 Z35.00000
 Y124.14984
G1 Z25.12857
 Y133.00000
 X34.94286
 Y124.14984
G0 Z35.00000
 Y82.45248
G1 Z25.12857
 Y-3.00000
 X32.57143
 Y82.45248
G0 Z35.00000
 Y124.14984
G1 Z25.12857
 Y133.00000
 X30.20000
 Y124.14984
G0 Z35.00000
 Y82.45248
G1 Z25.12857
 Y-3.00000
 X27.82857
 Y82.45248
G0 Z35.00000
 Y124.14984
G1 Z25.12857
 Y133.00000
 X25.45714
 Y124.14984
G0 Z35.00000
 Y82.45248
G1 Z25.12857
 Y-3.00000
 X23.08571
 Y82.45248
G0 Z35.00000
 Y124.14984
G1 Z25.12857
 Y133.00000
 X20.71429
 Y124.14986
G0 Z35.00000
 Y82.45248
G1 Z25.12857
 Y-3.00000
 X18.34286
 Y82.45248
G0 Z35.00000
 Y124.14986
G1 Z25.12857
 Y133.00000
 X15.97143
 Y124.14986
G0 Z35.00000
 Y82.45248
G1 Z25.12857
 Y-3.00000
 X13.60000
 Y82.45248
G0 Z35.00000
 Y124.14986
G1 Z25.12857
 Y133.00000
 X11.22857
 Y124.14986
G0 Z35.00000
 Y82.45248
G1 Z25.12857
 Y-3.00000
 X8.85714
 Y82.64433
G0 Z35.00000
 Y123.99803
G1 Z25.12857
 Y133.00000
 X6.48571
 Y123.54686
G0 Z35.00000
 Y83.86706
G1 Z25.12857
 Y-3.00000
 X4.11429
 Y86.04232
G0 Z35.00000
 Y122.30084
G1 Z25.12857
 Y133.00000
 X1.74286
 Y120.40513
G0 Z35.00000
 Y90.03424
G1 Z25.12857
 Y-3.00000
 X-0.62857
 Y97.27915
G0 Z35.00000
 Y117.33153
G1 Z25.12857
 Y133.00000
 X-3.00000
 Y-3.00000
 Z24.14286
 X163.00000
 Y-0.61404
 X-3.00000
 Y1.77193
 X163.00000
 Y4.15789
 X-3.00000
 Y6.54386
 X163.00000
 Y8.92982
 X-3.00000
 Y11.31579
 X163.00000
 Y13.70175
 X-3.00000
 Y16.08772
 X163.00000
 Y18.47368
 X-3.00000
 Y20.85965
 X163.00000
 Y23.24561
 X-3.00000
 Y25.63158
 X163.00000
 Y28.01754
 X-3.00000
 Y30.40351
 X163.00000
 Y32.78947
 X-3.00000
 Y35.17544
 X163.00000
 Y37.56140
 X-3.00000
 Y39.94737
 X163.00000
 Y42.33333
 X-3.00000
 Y44.71930
 X163.00000
 Y47.10526
 X-3.00000
 Y49.49123
 X163.00000
 Y51.87719
 X-3.00000
 Y54.26316
 X163.00000
 Y56.64912
 X-3.00000
 Y59.03509
 X163.00000
 Y61.42105
 X-3.00000
 Y63.80702
 X163.00000
 Y66.19298
 X-3.00000
 Y68.57895
 X163.00000
 Y70.96491
 X-3.00000
 Y73.35088
 X163.00000
 Y75.73684
 X-3.00000
 Y78.12281
 X163.00000
G0 Z35.00000
 X5.41363 Y80.50877
G1 Z24.14286
 X-3.00000
 Y82.89474
 X3.66235
 X2.25785 Y85.28070
 X-3.00000
 Y87.66667
 X1.27860
 X0.48906 Y90.05263
 X-3.00000
 Y92.43860
 X-0.31090
 X-0.85383 Y94.82456
 X-3.00000
 Y97.21053
 X-1.34200
 X-1.84386 Y99.59649
 X-3.00000
 Y101.98246
 X-2.24589
 X-2.52707 Y104.36842
 X-3.00000
 Y106.75439
 X-2.77870
 X-2.83026 Y109.14035
 X-3.00000
 Y111.52632
 X-2.76023
 X-2.45804 Y113.91228
 X-3.00000
 Y116.29825
 X-1.75754
 X-0.44984 Y118.68421
 X-3.00000
 Y121.07018
 X1.40631
G0 Z35.00000
 X163.00000 Y123.45614
G1 Z24.14286
 X162.73913
G0 Z35.00000
 X4.53168
G1 Z24.14286
 X-3.00000
 Y125.84211
 X163.00000
 Y128.22807
 X-3.00000
 Y130.61404
 X163.00000
 Y133.00000
 X-3.00000
 Y-3.00000
 X-0.62857
 Y93.71284
G0 Z35.00000
 Y118.35867
G1 Z24.14286
 Y133.00000
 X1.74286
 Y121.43279
G0 Z35.00000
 Y86.23826
G1 Z24.14286
 Y-3.00000
 X4.11429
 Y82.10037
G0 Z35.00000
 Y123.26954
G1 Z24.14286
 Y133.00000
 X6.48571
 Y124.28548
G0 Z35.00000
 Y79.89057
G1 Z24.14286
 Y-3.00000
 X8.85714
 Y78.62844
G0 Z35.00000
 Y124.65044
G1 Z24.14286
 Y133.00000
 X11.22857
 Y124.77739
G0 Z35.00000
 Y78.43659
G1 Z24.14286
 Y-3.00000
 X13.60000
 Y78.43659
G0 Z35.00000
 Y124.77739
G1 Z24.14286
 Y133.00000
 X15.97143
 Y124.77739
G0 Z35.00000
 Y78.43659
G1 Z24.14286
 Y-3.00000
 X18.34286
 Y78.43659
G0 Z35.00000
 Y124.77739
G1 Z24.14286
 Y133.00000
 X20.71429
 Y124.77739
G0 Z35.00000
 Y78.43659
G1 Z24.14286
 Y-3.00000
 X23.08571
 Y78.43659
G0 Z35.00000
 Y124.77739
G1 Z24.14286
 Y133.00000
 X25.45714
 Y124.77739
G0 Z35.00000
 Y78.43659
G1 Z24.14286
 Y-3.00000
 X27.82857
 Y78.43659
G0 Z35.00000
 Y124.77739
G1 Z24.14286
 Y133.00000
 X30.20000
 Y124.77739
G0 Z35.00000
 Y78.43659
G1 Z24.14286
 Y-3.00000
 X32.57143
 Y78.43659
G0 Z35.00000
 Y124.77739
G1 Z24.14286
 Y133.00000
 X34.94286
 Y124.77739
G0 Z35.00000
 Y78.43659
G1 Z24.14286
 Y-3.00000
 X37.31429
 Y78.43659
G0 Z35.00000
 Y124.77739
G1 Z24.14286
 Y133.00000
 X39.68571
 Y124.77739
G0 Z35.00000
 Y78.43659
G1 Z24.14286
 Y-3.00000
 X42.05714
 Y78.43659
G0 Z35.00000
 Y124.77739
G1 Z24.14286
 Y133.00000
 X44.42857
 Y124.77739
G0 Z35.00000
 Y78.43659
G1 Z24.14286
 Y-3.00000
 X46.80000
 Y78.43659
G0 Z35.00000
 Y124.77739
G1 Z24.14286
 Y133.00000
 X49.17143
 Y124.77739
G0 Z35.00000
 Y78.43659
G1 Z24.14286
 Y-3.00000
 X51.54286
 Y78.43659
G0 Z35.00000
 Y124.77739
G1 Z24.14286
 Y133.00000
 X53.91429
 Y124.77739
G0 Z35.00000
 Y78.43659
G1 Z24.14286
 Y-3.00000
 X56.28571
 Y78.43659
G0 Z35.00000
 Y124.77739
G1 Z24.14286
 Y133.00000
 X58.65714
 Y124.77739
G0 Z35.00000
 Y78.43659
G1 Z24.14286
 Y-3.00000
 X61.02857
 Y78.43659
G0 Z35.00000
 Y124.77739
G1 Z24.14286
 Y133.00000
 X63.40000
 Y124.77739
G0 Z35.00000
 Y78.43659
G1 Z24.14286
 Y-3.00000
 X65.77143
 Y78.43659
G0 Z35.00000
 Y124.77739
G1 Z24.14286
 Y133.00000
 X68.14286
 Y124.77739
G0 Z35.00000
 Y78.43659
G1 Z24.14286
 Y-3.00000
 X70.51429
 Y78.43659
G0 Z35.00000
 Y124.77739
G1 Z24.14286
 Y133.00000
 X72.88571
 Y124.77739
G0 Z35.00000
 Y78.43659
G1 Z24.14286
 Y-3.00000
 X75.25714
 Y78.43659
G0 Z35.00000
 Y124.77739
G1 Z24.14286
 Y133.00000
 X77.62857
 Y124.77739
G0 Z35.00000
 Y78.43659
G1 Z24.14286
 Y-3.00000
 X80.00000
 Y78.43659
G0 Z35.00000
 Y124.77739
G1 Z24.14286
 Y133.00000
 X82.37143
 Y124.77739
G0 Z35.00000
 Y78.43659
G1 Z24.14286
 Y-3.00000
 X84.74286
 Y78.43659
G0 Z35.00000
 Y124.77739
G1 Z24.14286
 Y133.00000
 X87.11429
 Y124.77739
G0 Z35.00000
 Y78.43659
G1 Z24.14286
 Y-3.00000
 X89.48571
 Y78.43659
G0 Z35.00000
 Y124.77739
G1 Z24.14286
 Y133.00000
 X91.85714
 Y124.77739
G0 Z35.00000
 Y78.43658
G1 Z24.14286
 Y-3.00000
 X94.22857
 Y78.43658
G0 Z35.00000
 Y124.77739
G1 Z24.14286
 Y133.00000
 X96.60000
 Y124.77739
G0 Z35.00000
 Y78.43658
G1 Z24.14286
 Y-3.00000
 X98.97143
 Y78.43658
G0 Z35.00000
 Y124.77739
G1 Z24.14286
 Y133.00000
 X101.34286
 Y124.77739
G0 Z35.00000
 Y78.43658
G1 Z24.14286
 Y-3.00000
 X103.71429
 Y78.43658
G0 Z35.00000
 Y124.77739
G1 Z24.14286
 Y133.00000
 X106.08571
 Y124.77739
G0 Z35.00000
 Y78.43658
G1 Z24.14286
 Y-3.00000
 X108.45714
 Y78.43658
G0 Z35.00000
 Y124.77739
G1 Z24.14286
 Y133.00000
 X110.82857
 Y124.77739
G0 Z35.00000
 Y78.43658
G1 Z24.14286
 Y-3.00000
 X113.20000
 Y78.43658
G0 Z35.00000
 Y124.77739
G1 Z24.14286
 Y133.00000
 X115.57143
 Y124.77739
G0 Z35.00000
 Y78.43658
G1 Z24.14286
 Y-3.00000
 X117.94286
 Y78.43658
G0 Z35.00000
 Y124.77739
G1 Z24.14286
 Y133.00000
 X120.31429
 Y124.77739
G0 Z35.00000
 Y78.43658
G1 Z24.14286
 Y-3.00000
 X122.68571
 Y78.43658
G0 Z35.00000
 Y124.77739
G1 Z24.14286
 Y133.00000
 X125.05714
 Y124.77739
G0 Z35.00000
 Y78.43658
G1 Z24.14286
 Y-3.00000
 X127.42857
 Y78.43656
G0 Z35.00000
 Y124.77739
G1 Z24.14286
 Y133.00000
 X129.80000
 Y124.77739
G0 Z35.00000
 Y78.43656
G1 Z24.14286
 Y-3.00000
 X132.17143
 Y78.43656
G0 Z35.00000
 Y124.77739
G1 Z24.14286
 Y133.00000
 X134.54286
 Y124.77739
G0 Z35.00000
 Y78.43656
G1 Z24.14286
 Y-3.00000
 X136.91429
 Y78.43656
G0 Z35.00000
 Y124.77739
G1 Z24.14286
 Y133.00000
 X139.28571
 Y124.77739
G0 Z35.00000
 Y78.43656
G1 Z24.14286
 Y-3.00000
 X141.65714
 Y78.43656
G0 Z35.00000
 Y124.77743
G1 Z24.14286
 Y133.00000
 X144.02857
 Y124.77743
G0 Z35.00000
 Y78.43656
G1 Z24.14286
 Y-3.00000
 X146.40000
 Y78.43656
G0 Z35.00000
 Y124.77743
G1 Z24.14286
 Y133.00000
 X148.77143
 Y124.77743
G0 Z35.00000
 Y78.43656
G1 Z24.14286
 Y-3.00000
 X151.14286
 Y78.43656
G0 Z35.00000
 Y124.77743
G1 Z24.14286
 Y133.00000
 X153.51429
 Y124.77743
G0 Z35.00000
 Y78.43656
G1 Z24.14286
 Y-3.00000
 X155.88571
 Y78.43656
G0 Z35.00000
 Y124.77743
G1 Z24.14286
 Y133.00000
 X158.25714
 Y124.77743
G0 Z35.00000
 Y78.43656
G1 Z24.14286
 Y-3.00000
 X160.62857
 Y78.49350
G0 Z35.00000
 Y124.72043
G1 Z24.14286
 Y133.00000
 X163.00000
 Y123.08011
G0 Z35.00000
 Y80.13382
G1 Z24.14286
 Y-3.00000
 Z23.15714
 X-3.00000
 Y-0.61404
 X163.00000
 Y1.77193
 X-3.00000
 Y4.15789
 X163.00000
 Y6.54386
 X-3.00000
 Y8.92982
 X163.00000
 Y11.31579
 X-3.00000
 Y13.70175
 X163.00000
 Y16.08772
 X-3.00000
 Y18.47368
 X163.00000
 Y20.85965
 X-3.00000
 Y23.24561
 X163.00000
 Y25.63158
 X-3.00000
 Y28.01754
 X163.00000
 Y30.40351
 X-3.00000
 Y32.78947
 X163.00000
 Y35.17544
 X-3.00000
 Y37.56140
 X163.00000
 Y39.94737
 X-3.00000
 Y42.33333
 X163.00000
 Y44.71930
 X-3.00000
 Y47.10526
 X163.00000
 Y49.49123
 X-3.00000
 Y51.87719
 X163.00000
 Y54.26316
 X-3.00000
 Y56.64912
 X163.00000
 Y59.03509
 X-3.00000
 Y61.42105
 X163.00000
 Y63.80702
 X-3.00000
 Y66.19298
 X163.00000
 Y68.57895
 X-3.00000
 Y70.96491
 X163.00000
 Y73.35088
 X-3.00000
 Y75.73684
 X6.46330
G0 Z35.00000
 X162.87833
G1 Z23.15714
 X163.00000
G0 Z35.00000
 X4.03090 Y78.12281
G1 Z23.15714
 X-3.00000
 Y80.50877
 X2.70720
 X1.54189 Y82.89474
 X-3.00000
 Y85.28070
 X0.79547
 X0.03318 Y87.66667
 X-3.00000
 Y90.05263
 X-0.63399
 X-1.10012 Y92.43860
 X-3.00000
 Y94.82456
 X-1.58336
 X-2.07027 Y97.21053
 X-3.00000
 Y99.59649
 X-2.36281
 X-2.63770 Y101.98246
 X-3.00000
 Y104.36842
 X-2.91813
G0 Z35.00000
 X-3.00000 Y113.91228
G1 Z23.15714
 X-2.83507
 X-2.13102 Y116.29825
 X-3.00000
 Y118.68421
 X-1.01133
 X0.50083 Y121.07018
 X-3.00000
 Y123.45614
 X3.56480
G0 Z35.00000
 X163.00000 Y125.84211
G1 Z23.15714
 X-3.00000
 Y128.22807
 X163.00000
 Y130.61404
 X-3.00000
 Y133.00000
 X163.00000
 Y123.51404
G0 Z35.00000
 Y75.92536
G1 Z23.15714
 Y-3.00000
 X160.62857
 Y74.28504
G0 Z35.00000
 Y125.15436
G1 Z23.15714
 Y133.00000
 X158.25714
 Y125.21132
G0 Z35.00000
 Y74.22819
G1 Z23.15714
 Y-3.00000
 X155.88571
 Y74.22819
G0 Z35.00000
 Y125.21132
G1 Z23.15714
 Y133.00000
 X153.51429
 Y125.21132
G0 Z35.00000
 Y74.22819
G1 Z23.15714
 Y-3.00000
 X151.14286
 Y74.22819
G0 Z35.00000
 Y125.21132
G1 Z23.15714
 Y133.00000
 X148.77143
 Y125.21132
G0 Z35.00000
 Y74.22819
G1 Z23.15714
 Y-3.00000
 X146.40000
 Y74.22819
G0 Z35.00000
 Y125.21132
G1 Z23.15714
 Y133.00000
 X144.02857
 Y125.21132
G0 Z35.00000
 Y74.22819
G1 Z23.15714
 Y-3.00000
 X141.65714
 Y74.22819
G0 Z35.00000
 Y125.21132
G1 Z23.15714
 Y133.00000
 X139.28571
 Y125.21132
G0 Z35.00000
 Y74.22819
G1 Z23.15714
 Y-3.00000
 X136.91429
 Y74.22819
G0 Z35.00000
 Y125.21132
G1 Z23.15714
 Y133.00000
 X134.54286
 Y125.21132
G0 Z35.00000
 Y74.22819
G1 Z23.15714
 Y-3.00000
 X132.17143
 Y74.22819
G0 Z35.00000
 Y125.21132
G1 Z23.15714
 Y133.00000
 X129.80000
 Y125.21132
G0 Z35.00000
 Y74.22819
G1 Z23.15714
 Y-3.00000
 X127.42857
 Y74.22819
G0 Z35.00000
 Y125.21132
G1 Z23.15714
 Y133.00000
 X125.05714
 Y125.21132
G0 Z35.00000
 Y74.22819
G1 Z23.15714
 Y-3.00000
 X122.68571
 Y74.22819
G0 Z35.00000
 Y125.21132
G1 Z23.15714
 Y133.00000
 X120.31429
 Y125.21132
G0 Z35.00000
 Y74.22819
G1 Z23.15714
 Y-3.00000
 X117.94286
 Y74.22819
G0 Z35.00000
 Y125.21132
G1 Z23.15714
 Y133.00000
 X115.57143
 Y125.21132
G0 Z35.00000
 Y74.22819
G1 Z23.15714
 Y-3.00000
 X113.20000
 Y74.22819
G0 Z35.00000
 Y125.21132
G1 Z23.15714
 Y133.00000
 X110.82857
 Y125.21132
G0 Z35.00000
 Y74.22819
G1 Z23.15714
 Y-3.00000
 X108.45714
 Y74.22819
G0 Z35.00000
 Y125.21128
G1 Z23.15714
 Y133.00000
 X106.08571
 Y125.21128
G0 Z35.00000
 Y74.22819
G1 Z23.15714
 Y-3.00000
 X103.71429
 Y74.22819
G0 Z35.00000
 Y125.21128
G1 Z23.15714
 Y133.00000
 X101.34286
 Y125.21128
G0 Z35.00000
 Y74.22819
G1 Z23.15714
 Y-3.00000
 X98.97143
 Y74.22819
G0 Z35.00000
 Y125.21128
G1 Z23.15714
 Y133.00000
 X96.60000
 Y125.21128
G0 Z35.00000
 Y74.22819
G1 Z23.15714
 Y-3.00000
 X94.22857
 Y74.22819
G0 Z35.00000
 Y125.21128
G1 Z23.15714
 Y133.00000
 X91.85714
 Y125.21128
G0 Z35.00000
 Y74.22819
G1 Z23.15714
 Y-3.00000
 X89.48571
 Y74.22819
G0 Z35.00000
 Y125.21128
G1 Z23.15714
 Y133.00000
 X87.11429
 Y125.21128
G0 Z35.00000
 Y74.22819
G1 Z23.15714
 Y-3.00000
 X84.74286
 Y74.22819
G0 Z35.00000
 Y125.21128
G1 Z23.15714
 Y133.00000
 X82.37143
 Y125.21128
G0 Z35.00000
 Y74.22819
G1 Z23.15714
 Y-3.00000
 X80.00000
 Y74.22819
G0 Z35.00000
 Y125.21128
G1 Z23.15714
 Y133.00000
 X77.62857
 Y125.21128
G0 Z35.00000
 Y74.22819
G1 Z23.15714
 Y-3.00000
 X75.25714
 Y74.22819
G0 Z35.00000
 Y125.21128
G1 Z23.15714
 Y133.00000
 X72.88571
 Y125.21128
G0 Z35.00000
 Y74.22819
G1 Z23.15714
 Y-3.00000
 X70.51429
 Y74.22819
G0 Z35.00000
 Y125.21128
G1 Z23.15714
 Y133.00000
 X68.14286
 Y125.21128
G0 Z35.00000
 Y74.22819
G1 Z23.15714
 Y-3.00000
 X65.77143
 Y74.22819
G0 Z35.00000
 Y125.21128
G1 Z23.15714
 Y133.00000
 X63.40000
 Y125.21128
G0 Z35.00000
 Y74.22819
G1 Z23.15714
 Y-3.00000
 X61.02857
 Y74.22819
G0 Z35.00000
 Y125.21128
G1 Z23.15714
 Y133.00000
 X58.65714
 Y125.21128
G0 Z35.00000
 Y74.22819
G1 Z23.15714
 Y-3.00000
 X56.28571
 Y74.22819
G0 Z35.00000
 Y125.21128
G1 Z23.15714
 Y133.00000
 X53.91429
 Y125.21128
G0 Z35.00000
 Y74.22819
G1 Z23.15714
 Y-3.00000
 X51.54286
 Y74.22819
G0 Z35.00000
 Y125.21128
G1 Z23.15714
 Y133.00000
 X49.17143
 Y125.21128
G0 Z35.00000
 Y74.22819
G1 Z23.15714
 Y-3.00000
 X46.80000
 Y74.22819
G0 Z35.00000
 Y125.21128
G1 Z23.15714
 Y133.00000
 X44.42857
 Y125.21128
G0 Z35.00000
 Y74.22819
G1 Z23.15714
 Y-3.00000
 X42.05714
 Y74.22819
G0 Z35.00000
 Y125.21128
G1 Z23.15714
 Y133.00000
 X39.68571
 Y125.21128
G0 Z35.00000
 Y74.22819
G1 Z23.15714
 Y-3.00000
 X37.31429
 Y74.22819
G0 Z35.00000
 Y125.21128
G1 Z23.15714
 Y133.00000
 X34.94286
 Y125.21128
G0 Z35.00000
 Y74.22819
G1 Z23.15714
 Y-3.00000
 X32.57143
 Y74.22819
G0 Z35.00000
 Y125.21128
G1 Z23.15714
 Y133.00000
 X30.20000
 Y125.21128
G0 Z35.00000
 Y74.22819
G1 Z23.15714
 Y-3.00000
 X27.82857
 Y74.22819
G0 Z35.00000
 Y125.21128
G1 Z23.15714
 Y133.00000
 X25.45714
 Y125.21128
G0 Z35.00000
 Y74.22819
G1 Z23.15714
 Y-3.00000
 X23.08571
 Y74.22819
G0 Z35.00000
 Y125.21128
G1 Z23.15714
 Y133.00000
 X20.71429
 Y125.21128
G0 Z35.00000
 Y74.22826
G1 Z23.15714
 Y-3.00000
 X18.34286
 Y74.22826
G0 Z35.00000
 Y125.21128
G1 Z23.15714
 Y133.00000
 X15.97143
 Y125.21128
G0 Z35.00000
 Y74.22826
G1 Z23.15714
 Y-3.00000
 X13.60000
 Y74.22826
G0 Z35.00000
 Y125.21128
G1 Z23.15714
 Y133.00000
 X11.22857
 Y125.21128
G0 Z35.00000
 Y74.22826
G1 Z23.15714
 Y-3.00000
 X8.85714
 Y74.41998
G0 Z35.00000
 Y125.08433
G1 Z23.15714
 Y133.00000
 X6.48571
 Y124.71900
G0 Z35.00000
 Y75.72380
G1 Z23.15714
 Y-3.00000
 X4.11429
 Y77.97013
G0 Z35.00000
 Y123.70311
G1 Z23.15714
 Y133.00000
 X1.74286
 Y122.11148
G0 Z35.00000
 Y82.27549
G1 Z23.15714
 Y-3.00000
 X-0.62857
 Y90.02489
G0 Z35.00000
 Y119.38328
G1 Z23.15714
 Y133.00000
 X-3.00000
 Y112.77584
G0 Z35.00000
 Y105.05584
G1 Z23.15714
 Y-3.00000
 Z22.17143
 X163.00000
 Y-0.61404
 X-3.00000
 Y1.77193
 X163.00000
 Y4.15789
 X-3.00000
 Y6.54386
 X163.00000
 Y8.92982
 X-3.00000
 Y11.31579
 X163.00000
 Y13.70175
 X-3.00000
 Y16.08772
 X163.00000
 Y18.47368
 X-3.00000
 Y20.85965
 X163.00000
 Y23.24561
 X-3.00000
 Y25.63158
 X163.00000
 Y28.01754
 X-3.00000
 Y30.40351
 X163.00000
 Y32.78947
 X-3.00000
 Y35.17544
 X163.00000
 Y37.56140
 X-3.00000
 Y39.94737
 X163.00000
 Y42.33333
 X-3.00000
 Y44.71930
 X163.00000
 Y47.10526
 X-3.00000
 Y49.49123
 X163.00000
 Y51.87719
 X-3.00000
 Y54.26316
 X163.00000
 Y56.64912
 X-3.00000
 Y59.03509
 X163.00000
 Y61.42105
 X-3.00000
 Y63.80702
 X163.00000
 Y66.19298
 X-3.00000
 Y68.57895
 X163.00000
 Y70.96491
 X162.62372
G0 Z35.00000
 X7.10669
G1 Z22.17143
 X-3.00000
 Y73.35088
 X4.25882
 X3.01011 Y75.73684
 X-3.00000
 Y78.12281
 X1.74373
 X1.02595 Y80.50877
 X-3.00000
 Y82.89474
 X0.29345
 X-0.44677 Y85.28070
 X-3.00000
 Y87.66667
 X-0.90734
 X-1.36544 Y90.05263
 X-3.00000
 Y92.43860
 X-1.83156
 X-2.22512 Y94.82456
 X-3.00000
 Y97.21053
 X-2.48650
 X-2.75534 Y99.59649
 X-3.00000
G0 Z35.00000
 Y116.29825
G1 Z22.17143
 X-2.43437
 X-1.56724 Y118.68421
 X-3.00000
 Y121.07018
 X0.12148
 X2.84705 Y123.45614
 X-3.00000
 Y125.84211
 X163.00000
 Y128.22807
 X-3.00000
 Y130.61404
 X163.00000
 Y133.00000
 X-3.00000
 Y114.39234
G0 Z35.00000
 Y101.72678
G1 Z22.17143
 Y-3.00000
 X-0.62857
 Y86.18471
G0 Z35.00000
 Y120.01841
G1 Z22.17143
 Y133.00000
 X1.74286
 Y122.54401
G0 Z35.00000
 Y78.12504
G1 Z22.17143
 Y-3.00000
 X4.11429
 Y73.62705
G0 Z35.00000
 Y124.13567
G1 Z22.17143
 Y133.00000
 X6.48571
 Y125.15252
G0 Z35.00000
 Y71.34204
G1 Z22.17143
 Y-3.00000
 X8.85714
 Y69.97324
G0 Z35.00000
 Y125.51823
G1 Z22.17143
 Y133.00000
 X11.22857
 Y125.64517
G0 Z35.00000
 Y69.78122
G1 Z22.17143
 Y-3.00000
 X13.60000
 Y69.78122
G0 Z35.00000
 Y125.64517
G1 Z22.17143
 Y133.00000
 X15.97143
 Y125.64517
G0 Z35.00000
 Y69.78122
G1 Z22.17143
 Y-3.00000
 X18.34286
 Y69.78122
G0 Z35.00000
 Y125.64517
G1 Z22.17143
 Y133.00000
 X20.71429
 Y125.64517
G0 Z35.00000
 Y69.78122
G1 Z22.17143
 Y-3.00000
 X23.08571
 Y69.78122
G0 Z35.00000
 Y125.64517
G1 Z22.17143
 Y133.00000
 X25.45714
 Y125.64517
G0 Z35.00000
 Y69.78122
G1 Z22.17143
 Y-3.00000
 X27.82857
 Y69.78122
G0 Z35.00000
 Y125.64517
G1 Z22.17143
 Y133.00000
 X30.20000
 Y125.64517
G0 Z35.00000
 Y69.78133
G1 Z22.17143
 Y-3.00000
 X32.57143
 Y69.78133
G0 Z35.00000
 Y125.64517
G1 Z22.17143
 Y133.00000
 X34.94286
 Y125.64517
G0 Z35.00000
 Y69.78133
G1 Z22.17143
 Y-3.00000
 X37.31429
 Y69.78133
G0 Z35.00000
 Y125.64517
G1 Z22.17143
 Y133.00000
 X39.68571
 Y125.64517
G0 Z35.00000
 Y69.78133
G1 Z22.17143
 Y-3.00000
 X42.05714
 Y69.78133
G0 Z35.00000
 Y125.64517
G1 Z22.17143
 Y133.00000
 X44.42857
 Y125.64517
G0 Z35.00000
 Y69.78133
G1 Z22.17143
 Y-3.00000
 X46.80000
 Y69.78133
G0 Z35.00000
 Y125.64517
G1 Z22.17143
 Y133.00000
 X49.17143
 Y125.64517
G0 Z35.00000
 Y69.78133
G1 Z22.17143
 Y-3.00000
 X51.54286
 Y69.78133
G0 Z35.00000
 Y125.64517
G1 Z22.17143
 Y133.00000
 X53.91429
 Y125.64517
G0 Z35.00000
 Y69.78133
G1 Z22.17143
 Y-3.00000
 X56.28571
 Y69.78133
G0 Z35.00000
 Y125.64517
G1 Z22.17143
 Y133.00000
 X58.65714
 Y125.64517
G0 Z35.00000
 Y69.78133
G1 Z22.17143
 Y-3.00000
 X61.02857
 Y69.78133
G0 Z35.00000
 Y125.64517
G1 Z22.17143
 Y133.00000
 X63.40000
 Y125.64517
G0 Z35.00000
 Y69.78133
G1 Z22.17143
 Y-3.00000
 X65.77143
 Y69.78133
G0 Z35.00000
 Y125.64517
G1 Z22.17143
 Y133.00000
 X68.14286
 Y125.64517
G0 Z35.00000
 Y69.78133
G1 Z22.17143
 Y-3.00000
 X70.51429
 Y69.78133
G0 Z35.00000
 Y125.64517
G1 Z22.17143
 Y133.00000
 X72.88571
 Y125.64517
G0 Z35.00000
 Y69.78133
G1 Z22.17143
 Y-3.00000
 X75.25714
 Y69.78133
G0 Z35.00000
 Y125.64517
G1 Z22.17143
 Y133.00000
 X77.62857
 Y125.64517
G0 Z35.00000
 Y69.78133
G1 Z22.17143
 Y-3.00000
 X80.00000
 Y69.78133
G0 Z35.00000
 Y125.64522
G1 Z22.17143
 Y133.00000
 X82.37143
 Y125.64522
G0 Z35.00000
 Y69.78133
G1 Z22.17143
 Y-3.00000
 X84.74286
 Y69.78133
G0 Z35.00000
 Y125.64522
G1 Z22.17143
 Y133.00000
 X87.11429
 Y125.64522
G0 Z35.00000
 Y69.78133
G1 Z22.17143
 Y-3.00000
 X89.48571
 Y69.78133
G0 Z35.00000
 Y125.64522
G1 Z22.17143
 Y133.00000
 X91.85714
 Y125.64522
G0 Z35.00000
 Y69.78133
G1 Z22.17143
 Y-3.00000
 X94.22857
 Y69.78133
G0 Z35.00000
 Y125.64522
G1 Z22.17143
 Y133.00000
 X96.60000
 Y125.64522
G0 Z35.00000
 Y69.78133
G1 Z22.17143
 Y-3.00000
 X98.97143
 Y69.78133
G0 Z35.00000
 Y125.64522
G1 Z22.17143
 Y133.00000
 X101.34286
 Y125.64522
G0 Z35.00000
 Y69.78133
G1 Z22.17143
 Y-3.00000
 X103.71429
 Y69.78133
G0 Z35.00000
 Y125.64522
G1 Z22.17143
 Y133.00000
 X106.08571
 Y125.64522
G0 Z35.00000
 Y69.78133
G1 Z22.17143
 Y-3.00000
 X108.45714
 Y69.78133
G0 Z35.00000
 Y125.64522
G1 Z22.17143
 Y133.00000
 X110.82857
 Y125.64522
G0 Z35.00000
 Y69.78133
G1 Z22.17143
 Y-3.00000
 X113.20000
 Y69.78133
G0 Z35.00000
 Y125.64522
G1 Z22.17143
 Y133.00000
 X115.57143
 Y125.64522
G0 Z35.00000
 Y69.78133
G1 Z22.17143
 Y-3.00000
 X117.94286
 Y69.78133
G0 Z35.00000
 Y125.64522
G1 Z22.17143
 Y133.00000
 X120.31429
 Y125.64522
G0 Z35.00000
 Y69.78133
G1 Z22.17143
 Y-3.00000
 X122.68571
 Y69.78133
G0 Z35.00000
 Y125.64522
G1 Z22.17143
 Y133.00000
 X125.05714
 Y125.64522
G0 Z35.00000
 Y69.78133
G1 Z22.17143
 Y-3.00000
 X127.42857
 Y69.78133
G0 Z35.00000
 Y125.64522
G1 Z22.17143
 Y133.00000
 X129.80000
 Y125.64522
G0 Z35.00000
 Y69.78133
G1 Z22.17143
 Y-3.00000
 X132.17143
 Y69.78133
G0 Z35.00000
 Y125.64522
G1 Z22.17143
 Y133.00000
 X134.54286
 Y125.64522
G0 Z35.00000
 Y69.78133
G1 Z22.17143
 Y-3.00000
 X136.91429
 Y69.78133
G0 Z35.00000
 Y125.64522
G1 Z22.17143
 Y133.00000
 X139.28571
 Y125.64522
G0 Z35.00000
 Y69.78133
G1 Z22.17143
 Y-3.00000
 X141.65714
 Y69.78133
G0 Z35.00000
 Y125.64522
G1 Z22.17143
 Y133.00000
 X144.02857
 Y125.64522
G0 Z35.00000
 Y69.78133
G1 Z22.17143
 Y-3.00000
 X146.40000
 Y69.78133
G0 Z35.00000
 Y125.64522
G1 Z22.17143
 Y133.00000
 X148.77143
 Y125.64522
G0 Z35.00000
 Y69.78133
G1 Z22.17143
 Y-3.00000
 X151.14286
 Y69.78133
G0 Z35.00000
 Y125.64522
G1 Z22.17143
 Y133.00000
 X153.51429
 Y125.64522
G0 Z35.00000
 Y69.78133
G1 Z22.17143
 Y-3.00000
 X155.88571
 Y69.78133
G0 Z35.00000
 Y125.64522
G1 Z22.17143
 Y133.00000
 X158.25714
 Y125.64522
G0 Z35.00000
 Y69.78133
G1 Z22.17143
 Y-3.00000
 X160.62857
 Y69.83830
G0 Z35.00000
 Y125.58829
G1 Z22.17143
 Y133.00000
 X163.00000
 Y123.94797
G0 Z35.00000
 Y71.47862
G1 Z22.17143
 Y-3.00000
 Z21.18571
 X-3.00000
 Y-0.61404
 X163.00000
 Y1.77193
 X-3.00000
 Y4.15789
 X163.00000
 Y6.54386
 X-3.00000
 Y8.92982
 X163.00000
 Y11.31579
 X-3.00000
 Y13.70175
 X163.00000
 Y16.08772
 X-3.00000
 Y18.47368
 X163.00000
 Y20.85965
 X-3.00000
 Y23.24561
 X163.00000
 Y25.63158
 X-3.00000
 Y28.01754
 X163.00000
 Y30.40351
 X-3.00000
 Y32.78947
 X163.00000
 Y35.17544
 X-3.00000
 Y37.56140
 X163.00000
 Y39.94737
 X-3.00000
 Y42.33333
 X163.00000
 Y44.71930
 X-3.00000
 Y47.10526
 X163.00000
 Y49.49123
 X-3.00000
 Y51.87719
 X163.00000
 Y54.26316
 X-3.00000
 Y56.64912
 X163.00000
 Y59.03509
 X-3.00000
 Y61.42105
 X163.00000
 Y63.80702
 X-3.00000
 Y66.19298
 X7.23705
G0 Z35.00000
 X162.57972
G1 Z21.18571
 X163.00000
G0 Z35.00000
 X4.34940 Y68.57895
G1 Z21.18571
 X-3.00000
 Y70.96491
 X3.15184
 X1.93562 Y73.35088
 X-3.00000
 Y75.73684
 X1.16721
 X0.47807 Y78.12281
 X-3.00000
 Y80.50877
 X-0.22537
 X-0.75889 Y82.89474
 X-3.00000
 Y85.28070
 X-1.19182
 X-1.64061 Y87.66667
 X-3.00000
 Y90.05263
 X-2.09687
 X-2.36137 Y92.43860
 X-3.00000
 Y94.82456
 X-2.61893
 X-2.87991 Y97.21053
 X-3.00000
G0 Z35.00000
 X-2.73461 Y116.29825
G1 Z21.18571
 X-3.00000
 Y118.68421
 X-1.81891
 X-0.18631 Y121.07018
 X-3.00000
 Y123.45614
 X2.32228
G0 Z35.00000
 X163.00000 Y125.84211
G1 Z21.18571
 X161.26608
G0 Z35.00000
 X8.08457
G1 Z21.18571
 X-3.00000
 Y128.22807
 X163.00000
 Y130.61404
 X-3.00000
 Y133.00000
 X163.00000
 Y124.38190
G0 Z35.00000
 Y66.75559
G1 Z21.18571
 Y-3.00000
 X160.62857
 Y65.11527
G0 Z35.00000
 Y126.02222
G1 Z21.18571
 Y133.00000
 X158.25714
 Y126.07911
G0 Z35.00000
 Y65.05837
G1 Z21.18571
 Y-3.00000
 X155.88571
 Y65.05837
G0 Z35.00000
 Y126.07911
G1 Z21.18571
 Y133.00000
 X153.51429
 Y126.07911
G0 Z35.00000
 Y65.05837
G1 Z21.18571
 Y-3.00000
 X151.14286
 Y65.05837
G0 Z35.00000
 Y126.07911
G1 Z21.18571
 Y133.00000
 X148.77143
 Y126.07911
G0 Z35.00000
 Y65.05837
G1 Z21.18571
 Y-3.00000
 X146.40000
 Y65.05837
G0 Z35.00000
 Y126.07911
G1 Z21.18571
 Y133.00000
 X144.02857
 Y126.07911
G0 Z35.00000
 Y65.05837
G1 Z21.18571
 Y-3.00000
 X141.65714
 Y65.05837
G0 Z35.00000
 Y126.07911
G1 Z21.18571
 Y133.00000
 X139.28571
 Y126.07911
G0 Z35.00000
 Y65.05837
G1 Z21.18571
 Y-3.00000
 X136.91429
 Y65.05837
G0 Z35.00000
 Y126.07911
G1 Z21.18571
 Y133.00000
 X134.54286
 Y126.07911
G0 Z35.00000
 Y65.05837
G1 Z21.18571
 Y-3.00000
 X132.17143
 Y65.05837
G0 Z35.00000
 Y126.07911
G1 Z21.18571
 Y133.00000
 X129.80000
 Y126.07911
G0 Z35.00000
 Y65.05837
G1 Z21.18571
 Y-3.00000
 X127.42857
 Y65.05837
G0 Z35.00000
 Y126.07911
G1 Z21.18571
 Y133.00000
 X125.05714
 Y126.07911
G0 Z35.00000
 Y65.05837
G1 Z21.18571
 Y-3.00000
 X122.68571
 Y65.05837
G0 Z35.00000
 Y126.07911
G1 Z21.18571
 Y133.00000
 X120.31429
 Y126.07911
G0 Z35.00000
 Y65.05837
G1 Z21.18571
 Y-3.00000
 X117.94286
 Y65.05837
G0 Z35.00000
 Y126.07911
G1 Z21.18571
 Y133.00000
 X115.57143
 Y126.07911
G0 Z35.00000
 Y65.05837
G1 Z21.18571
 Y-3.00000
 X113.20000
 Y65.05837
G0 Z35.00000
 Y126.07911
G1 Z21.18571
 Y133.00000
 X110.82857
 Y126.07911
G0 Z35.00000
 Y65.05837
G1 Z21.18571
 Y-3.00000
 X108.45714
 Y65.05837
G0 Z35.00000
 Y126.07911
G1 Z21.18571
 Y133.00000
 X106.08571
 Y126.07911
G0 Z35.00000
 Y65.05837
G1 Z21.18571
 Y-3.00000
 X103.71429
 Y65.05837
G0 Z35.00000
 Y126.07911
G1 Z21.18571
 Y133.00000
 X101.34286
 Y126.07911
G0 Z35.00000
 Y65.05837
G1 Z21.18571
 Y-3.00000
 X98.97143
 Y65.05837
G0 Z35.00000
 Y126.07911
G1 Z21.18571
 Y133.00000
 X96.60000
 Y126.07911
G0 Z35.00000
 Y65.05837
G1 Z21.18571
 Y-3.00000
 X94.22857
 Y65.05837
G0 Z35.00000
 Y126.07911
G1 Z21.18571
 Y133.00000
 X91.85714
 Y126.07911
G0 Z35.00000
 Y65.05837
G1 Z21.18571
 Y-3.00000
 X89.48571
 Y65.05837
G0 Z35.00000
 Y126.07911
G1 Z21.18571
 Y133.00000
 X87.11429
 Y126.07911
G0 Z35.00000
 Y65.05837
G1 Z21.18571
 Y-3.00000
 X84.74286
 Y65.05837
G0 Z35.00000
 Y126.07911
G1 Z21.18571
 Y133.00000
 X82.37143
 Y126.07911
G0 Z35.00000
 Y65.05837
G1 Z21.18571
 Y-3.00000
 X80.00000
 Y65.05837
G0 Z35.00000
 Y126.07911
G1 Z21.18571
 Y133.00000
 X77.62857
 Y126.07911
G0 Z35.00000
 Y65.05837
G1 Z21.18571
 Y-3.00000
 X75.25714
 Y65.05837
G0 Z35.00000
 Y126.07911
G1 Z21.18571
 Y133.00000
 X72.88571
 Y126.07911
G0 Z35.00000
 Y65.05837
G1 Z21.18571
 Y-3.00000
 X70.51429
 Y65.05836
G0 Z35.00000
 Y126.07911
G1 Z21.18571
 Y133.00000
 X68.14286
 Y126.07911
G0 Z35.00000
 Y65.05836
G1 Z21.18571
 Y-3.00000
 X65.77143
 Y65.05836
G0 Z35.00000
 Y126.07911
G1 Z21.18571
 Y133.00000
 X63.40000
 Y126.07911
G0 Z35.00000
 Y65.05836
G1 Z21.18571
 Y-3.00000
 X61.02857
 Y65.05836
G0 Z35.00000
 Y126.07911
G1 Z21.18571
 Y133.00000
 X58.65714
 Y126.07911
G0 Z35.00000
 Y65.05836
G1 Z21.18571
 Y-3.00000
 X56.28571
 Y65.05836
G0 Z35.00000
 Y126.07911
G1 Z21.18571
 Y133.00000
 X53.91429
 Y126.07911
G0 Z35.00000
 Y65.05836
G1 Z21.18571
 Y-3.00000
 X51.54286
 Y65.05836
G0 Z35.00000
 Y126.07911
G1 Z21.18571
 Y133.00000
 X49.17143
 Y126.07907
G0 Z35.00000
 Y65.05836
G1 Z21.18571
 Y-3.00000
 X46.80000
 Y65.05836
G0 Z35.00000
 Y126.07907
G1 Z21.18571
 Y133.00000
 X44.42857
 Y126.07907
G0 Z35.00000
 Y65.05836
G1 Z21.18571
 Y-3.00000
 X42.05714
 Y65.05836
G0 Z35.00000
 Y126.07907
G1 Z21.18571
 Y133.00000
 X39.68571
 Y126.07907
G0 Z35.00000
 Y65.05836
G1 Z21.18571
 Y-3.00000
 X37.31429
 Y65.05836
G0 Z35.00000
 Y126.07907
G1 Z21.18571
 Y133.00000
 X34.94286
 Y126.07907
G0 Z35.00000
 Y65.05836
G1 Z21.18571
 Y-3.00000
 X32.57143
 Y65.05836
G0 Z35.00000
 Y126.07907
G1 Z21.18571
 Y133.00000
 X30.20000
 Y126.07907
G0 Z35.00000
 Y65.05836
G1 Z21.18571
 Y-3.00000
 X27.82857
 Y65.05836
G0 Z35.00000
 Y126.07907
G1 Z21.18571
 Y133.00000
 X25.45714
 Y126.07907
G0 Z35.00000
 Y65.05836
G1 Z21.18571
 Y-3.00000
 X23.08571
 Y65.05836
G0 Z35.00000
 Y126.07907
G1 Z21.18571
 Y133.00000
 X20.71429
 Y126.07907
G0 Z35.00000
 Y65.05836
G1 Z21.18571
 Y-3.00000
 X18.34286
 Y65.05836
G0 Z35.00000
 Y126.07907
G1 Z21.18571
 Y133.00000
 X15.97143
 Y126.07907
G0 Z35.00000
 Y65.05836
G1 Z21.18571
 Y-3.00000
 X13.60000
 Y65.05836
G0 Z35.00000
 Y126.07907
G1 Z21.18571
 Y133.00000
 X11.22857
 Y126.07907
G0 Z35.00000
 Y65.05836
G1 Z21.18571
 Y-3.00000
 X8.85714
 Y65.25022
G0 Z35.00000
 Y125.95212
G1 Z21.18571
 Y133.00000
 X6.48571
 Y125.58604
G0 Z35.00000
 Y66.69289
G1 Z21.18571
 Y-3.00000
 X4.11429
 Y69.04208
G0 Z35.00000
 Y124.56820
G1 Z21.18571
 Y133.00000
 X1.74286
 Y122.97639
G0 Z35.00000
 Y73.76270
G1 Z21.18571
 Y-3.00000
 X-0.62857
 Y82.17416
G0 Z35.00000
 Y120.44904
G1 Z21.18571
 Y133.00000
 X-3.00000
 Y115.40400
G0 Z35.00000
 Y98.28667
G1 Z21.18571
 Y-3.00000
 Z20.20000
 X163.00000
 Y-0.61404
 X-3.00000
 Y1.77193
 X163.00000
 Y4.15789
 X-3.00000
 Y6.54386
 X163.00000
 Y8.92982
 X-3.00000
 Y11.31579
 X163.00000
 Y13.70175
 X-3.00000
 Y16.08772
 X163.00000
 Y18.47368
 X-3.00000
 Y20.85965
 X163.00000
 Y23.24561
 X-3.00000
 Y25.63158
 X163.00000
 Y28.01754
 X-3.00000
 Y30.40351
 X163.00000
 Y32.78947
 X-3.00000
 Y35.17544
 X163.00000
 Y37.56140
 X-3.00000
 Y39.94737
 X163.00000
 Y42.33333
 X-3.00000
 Y44.71930
 X163.00000
 Y47.10526
 X-3.00000
 Y49.49123
 X163.00000
 Y51.87719
 X-3.00000
 Y54.26316
 X163.00000
 Y56.64912
 X-3.00000
 Y59.03509
 X163.00000
 Y61.42105
 X162.79009
G0 Z35.00000
 X6.91391
G1 Z20.20000
 X-3.00000
 Y63.80702
 X4.26689
 X3.15295 Y66.19298
 X-3.00000
 Y68.57895
 X2.01320
 X1.23289 Y70.96491
 X-3.00000
 Y73.35088
 X0.58720
 X-0.08685 Y75.73684
 X-3.00000
 Y78.12281
 X-0.65474
 X-1.06894 Y80.50877
 X-3.00000
 Y82.89474
 X-1.49397
 X-1.92546 Y85.28070
 X-3.00000
 Y87.66667
 X-2.26045
 X-2.50458 Y90.05263
 X-3.00000
 Y92.43860
 X-2.75621
G0 Z35.00000
 X-3.00000 Y116.29825
G1 Z20.20000
 X-2.91219
 X-1.99480 Y118.68421
 X-3.00000
 Y121.07018
 X-0.49293
 X1.80195 Y123.45614
 X-3.00000
 Y125.84211
 X5.98912
G0 Z35.00000
 X162.06070
G1 Z20.20000
 X163.00000
 Y128.22807
 X-3.00000
 Y130.61404
 X163.00000
 Y133.00000
 X-3.00000
 Y116.04945
G0 Z35.00000
 Y94.70802
G1 Z20.20000
 Y-3.00000
 X-0.62857
 Y77.97204
G0 Z35.00000
 Y120.87928
G1 Z20.20000
 Y133.00000
 X1.74286
 Y123.40703
G0 Z35.00000
 Y69.15993
G1 Z20.20000
 Y-3.00000
 X4.11429
 Y64.13927
G0 Z35.00000
 Y125.00074
G1 Z20.20000
 Y133.00000
 X6.48571
 Y126.01955
G0 Z35.00000
 Y61.72025
G1 Z20.20000
 Y-3.00000
 X8.85714
 Y60.22615
G0 Z35.00000
 Y126.38593
G1 Z20.20000
 Y133.00000
 X11.22857
 Y126.51296
G0 Z35.00000
 Y60.03432
G1 Z20.20000
 Y-3.00000
 X13.60000
 Y60.03432
G0 Z35.00000
 Y126.51296
G1 Z20.20000
 Y133.00000
 X15.97143
 Y126.51296
G0 Z35.00000
 Y60.03432
G1 Z20.20000
 Y-3.00000
 X18.34286
 Y60.03431
G0 Z35.00000
 Y126.51296
G1 Z20.20000
 Y133.00000
 X20.71429
 Y126.51301
G0 Z35.00000
 Y60.03431
G1 Z20.20000
 Y-3.00000
 X23.08571
 Y60.03431
G0 Z35.00000
 Y126.51301
G1 Z20.20000
 Y133.00000
 X25.45714
 Y126.51301
G0 Z35.00000
 Y60.03431
G1 Z20.20000
 Y-3.00000
 X27.82857
 Y60.03431
G0 Z35.00000
 Y126.51301
G1 Z20.20000
 Y133.00000
 X30.20000
 Y126.51301
G0 Z35.00000
 Y60.03431
G1 Z20.20000
 Y-3.00000
 X32.57143
 Y60.03431
G0 Z35.00000
 Y126.51301
G1 Z20.20000
 Y133.00000
 X34.94286
 Y126.51301
G0 Z35.00000
 Y60.03431
G1 Z20.20000
 Y-3.00000
 X37.31429
 Y60.03431
G0 Z35.00000
 Y126.51301
G1 Z20.20000
 Y133.00000
 X39.68571
 Y126.51301
G0 Z35.00000
 Y60.03431
G1 Z20.20000
 Y-3.00000
 X42.05714
 Y60.03431
G0 Z35.00000
 Y126.51301
G1 Z20.20000
 Y133.00000
 X44.42857
 Y126.51301
G0 Z35.00000
 Y60.03431
G1 Z20.20000
 Y-3.00000
 X46.80000
 Y60.03421
G0 Z35.00000
 Y126.51301
G1 Z20.20000
 Y133.00000
 X49.17143
 Y126.51301
G0 Z35.00000
 Y60.03421
G1 Z20.20000
 Y-3.00000
 X51.54286
 Y60.03421
G0 Z35.00000
 Y126.51301
G1 Z20.20000
 Y133.00000
 X53.91429
 Y126.51301
G0 Z35.00000
 Y60.03421
G1 Z20.20000
 Y-3.00000
 X56.28571
 Y60.03421
G0 Z35.00000
 Y126.51301
G1 Z20.20000
 Y133.00000
 X58.65714
 Y126.51301
G0 Z35.00000
 Y60.03421
G1 Z20.20000
 Y-3.00000
 X61.02857
 Y60.03421
G0 Z35.00000
 Y126.51301
G1 Z20.20000
 Y133.00000
 X63.40000
 Y126.51301
G0 Z35.00000
 Y60.03421
G1 Z20.20000
 Y-3.00000
 X65.77143
 Y60.03421
G0 Z35.00000
 Y126.51301
G1 Z20.20000
 Y133.00000
 X68.14286
 Y126.51301
G0 Z35.00000
 Y60.03421
G1 Z20.20000
 Y-3.00000
 X70.51429
 Y60.03421
G0 Z35.00000
 Y126.51301
G1 Z20.20000
 Y133.00000
 X72.88571
 Y126.51301
G0 Z35.00000
 Y60.03421
G1 Z20.20000
 Y-3.00000
 X75.25714
 Y60.03421
G0 Z35.00000
 Y126.51301
G1 Z20.20000
 Y133.00000
 X77.62857
 Y126.51301
G0 Z35.00000
 Y60.03421
G1 Z20.20000
 Y-3.00000
 X80.00000
 Y60.03421
G0 Z35.00000
 Y126.51301
G1 Z20.20000
 Y133.00000
 X82.37143
 Y126.51301
G0 Z35.00000
 Y60.03421
G1 Z20.20000
 Y-3.00000
 X84.74286
 Y60.03421
G0 Z35.00000
 Y126.51301
G1 Z20.20000
 Y133.00000
 X87.11429
 Y126.51301
G0 Z35.00000
 Y60.03421
G1 Z20.20000
 Y-3.00000
 X89.48571
 Y60.03421
G0 Z35.00000
 Y126.51301
G1 Z20.20000
 Y133.00000
 X91.85714
 Y126.51301
G0 Z35.00000
 Y60.03421
G1 Z20.20000
 Y-3.00000
 X94.22857
 Y60.03421
G0 Z35.00000
 Y126.51301
G1 Z20.20000
 Y133.00000
 X96.60000
 Y126.51301
G0 Z35.00000
 Y60.03421
G1 Z20.20000
 Y-3.00000
 X98.97143
 Y60.03421
G0 Z35.00000
 Y126.51301
G1 Z20.20000
 Y133.00000
 X101.34286
 Y126.51301
G0 Z35.00000
 Y60.03421
G1 Z20.20000
 Y-3.00000
 X103.71429
 Y60.03421
G0 Z35.00000
 Y126.51301
G1 Z20.20000
 Y133.00000
 X106.08571
 Y126.51301
G0 Z35.00000
 Y60.03421
G1 Z20.20000
 Y-3.00000
 X108.45714
 Y60.03421
G0 Z35.00000
 Y126.51301
G1 Z20.20000
 Y133.00000
 X110.82857
 Y126.51301
G0 Z35.00000
 Y60.03421
G1 Z20.20000
 Y-3.00000
 X113.20000
 Y60.03421
G0 Z35.00000
 Y126.51301
G1 Z20.20000
 Y133.00000
 X115.57143
 Y126.51301
G0 Z35.00000
 Y60.03421
G1 Z20.20000
 Y-3.00000
 X117.94286
 Y60.03421
G0 Z35.00000
 Y126.51301
G1 Z20.20000
 Y133.00000
 X120.31429
 Y126.51301
G0 Z35.00000
 Y60.03421
G1 Z20.20000
 Y-3.00000
 X122.68571
 Y60.03421
G0 Z35.00000
 Y126.51301
G1 Z20.20000
 Y133.00000
 X125.05714
 Y126.51301
G0 Z35.00000
 Y60.03421
G1 Z20.20000
 Y-3.00000
 X127.42857
 Y60.03421
G0 Z35.00000
 Y126.51301
G1 Z20.20000
 Y133.00000
 X129.80000
 Y126.51301
G0 Z35.00000
 Y60.03421
G1 Z20.20000
 Y-3.00000
 X132.17143
 Y60.03421
G0 Z35.00000
 Y126.51301
G1 Z20.20000
 Y133.00000
 X134.54286
 Y126.51301
G0 Z35.00000
 Y60.03421
G1 Z20.20000
 Y-3.00000
 X136.91429
 Y60.03421
G0 Z35.00000
 Y126.51301
G1 Z20.20000
 Y133.00000
 X139.28571
 Y126.51301
G0 Z35.00000
 Y60.03421
G1 Z20.20000
 Y-3.00000
 X141.65714
 Y60.03421
G0 Z35.00000
 Y126.51301
G1 Z20.20000
 Y133.00000
 X144.02857
 Y126.51301
G0 Z35.00000
 Y60.03421
G1 Z20.20000
 Y-3.00000
 X146.40000
 Y60.03421
G0 Z35.00000
 Y126.51301
G1 Z20.20000
 Y133.00000
 X148.77143
 Y126.51301
G0 Z35.00000
 Y60.03421
G1 Z20.20000
 Y-3.00000
 X151.14286
 Y60.03421
G0 Z35.00000
 Y126.51301
G1 Z20.20000
 Y133.00000
 X153.51429
 Y126.51301
G0 Z35.00000
 Y60.03421
G1 Z20.20000
 Y-3.00000
 X155.88571
 Y60.03421
G0 Z35.00000
 Y126.51301
G1 Z20.20000
 Y133.00000
 X158.25714
 Y126.51301
G0 Z35.00000
 Y60.03421
G1 Z20.20000
 Y-3.00000
 X160.62857
 Y60.09111
G0 Z35.00000
 Y126.45615
G1 Z20.20000
 Y133.00000
 X163.00000
 Y124.81583
G0 Z35.00000
 Y61.73143
G1 Z20.20000
 Y-3.00000
 Z19.21429
 X-3.00000
 Y-0.61404
 X163.00000
 Y1.77193
 X-3.00000
 Y4.15789
 X163.00000
 Y6.54386
 X-3.00000
 Y8.92982
 X163.00000
 Y11.31579
 X-3.00000
 Y13.70175
 X163.00000
 Y16.08772
 X-3.00000
 Y18.47368
 X163.00000
 Y20.85965
 X-3.00000
 Y23.24561
 X163.00000
 Y25.63158
 X-3.00000
 Y28.01754
 X163.00000
 Y30.40351
 X-3.00000
 Y32.78947
 X163.00000
 Y35.17544
 X-3.00000
 Y37.56140
 X163.00000
 Y39.94737
 X-3.00000
 Y42.33333
 X163.00000
 Y44.71930
 X-3.00000
 Y47.10526
 X163.00000
 Y49.49123
 X-3.00000
 Y51.87719
 X163.00000
 Y54.26316
 X-3.00000
 Y56.64912
 X6.14940
 X4.04439 Y59.03509
 X-3.00000
 Y61.42105
 X3.01355
 X1.92828 Y63.80702
 X-3.00000
 Y66.19298
 X1.22305
 X0.60778 Y68.57895
 X-3.00000
 Y70.96491
 X-0.02383
 X-0.59854 Y73.35088
 X-3.00000
 Y75.73684
 X-0.99178
 X-1.39151 Y78.12281
 X-3.00000
 Y80.50877
 X-1.80570
 X-2.18336 Y82.89474
 X-3.00000
 Y85.28070
 X-2.41629
 X-2.65629 Y87.66667
 X-3.00000
 Y90.05263
 X-2.89943
G0 Z35.00000
 X-3.00000 Y118.68421
G1 Z19.21429
 X-2.15939
 X-0.79634 Y121.07018
 X-3.00000
 Y123.45614
 X1.28385
G0 Z35.00000
 X163.00000 Y125.84211
G1 Z19.21429
 X162.40062
G0 Z35.00000
 X5.26940
G1 Z19.21429
 X-3.00000
 Y128.22807
 X163.00000
 Y130.61404
 X-3.00000
 Y133.00000
 X163.00000
 Y125.09792
G0 Z35.00000
 Y56.31041
G1 Z19.21429
 Y-3.00000
 X160.62857
 Y54.67009
G0 Z35.00000
 Y126.73824
G1 Z19.21429
 Y133.00000
 X158.25714
 Y126.79527
G0 Z35.00000
 Y54.61330
G1 Z19.21429
 Y-3.00000
 X155.88571
 Y54.61330
G0 Z35.00000
 Y126.79527
G1 Z19.21429
 Y133.00000
 X153.51429
 Y126.79527
G0 Z35.00000
 Y54.61330
G1 Z19.21429
 Y-3.00000
 X151.14286
 Y54.61330
G0 Z35.00000
 Y126.79527
G1 Z19.21429
 Y133.00000
 X148.77143
 Y126.79527
G0 Z35.00000
 Y54.61330
G1 Z19.21429
 Y-3.00000
 X146.40000
 Y54.61330
G0 Z35.00000
 Y126.79527
G1 Z19.21429
 Y133.00000
 X144.02857
 Y126.79527
G0 Z35.00000
 Y54.61330
G1 Z19.21429
 Y-3.00000
 X141.65714
 Y54.61330
G0 Z35.00000
 Y126.79519
G1 Z19.21429
 Y133.00000
 X139.28571
 Y126.79519
G0 Z35.00000
 Y54.61330
G1 Z19.21429
 Y-3.00000
 X136.91429
 Y54.61330
G0 Z35.00000
 Y126.79519
G1 Z19.21429
 Y133.00000
 X134.54286
 Y126.79519
G0 Z35.00000
 Y54.61330
G1 Z19.21429
 Y-3.00000
 X132.17143
 Y54.61330
G0 Z35.00000
 Y126.79519
G1 Z19.21429
 Y133.00000
 X129.80000
 Y126.79519
G0 Z35.00000
 Y54.61330
G1 Z19.21429
 Y-3.00000
 X127.42857
 Y54.61330
G0 Z35.00000
 Y126.79519
G1 Z19.21429
 Y133.00000
 X125.05714
 Y126.79519
G0 Z35.00000
 Y54.61330
G1 Z19.21429
 Y-3.00000
 X122.68571
 Y54.61321
G0 Z35.00000
 Y126.79519
G1 Z19.21429
 Y133.00000
 X120.31429
 Y126.79519
G0 Z35.00000
 Y54.61321
G1 Z19.21429
 Y-3.00000
 X117.94286
 Y54.61321
G0 Z35.00000
 Y126.79519
G1 Z19.21429
 Y133.00000
 X115.57143
 Y126.79519
G0 Z35.00000
 Y54.61321
G1 Z19.21429
 Y-3.00000
 X113.20000
 Y54.61321
G0 Z35.00000
 Y126.79519
G1 Z19.21429
 Y133.00000
 X110.82857
 Y126.79519
G0 Z35.00000
 Y54.61321
G1 Z19.21429
 Y-3.00000
 X108.45714
 Y54.61321
G0 Z35.00000
 Y126.79519
G1 Z19.21429
 Y133.00000
 X106.08571
 Y126.79519
G0 Z35.00000
 Y54.61321
G1 Z19.21429
 Y-3.00000
 X103.71429
 Y54.61321
G0 Z35.00000
 Y126.79519
G1 Z19.21429
 Y133.00000
 X101.34286
 Y126.79519
G0 Z35.00000
 Y54.61321
G1 Z19.21429
 Y-3.00000
 X98.97143
 Y54.61321
G0 Z35.00000
 Y126.79519
G1 Z19.21429
 Y133.00000
 X96.60000
 Y126.79519
G0 Z35.00000
 Y54.61321
G1 Z19.21429
 Y-3.00000
 X94.22857
 Y54.61321
G0 Z35.00000
 Y126.79519
G1 Z19.21429
 Y133.00000
 X91.85714
 Y126.79519
G0 Z35.00000
 Y54.61321
G1 Z19.21429
 Y-3.00000
 X89.48571
 Y54.61321
G0 Z35.00000
 Y126.79519
G1 Z19.21429
 Y133.00000
 X87.11429
 Y126.79519
G0 Z35.00000
 Y54.61321
G1 Z19.21429
 Y-3.00000
 X84.74286
 Y54.61321
G0 Z35.00000
 Y126.79519
G1 Z19.21429
 Y133.00000
 X82.37143
 Y126.79519
G0 Z35.00000
 Y54.61321
G1 Z19.21429
 Y-3.00000
 X80.00000
 Y54.61321
G0 Z35.00000
 Y126.79519
G1 Z19.21429
 Y133.00000
 X77.62857
 Y126.79519
G0 Z35.00000
 Y54.61321
G1 Z19.21429
 Y-3.00000
 X75.25714
 Y54.61321
G0 Z35.00000
 Y126.79519
G1 Z19.21429
 Y133.00000
 X72.88571
 Y126.79519
G0 Z35.00000
 Y54.61321
G1 Z19.21429
 Y-3.00000
 X70.51429
 Y54.61321
G0 Z35.00000
 Y126.79519
G1 Z19.21429
 Y133.00000
 X68.14286
 Y126.79519
G0 Z35.00000
 Y54.61321
G1 Z19.21429
 Y-3.00000
 X65.77143
 Y54.61321
G0 Z35.00000
 Y126.79519
G1 Z19.21429
 Y133.00000
 X63.40000
 Y126.79519
G0 Z35.00000
 Y54.61321
G1 Z19.21429
 Y-3.00000
 X61.02857
 Y54.61321
G0 Z35.00000
 Y126.79519
G1 Z19.21429
 Y133.00000
 X58.65714
 Y126.79519
G0 Z35.00000
 Y54.61321
G1 Z19.21429
 Y-3.00000
 X56.28571
 Y54.61321
G0 Z35.00000
 Y126.79519
G1 Z19.21429
 Y133.00000
 X53.91429
 Y126.79519
G0 Z35.00000
 Y54.61321
G1 Z19.21429
 Y-3.00000
 X51.54286
 Y54.61321
G0 Z35.00000
 Y126.79519
G1 Z19.21429
 Y133.00000
 X49.17143
 Y126.79519
G0 Z35.00000
 Y54.61321
G1 Z19.21429
 Y-3.00000
 X46.80000
 Y54.61321
G0 Z35.00000
 Y126.79519
G1 Z19.21429
 Y133.00000
 X44.42857
 Y126.79519
G0 Z35.00000
 Y54.61321
G1 Z19.21429
 Y-3.00000
 X42.05714
 Y54.61321
G0 Z35.00000
 Y126.79519
G1 Z19.21429
 Y133.00000
 X39.68571
 Y126.79519
G0 Z35.00000
 Y54.61321
G1 Z19.21429
 Y-3.00000
 X37.31429
 Y54.61321
G0 Z35.00000
 Y126.79519
G1 Z19.21429
 Y133.00000
 X34.94286
 Y126.79519
G0 Z35.00000
 Y54.61321
G1 Z19.21429
 Y-3.00000
 X32.57143
 Y54.61321
G0 Z35.00000
 Y126.79519
G1 Z19.21429
 Y133.00000
 X30.20000
 Y126.79519
G0 Z35.00000
 Y54.61321
G1 Z19.21429
 Y-3.00000
 X27.82857
 Y54.61321
G0 Z35.00000
 Y126.79519
G1 Z19.21429
 Y133.00000
 X25.45714
 Y126.79519
G0 Z35.00000
 Y54.61321
G1 Z19.21429
 Y-3.00000
 X23.08571
 Y54.61321
G0 Z35.00000
 Y126.79519
G1 Z19.21429
 Y133.00000
 X20.71429
 Y126.79519
G0 Z35.00000
 Y54.61321
G1 Z19.21429
 Y-3.00000
 X18.34286
 Y54.61321
G0 Z35.00000
 Y126.79519
G1 Z19.21429
 Y133.00000
 X15.97143
 Y126.79519
G0 Z35.00000
 Y54.61321
G1 Z19.21429
 Y-3.00000
 X13.60000
 Y54.61321
G0 Z35.00000
 Y126.79519
G1 Z19.21429
 Y133.00000
 X11.22857
 Y126.79519
G0 Z35.00000
 Y54.61321
G1 Z19.21429
 Y-3.00000
 X8.85714
 Y54.80504
G0 Z35.00000
 Y126.67325
G1 Z19.21429
 Y133.00000
 X6.48571
 Y126.32306
G0 Z35.00000
 Y56.40170
G1 Z19.21429
 Y-3.00000
 X4.11429
 Y58.87330
G0 Z35.00000
 Y125.35381
G1 Z19.21429
 Y133.00000
 X1.74286
 Y123.82311
G0 Z35.00000
 Y64.22617
G1 Z19.21429
 Y-3.00000
 X-0.62857
 Y73.53963
G0 Z35.00000
 Y121.30681
G1 Z19.21429
 Y133.00000
 X-3.00000
 Y116.47210
G0 Z35.00000
 Y91.00623
G1 Z19.21429
 Y-3.00000
 Z18.22857
 X163.00000
 Y-0.61404
 X-3.00000
 Y1.77193
 X163.00000
 Y4.15789
 X-3.00000
 Y6.54386
 X163.00000
 Y8.92982
 X-3.00000
 Y11.31579
 X163.00000
 Y13.70175
 X-3.00000
 Y16.08772
 X163.00000
 Y18.47368
 X-3.00000
 Y20.85965
 X163.00000
 Y23.24561
 X-3.00000
 Y25.63158
 X163.00000
 Y28.01754
 X-3.00000
 Y30.40351
 X163.00000
 Y32.78947
 X-3.00000
 Y35.17544
 X163.00000
 Y37.56140
 X-3.00000
 Y39.94737
 X163.00000
 Y42.33333
 X-3.00000
 Y44.71930
 X163.00000
 Y47.10526
 X-3.00000
 Y49.49123
 X7.78833
G0 Z35.00000
 X162.21177
G1 Z18.22857
 X163.00000
G0 Z35.00000
 X4.91807 Y51.87719
G1 Z18.22857
 X-3.00000
 Y54.26316
 X3.68293
 X2.70659 Y56.64912
 X-3.00000
 Y59.03509
 X1.70982
 X1.12799 Y61.42105
 X-3.00000
 Y63.80702
 X0.55184
 X-0.03618 Y66.19298
 X-3.00000
 Y68.57895
 X-0.59110
 X-0.95892 Y70.96491
 X-3.00000
 Y73.35088
 X-1.33847
 X-1.73018 Y75.73684
 X-3.00000
 Y78.12281
 X-2.12640
 X-2.35367 Y80.50877
 X-3.00000
 Y82.89474
 X-2.58016
 X-2.81309 Y85.28070
 X-3.00000
G0 Z35.00000
 X-2.32171 Y118.68421
G1 Z18.22857
 X-3.00000
 Y121.07018
 X-1.03705
 X1.00047 Y123.45614
 X-3.00000
 Y125.84211
 X4.76105
G0 Z35.00000
 X162.60999
G1 Z18.22857
 X163.00000
 Y128.22807
 X-3.00000
 Y130.61404
 X163.00000
 Y133.00000
 X-3.00000
 Y116.89475
G0 Z35.00000
 Y87.15317
G1 Z18.22857
 Y-3.00000
 X-0.62857
 Y68.82576
G0 Z35.00000
 Y121.61335
G1 Z18.22857
 Y133.00000
 X1.74286
 Y124.03775
G0 Z35.00000
 Y58.94768
G1 Z18.22857
 Y-3.00000
 X4.11429
 Y53.15633
G0 Z35.00000
 Y125.56869
G1 Z18.22857
 Y133.00000
 X6.48571
 Y126.53797
G0 Z35.00000
 Y50.56275
G1 Z18.22857
 Y-3.00000
 X8.85714
 Y48.89573
G0 Z35.00000
 Y126.88823
G1 Z18.22857
 Y133.00000
 X11.22857
 Y127.01017
G0 Z35.00000
 Y48.70386
G1 Z18.22857
 Y-3.00000
 X13.60000
 Y48.70386
G0 Z35.00000
 Y127.01017
G1 Z18.22857
 Y133.00000
 X15.97143
 Y127.01017
G0 Z35.00000
 Y48.70386
G1 Z18.22857
 Y-3.00000
 X18.34286
 Y48.70386
G0 Z35.00000
 Y127.01017
G1 Z18.22857
 Y133.00000
 X20.71429
 Y127.01017
G0 Z35.00000
 Y48.70386
G1 Z18.22857
 Y-3.00000
 X23.08571
 Y48.70386
G0 Z35.00000
 Y127.01017
G1 Z18.22857
 Y133.00000
 X25.45714
 Y127.01017
G0 Z35.00000
 Y48.70386
G1 Z18.22857
 Y-3.00000
 X27.82857
 Y48.70386
G0 Z35.00000
 Y127.01017
G1 Z18.22857
 Y133.00000
 X30.20000
 Y127.01017
G0 Z35.00000
 Y48.70386
G1 Z18.22857
 Y-3.00000
 X32.57143
 Y48.70386
G0 Z35.00000
 Y127.01017
G1 Z18.22857
 Y133.00000
 X34.94286
 Y127.01017
G0 Z35.00000
 Y48.70386
G1 Z18.22857
 Y-3.00000
 X37.31429
 Y48.70386
G0 Z35.00000
 Y127.01017
G1 Z18.22857
 Y133.00000
 X39.68571
 Y127.01017
G0 Z35.00000
 Y48.70386
G1 Z18.22857
 Y-3.00000
 X42.05714
 Y48.70386
G0 Z35.00000
 Y127.01017
G1 Z18.22857
 Y133.00000
 X44.42857
 Y127.01017
G0 Z35.00000
 Y48.70386
G1 Z18.22857
 Y-3.00000
 X46.80000
 Y48.70386
G0 Z35.00000
 Y127.01017
G1 Z18.22857
 Y133.00000
 X49.17143
 Y127.01017
G0 Z35.00000
 Y48.70386
G1 Z18.22857
 Y-3.00000
 X51.54286
 Y48.70386
G0 Z35.00000
 Y127.01017
G1 Z18.22857
 Y133.00000
 X53.91429
 Y127.01017
G0 Z35.00000
 Y48.70386
G1 Z18.22857
 Y-3.00000
 X56.28571
 Y48.70385
G0 Z35.00000
 Y127.01017
G1 Z18.22857
 Y133.00000
 X58.65714
 Y127.01017
G0 Z35.00000
 Y48.70385
G1 Z18.22857
 Y-3.00000
 X61.02857
 Y48.70385
G0 Z35.00000
 Y127.01017
G1 Z18.22857
 Y133.00000
 X63.40000
 Y127.01017
G0 Z35.00000
 Y48.70385
G1 Z18.22857
 Y-3.00000
 X65.77143
 Y48.70385
G0 Z35.00000
 Y127.01017
G1 Z18.22857
 Y133.00000
 X68.14286
 Y127.01017
G0 Z35.00000
 Y48.70385
G1 Z18.22857
 Y-3.00000
 X70.51429
 Y48.70385
G0 Z35.00000
 Y127.01017
G1 Z18.22857
 Y133.00000
 X72.88571
 Y127.01017
G0 Z35.00000
 Y48.70385
G1 Z18.22857
 Y-3.00000
 X75.25714
 Y48.70385
G0 Z35.00000
 Y127.01017
G1 Z18.22857
 Y133.00000
 X77.62857
 Y127.01017
G0 Z35.00000
 Y48.70385
G1 Z18.22857
 Y-3.00000
 X80.00000
 Y48.70385
G0 Z35.00000
 Y127.01017
G1 Z18.22857
 Y133.00000
 X82.37143
 Y127.01017
G0 Z35.00000
 Y48.70385
G1 Z18.22857
 Y-3.00000
 X84.74286
 Y48.70385
G0 Z35.00000
 Y127.01017
G1 Z18.22857
 Y133.00000
 X87.11429
 Y127.01017
G0 Z35.00000
 Y48.70385
G1 Z18.22857
 Y-3.00000
 X89.48571
 Y48.70385
G0 Z35.00000
 Y127.01017
G1 Z18.22857
 Y133.00000
 X91.85714
 Y127.01017
G0 Z35.00000
 Y48.70385
G1 Z18.22857
 Y-3.00000
 X94.22857
 Y48.70385
G0 Z35.00000
 Y127.01017
G1 Z18.22857
 Y133.00000
 X96.60000
 Y127.01017
G0 Z35.00000
 Y48.70385
G1 Z18.22857
 Y-3.00000
 X98.97143
 Y48.70385
G0 Z35.00000
 Y127.01017
G1 Z18.22857
 Y133.00000
 X101.34286
 Y127.01017
G0 Z35.00000
 Y48.70385
G1 Z18.22857
 Y-3.00000
 X103.71429
 Y48.70385
G0 Z35.00000
 Y127.01017
G1 Z18.22857
 Y133.00000
 X106.08571
 Y127.01017
G0 Z35.00000
 Y48.70385
G1 Z18.22857
 Y-3.00000
 X108.45714
 Y48.70385
G0 Z35.00000
 Y127.01017
G1 Z18.22857
 Y133.00000
 X110.82857
 Y127.01017
G0 Z35.00000
 Y48.70385
G1 Z18.22857
 Y-3.00000
 X113.20000
 Y48.70385
G0 Z35.00000
 Y127.01017
G1 Z18.22857
 Y133.00000
 X115.57143
 Y127.01017
G0 Z35.00000
 Y48.70385
G1 Z18.22857
 Y-3.00000
 X117.94286
 Y48.70385
G0 Z35.00000
 Y127.01025
G1 Z18.22857
 Y133.00000
 X120.31429
 Y127.01025
G0 Z35.00000
 Y48.70385
G1 Z18.22857
 Y-3.00000
 X122.68571
 Y48.70385
G0 Z35.00000
 Y127.01025
G1 Z18.22857
 Y133.00000
 X125.05714
 Y127.01025
G0 Z35.00000
 Y48.70384
G1 Z18.22857
 Y-3.00000
 X127.42857
 Y48.70384
G0 Z35.00000
 Y127.01025
G1 Z18.22857
 Y133.00000
 X129.80000
 Y127.01025
G0 Z35.00000
 Y48.70384
G1 Z18.22857
 Y-3.00000
 X132.17143
 Y48.70384
G0 Z35.00000
 Y127.01025
G1 Z18.22857
 Y133.00000
 X134.54286
 Y127.01025
G0 Z35.00000
 Y48.70384
G1 Z18.22857
 Y-3.00000
 X136.91429
 Y48.70384
G0 Z35.00000
 Y127.01025
G1 Z18.22857
 Y133.00000
 X139.28571
 Y127.01025
G0 Z35.00000
 Y48.70384
G1 Z18.22857
 Y-3.00000
 X141.65714
 Y48.70384
G0 Z35.00000
 Y127.01025
G1 Z18.22857
 Y133.00000
 X144.02857
 Y127.01025
G0 Z35.00000
 Y48.70384
G1 Z18.22857
 Y-3.00000
 X146.40000
 Y48.70384
G0 Z35.00000
 Y127.01025
G1 Z18.22857
 Y133.00000
 X148.77143
 Y127.01025
G0 Z35.00000
 Y48.70384
G1 Z18.22857
 Y-3.00000
 X151.14286
 Y48.70384
G0 Z35.00000
 Y127.01025
G1 Z18.22857
 Y133.00000
 X153.51429
 Y127.01025
G0 Z35.00000
 Y48.70384
G1 Z18.22857
 Y-3.00000
 X155.88571
 Y48.70384
G0 Z35.00000
 Y127.01025
G1 Z18.22857
 Y133.00000
 X158.25714
 Y127.01025
G0 Z35.00000
 Y48.70384
G1 Z18.22857
 Y-3.00000
 X160.62857
 Y48.76071
G0 Z35.00000
 Y126.95325
G1 Z18.22857
 Y133.00000
 X163.00000
 Y125.31294
G0 Z35.00000
 Y50.40103
G1 Z18.22857
 Y-3.00000
 Z17.24286
 X-3.00000
 Y-0.61404
 X163.00000
 Y1.77193
 X-3.00000
 Y4.15789
 X163.00000
 Y6.54386
 X-3.00000
 Y8.92982
 X163.00000
 Y11.31579
 X-3.00000
 Y13.70175
 X163.00000
 Y16.08772
 X-3.00000
 Y18.47368
 X163.00000
 Y20.85965
 X-3.00000
 Y23.24561
 X163.00000
 Y25.63158
 X-3.00000
 Y28.01754
 X163.00000
 Y30.40351
 X-3.00000
 Y32.78947
 X163.00000
 Y35.17544
 X-3.00000
 Y37.56140
 X163.00000
 Y39.94737
 X-3.00000
 Y42.33333
 X8.80026
G0 Z35.00000
 X161.19974
G1 Z17.24286
 X163.00000
G0 Z35.00000
 X5.83612 Y44.71930
G1 Z17.24286
 X-3.00000
 Y47.10526
 X4.02478
 X3.15743 Y49.49123
 X-3.00000
 Y51.87719
 X2.25940
 X1.47310 Y54.26316
 X-3.00000
 Y56.64912
 X0.95297
 X0.42057 Y59.03509
 X-3.00000
 Y61.42105
 X-0.13590
 X-0.62792 Y63.80702
 X-3.00000
 Y66.19298
 X-0.97284
 X-1.33252 Y68.57895
 X-3.00000
 Y70.96491
 X-1.69886
 X-2.07841 Y73.35088
 X-3.00000
 Y75.73684
 X-2.31481
 X-2.52906 Y78.12281
 X-3.00000
 Y80.50877
 X-2.75138
 X-2.97696 Y82.89474
 X-3.00000
G0 Z35.00000
 Y118.68421
G1 Z17.24286
 X-2.41208
 X-1.19795 Y121.07018
 X-3.00000
 Y123.45614
 X0.72804
G0 Z35.00000
 X163.00000 Y125.84211
G1 Z17.24286
 X162.78722
G0 Z35.00000
 X4.25311
G1 Z17.24286
 X-3.00000
 Y128.22807
 X163.00000
 Y130.61404
 X-3.00000
 Y133.00000
 X163.00000
 Y125.52795
G0 Z35.00000
 Y43.81851
G1 Z17.24286
 Y-3.00000
 X160.62857
 Y42.17819
G0 Z35.00000
 Y127.16827
G1 Z17.24286
 Y133.00000
 X158.25714
 Y127.22523
G0 Z35.00000
 Y42.12128
G1 Z17.24286
 Y-3.00000
 X155.88571
 Y42.12128
G0 Z35.00000
 Y127.22523
G1 Z17.24286
 Y133.00000
 X153.51429
 Y127.22523
G0 Z35.00000
 Y42.12128
G1 Z17.24286
 Y-3.00000
 X151.14286
 Y42.12128
G0 Z35.00000
 Y127.22523
G1 Z17.24286
 Y133.00000
 X148.77143
 Y127.22523
G0 Z35.00000
 Y42.12128
G1 Z17.24286
 Y-3.00000
 X146.40000
 Y42.12128
G0 Z35.00000
 Y127.22523
G1 Z17.24286
 Y133.00000
 X144.02857
 Y127.22523
G0 Z35.00000
 Y42.12128
G1 Z17.24286
 Y-3.00000
 X141.65714
 Y42.12128
G0 Z35.00000
 Y127.22523
G1 Z17.24286
 Y133.00000
 X139.28571
 Y127.22523
G0 Z35.00000
 Y42.12128
G1 Z17.24286
 Y-3.00000
 X136.91429
 Y42.12128
G0 Z35.00000
 Y127.22523
G1 Z17.24286
 Y133.00000
 X134.54286
 Y127.22523
G0 Z35.00000
 Y42.12128
G1 Z17.24286
 Y-3.00000
 X132.17143
 Y42.12128
G0 Z35.00000
 Y127.22523
G1 Z17.24286
 Y133.00000
 X129.80000
 Y127.22523
G0 Z35.00000
 Y42.12128
G1 Z17.24286
 Y-3.00000
 X127.42857
 Y42.12128
G0 Z35.00000
 Y127.22523
G1 Z17.24286
 Y133.00000
 X125.05714
 Y127.22523
G0 Z35.00000
 Y42.12128
G1 Z17.24286
 Y-3.00000
 X122.68571
 Y42.12128
G0 Z35.00000
 Y127.22523
G1 Z17.24286
 Y133.00000
 X120.31429
 Y127.22523
G0 Z35.00000
 Y42.12128
G1 Z17.24286
 Y-3.00000
 X117.94286
 Y42.12128
G0 Z35.00000
 Y127.22523
G1 Z17.24286
 Y133.00000
 X115.57143
 Y127.22523
G0 Z35.00000
 Y42.12128
G1 Z17.24286
 Y-3.00000
 X113.20000
 Y42.12128
G0 Z35.00000
 Y127.22523
G1 Z17.24286
 Y133.00000
 X110.82857
 Y127.22523
G0 Z35.00000
 Y42.12128
G1 Z17.24286
 Y-3.00000
 X108.45714
 Y42.12128
G0 Z35.00000
 Y127.22523
G1 Z17.24286
 Y133.00000
 X106.08571
 Y127.22523
G0 Z35.00000
 Y42.12128
G1 Z17.24286
 Y-3.00000
 X103.71429
 Y42.12128
G0 Z35.00000
 Y127.22523
G1 Z17.24286
 Y133.00000
 X101.34286
 Y127.22523
G0 Z35.00000
 Y42.12128
G1 Z17.24286
 Y-3.00000
 X98.97143
 Y42.12128
G0 Z35.00000
 Y127.22523
G1 Z17.24286
 Y133.00000
 X96.60000
 Y127.22523
G0 Z35.00000
 Y42.12128
G1 Z17.24286
 Y-3.00000
 X94.22857
 Y42.12128
G0 Z35.00000
 Y127.22523
G1 Z17.24286
 Y133.00000
 X91.85714
 Y127.22515
G0 Z35.00000
 Y42.12128
G1 Z17.24286
 Y-3.00000
 X89.48571
 Y42.12128
G0 Z35.00000
 Y127.22515
G1 Z17.24286
 Y133.00000
 X87.11429
 Y127.22515
G0 Z35.00000
 Y42.12128
G1 Z17.24286
 Y-3.00000
