G40 (disable tool radius compensation)
G49 (disable tool length compensation)
G80 (cancel modal motion)
G54 (select coordinate system 1)
G90 (disable incremental moves)
G21 (metric)
F2000.00000
S250.00000
G61 (exact path mode)
;PYCAM_TOOLPATH_SETTINGS: START
;[Bounds]
;maxz = 34.0
;maxx = 163.0
;maxy = 133.0
;minx = -3.0
;miny = -3.0
;minz = -0.5
;
;[Tool]
;torus_radius = 0.125
;shape = CylindricalCutter
;tool_radius = 3.0
;feedrate = 2000.0
;
;[Process]
;engrave_offset = 0.0
;step_down = 3.0
;generator = DropCutter
;postprocessor = PathAccumulator
;overlap_percent = 90
;milling_style = ignore
;material_allowance = 0.1
;pocketing_type = none
;path_direction = x
;
;PYCAM_TOOLPATH_SETTINGS: END
G0 Z35.00000
 X-3.00000 Y-3.00000
G1 Z-0.50000
 X8.28048
 X8.28194 Z0.00089
 X8.30968 Z0.02064
 X8.40315 Z0.08718
 X8.59009 Z0.22026
 X8.96396 Z0.48614
 X9.52477 Z0.88466
 X9.61824 Z0.95035
 X9.66498 Z0.97928
 X9.68834 Z0.99231
 X9.70003 Z0.99848
 X9.70587 Z1.00147
 X9.71171 Z1.00440
 X9.75845 Z1.02572
 X9.78181 Z1.03496
 X9.80518 Z1.04326
 X9.85191 Z1.05702
 X9.87528 Z1.06250
 X9.89865 Z1.06703
 X9.94538 Z1.07329
 X9.99212 Z1.07579
 X10.08559 Z1.07582
 X45.60360
 X46.35135 Z1.07580
 X159.99733
 X160.00317 Z1.07579
 X160.00609 Z1.07577
 X160.00901 Z1.07573
 X160.05574 Z1.07313
 X160.07911 Z1.07043
 X160.10248 Z1.06679
 X160.14921 Z1.05669
 X160.17258 Z1.05023
 X160.19595 Z1.04283
 X160.24268 Z1.02520
 X160.26605 Z1.01497
 X160.28941 Z1.00379
 X160.33615 Z0.97858
 X160.35952 Z0.96454
 X160.37120 Z0.95717
 X160.38288 Z0.94955
 X160.47635 Z0.87998
 X160.52309 Z0.83938
 X160.56982 Z0.79486
 X160.75676 Z0.57698
 X160.76844 Z0.56121
 X160.77428 Z0.55322
 X160.77720 Z0.54921
 X160.78012 Z0.54518
 X160.78158 Z-0.50000
 X163.00000
 Y-2.40088
 X162.25225
 X161.87838 Z0.89086
 X161.69144 Z1.59175
 X161.59797 Z1.90297
 X161.55124 Z2.04955
 X161.50450 Z2.19035
 X161.31757 Z2.69898
 X161.22410 Z2.92245
 X161.17736 Z3.02688
 X161.15400 Z3.07732
 X161.13063 Z3.12658
 X161.03716 Z3.31213
 X160.99043 Z3.39815
 X160.96706 Z3.43951
 X160.95538 Z3.45977
 X160.94954 Z3.46981
 X160.94369 Z3.47977
 X160.89696 Z3.55705
 X160.87359 Z3.59408
 X160.86191 Z3.61220
 X160.85607 Z3.62116
 X160.85461 Z3.62339
 X160.85388 Z3.62450
 X160.85351 Z3.62506
 X160.85333 Z3.62534
 X160.85324 Z3.62548
 X160.85315 Z3.62562
 X160.85023 Z3.62864
 X160.80349 Z3.66141
 X160.78012 Z3.67704
 X160.76844 Z3.68468
 X160.75676 Z3.69219
 X160.66329 Z3.74790
 X160.56982 Z3.79595
 X160.47635 Z3.83649
 X160.42962 Z3.85397
 X160.40625 Z3.86202
 X160.38288 Z3.86962
 X160.28941 Z3.89545
 X160.24268 Z3.90564
 X160.19595 Z3.91404
 X160.00901 Z3.92971
 X159.26126 Z3.92975
 X20.92793
 X20.18018 Z3.92976
 X10.08559
 X9.99212 Z3.92974
 X9.94538 Z3.92854
 X9.89865 Z3.92557
 X9.80518 Z3.91424
 X9.71171 Z3.89574
 X9.33784 Z3.77132
 X8.96396 Z3.63812
 X8.21622 Z3.14126
 X7.46847 Z2.60986
 X7.00113 Z2.27716
 X6.95439 Z2.24200
 X6.90766 Z2.20295
 X6.81419 Z2.11313
 X6.76745 Z2.06228
 X6.72072 Z2.00743
 X6.53378 Z1.74707
 X6.44032 Z1.59160
 X6.34685 Z1.41861
 X6.15991 Z1.02043
 X5.70425 Z0.00120
 X5.70279 Z-0.50000
 X-3.00000
 Y-1.80176
 X4.10360
 X4.47748 Z0.44278
 X5.22523 Z2.11777
 X5.84372 Z3.50125
 X5.84409 Z3.50205
 X5.84445 Z3.50276
 X5.85614 Z3.51681
 X5.97297 Z3.64805
 X6.15991 Z3.85729
 X6.25338 Z3.95727
 X6.30011 Z4.00389
 X6.34685 Z4.04831
 X6.44032 Z4.13071
 X6.53378 Z4.20477
 X6.62725 Z4.27072
 X6.67399 Z4.30073
 X6.72072 Z4.32879
 X7.46847 Z4.62396
 X8.21622 Z4.89036
 X8.96396 Z5.15632
 X9.52477 Z5.35534
 X9.61824 Z5.38752
 X9.66498 Z5.40130
 X9.68834 Z5.40751
 X9.71171 Z5.41326
 X10.45946 Z5.44728
 X74.76577
 X75.51351 Z5.44727
 X159.99733
 X160.00901 Z5.44723
 X160.10248 Z5.44297
 X160.19595 Z5.43156
 X160.28941 Z5.41297
 X160.33615 Z5.40096
 X160.35952 Z5.39428
 X160.38288 Z5.38714
 X160.47635 Z5.35401
 X160.52309 Z5.33467
 X160.56982 Z5.31347
 X160.66329 Z5.26542
 X160.71002 Z5.23853
 X160.73339 Z5.22436
 X160.75676 Z5.20971
 X160.94369 Z5.07459
 X161.03716 Z4.99476
 X161.13063 Z4.90639
 X161.31757 Z4.70275
 X161.41104 Z4.58670
 X161.45777 Z4.52491
 X161.48114 Z4.49305
 X161.50450 Z4.46053
 X162.25225 Z2.29029
 X163.00000 Z-0.50000
 Y-1.20264
 X162.81306 Z1.07538
 X162.71959 Z2.06104
 X162.67286 Z2.49933
 X162.64949 Z2.70736
 X162.62613 Z2.90869
 X162.57939 Z3.29300
 X162.55602 Z3.47674
 X162.54434 Z3.56665
 X162.53850 Z3.61113
 X162.53266 Z3.64067
 X162.48592 Z3.80389
 X162.43919 Z3.95873
 X162.34572 Z4.24625
 X162.29899 Z4.38014
 X162.25225 Z4.50812
 X162.06532 Z4.96836
 X161.97185 Z5.17156
 X161.87838 Z5.35919
 X161.69144 Z5.69298
 X161.59797 Z5.84119
 X161.55124 Z5.91100
 X161.52787 Z5.94486
 X161.50450 Z5.97805
 X161.31757 Z6.22028
 X161.22410 Z6.32670
 X161.17736 Z6.37644
 X161.13063 Z6.42392
 X161.03716 Z6.51228
 X160.94369 Z6.59212
 X160.85023 Z6.66369
 X160.80349 Z6.69645
 X160.78012 Z6.71209
 X160.76844 Z6.71972
 X160.75676 Z6.72723
 X160.66329 Z6.78294
 X160.56982 Z6.83100
 X160.47635 Z6.87153
 X160.42962 Z6.88902
 X160.40625 Z6.89707
 X160.38288 Z6.90466
 X160.28941 Z6.93049
 X160.24268 Z6.94069
 X160.19595 Z6.94908
 X160.00901 Z6.96475
 X159.26126 Z6.96479
 X130.09910
 X129.35135 Z6.96480
 X10.08559
 X9.99212 Z6.96479
 X9.94538 Z6.96359
 X9.89865 Z6.96061
 X9.80518 Z6.94929
 X9.71171 Z6.93078
 X8.96396 Z6.67385
 X8.21622 Z6.40850
 X7.46847 Z6.14260
 X7.00113 Z5.97610
 X6.95439 Z5.95917
 X6.90766 Z5.94058
 X6.81419 Z5.89779
 X6.76745 Z5.87356
 X6.74409 Z5.86074
 X6.72072 Z5.84743
 X6.53378 Z5.72341
 X6.44032 Z5.64935
 X6.34685 Z5.56695
 X5.97297 Z5.16709
 X5.22523 Z4.33030
 X4.47748 Z3.49037
 X4.10360 Z2.79696
 X3.91667 Z2.37776
 X3.72973 Z1.95335
 X3.35586 Z0.88898
 X3.16892 Z0.21400
 X3.14555 Z0.12194
 X3.13387 Z0.07523
 X3.12803 Z0.05170
 X3.12218 Z0.02806
 X3.11926 Z0.01619
 X3.11634 Z0.00430
 X3.11488 Z-0.50000
 X-3.00000
 Y-0.60352
 X2.23423
 X2.60811 Z1.08899
 X3.07545 Z3.02834
 X3.09882 Z3.12529
 X3.11050 Z3.17340
 X3.11634 Z3.19728
 X3.11926 Z3.20917
 X3.12218 Z3.22104
 X3.13387 Z3.26821
 X3.13533 Z3.27408
 X3.13606 Z3.27701
 X3.13679 Z3.27993
 X3.13825 Z3.28550
 X3.13971 Z3.28828
 X3.14555 Z3.29939
 X3.16892 Z3.34328
 X3.26239 Z3.51048
 X3.35586 Z3.66506
 X3.72973 Z4.17248
 X4.47748 Z5.01256
 X5.22523 Z5.85036
 X6.15991 Z6.89458
 X6.25338 Z6.99456
 X6.30011 Z7.04118
 X6.34685 Z7.08560
 X6.44032 Z7.16800
 X6.53378 Z7.24206
 X6.62725 Z7.30801
 X6.67399 Z7.33802
 X6.72072 Z7.36608
 X7.09459 Z7.52800
 X7.46847 Z7.66067
 X8.21622 Z7.81228
 X8.96396 Z7.95615
 X9.33784 Z8.02806
 X9.52477 Z8.06343
 X9.61824 Z8.07793
 X9.71171 Z8.08922
 X10.45946 Z8.10415
 X159.91554
 X160.00901 Z8.10413
 X160.19595 Z8.09726
 X160.28941 Z8.08910
 X160.38288 Z8.07776
 X160.56982 Z8.04543
 X160.66329 Z8.02435
 X160.71002 Z8.01255
 X160.73339 Z8.00633
 X160.74507 Z8.00314
 X160.75676 Z7.99990
 X160.94369 Z7.94060
 X161.03716 Z7.90557
 X161.08390 Z7.88665
 X161.10726 Z7.87684
 X161.11895 Z7.87185
 X161.12479 Z7.86932
 X161.13063 Z7.86679
 X161.17736 Z7.84595
 X161.20073 Z7.83516
 X161.21242 Z7.82968
 X161.21826 Z7.82691
 X161.22118 Z7.82552
 X161.22410 Z7.82413
 X161.23578 Z7.81851
 X161.24162 Z7.81568
 X161.24455 Z7.81426
 X161.24601 Z7.81355
 X161.24674 Z7.81319
 X161.24747 Z7.81284
 X161.25331 Z7.80997
 X161.25477 Z7.80926
 X161.25550 Z7.80890
 X161.25586 Z7.80872
 X161.25605 Z7.80863
 X161.25614 Z7.80858
 X161.25623 Z7.80854
 X161.25915 Z7.80542
 X161.27083 Z7.79219
 X161.31757 Z7.73780
 X161.41104 Z7.62175
 X161.45777 Z7.55996
 X161.50450 Z7.49557
 X161.69144 Z7.21050
 X161.87838 Z6.87671
 X162.06532 Z6.48589
 X162.15878 Z6.26545
 X162.20552 Z6.14812
 X162.25225 Z6.02565
 X163.00000 Z1.48800
G0 Z35.00000
 Y-0.00441
G1 Z4.12604
 X162.81306 Z5.44707
 X162.62613 Z6.32015
 X162.43919 Z6.99377
 X162.34572 Z7.28130
 X162.29899 Z7.41519
 X162.27562 Z7.47989
 X162.26394 Z7.51171
 X162.25809 Z7.52748
 X162.25517 Z7.53534
 X162.25225 Z7.54317
 X162.20552 Z7.66564
 X162.18215 Z7.72493
 X162.17047 Z7.75410
 X162.16463 Z7.76857
 X162.16170 Z7.77578
 X162.16024 Z7.77938
 X162.15951 Z7.78117
 X162.15878 Z7.78297
 X162.15294 Z7.79729
 X162.15148 Z7.80086
 X162.15075 Z7.80264
 X162.15039 Z7.80353
 X162.15002 Z7.80442
 X162.14856 Z7.80798
 X162.14710 Z7.80978
 X162.13542 Z7.82219
 X162.12373 Z7.83446
 X162.11205 Z7.84661
 X162.06532 Z7.89398
 X161.97185 Z7.98316
 X161.87838 Z8.06550
 X161.69144 Z8.21198
 X161.59797 Z8.27702
 X161.55124 Z8.30765
 X161.50450 Z8.33708
 X161.31757 Z8.44338
 X161.22410 Z8.49008
 X161.13063 Z8.53275
 X160.94369 Z8.60656
 X160.85023 Z8.63797
 X160.80349 Z8.65235
 X160.75676 Z8.66585
 X160.56982 Z8.71139
 X160.47635 Z8.72918
 X160.38288 Z8.74372
 X160.00901 Z8.77009
 X159.26126 Z8.77011
 X10.08559
 X9.89865 Z8.76827
 X9.71171 Z8.75518
 X8.96396 Z8.62228
 X8.21622 Z8.47845
 X6.90766 Z8.22668
 X6.81419 Z8.20780
 X6.76745 Z8.19718
 X6.72072 Z8.18572
 X6.53378 Z8.13131
 X6.44032 Z8.09883
 X6.34685 Z8.06268
 X6.15991 Z7.97889
 X5.97297 Z7.87869
 X5.78604 Z7.76618
 X5.41216 Z7.53971
 X5.22523 Z7.36901
 X4.47748 Z6.53364
 X4.10360 Z6.11479
 X3.77646 Z5.74732
 X3.72973 Z5.69467
 X3.54279 Z5.46185
 X3.44932 Z5.33007
 X3.35586 Z5.18725
 X2.98198 Z4.49192
 X2.60811 Z3.71578
 X2.42117 Z3.32524
 X2.23423 Z2.73045
 X1.86036 Z1.17896
 X1.67342 Z0.40024
 X1.57740 Z0.00020
 X1.57722 Z-0.50000
 X-3.00000
 Y0.59471
 X0.73874
 X1.11261 Z1.26521
 X1.29955 Z2.04399
 X1.39302 Z2.43256
 X1.48649 Z2.82043
 X2.23423 Z4.46359
 X2.60811 Z5.23888
 X2.98198 Z6.01411
 X3.16892 Z6.38766
 X3.26239 Z6.55486
 X3.30912 Z6.63367
 X3.35586 Z6.70944
 X3.44932 Z6.85226
 X3.49606 Z6.91949
 X3.51943 Z6.95209
 X3.54279 Z6.98404
 X3.58953 Z7.04598
 X3.61289 Z7.07600
 X3.62458 Z7.09078
 X3.63042 Z7.09811
 X3.63626 Z7.10540
 X3.65963 Z7.13417
 X3.66255 Z7.13772
 X3.66401 Z7.13950
 X3.66547 Z7.14127
 X3.66693 Z7.14304
 X3.66766 Z7.14392
 X3.66839 Z7.14461
 X3.67131 Z7.14703
 X3.68300 Z7.15617
 X3.72973 Z7.18742
 X5.22523 Z8.09332
 X5.59910 Z8.31953
 X5.92624 Z8.51707
 X5.97297 Z8.54486
 X6.15991 Z8.64505
 X6.25338 Z8.68891
 X6.34685 Z8.72885
 X6.53378 Z8.79748
 X6.72072 Z8.85188
 X7.46847 Z9.00075
 X8.21622 Z9.14461
 X8.96396 Z9.28823
 X9.33784 Z9.35998
 X9.52477 Z9.39534
 X9.61824 Z9.40984
 X9.71171 Z9.42113
 X10.45946 Z9.43606
 X159.91554 Z9.43607
 X160.00901 Z9.43605
 X160.19595 Z9.42917
 X160.28941 Z9.42101
 X160.38288 Z9.40968
 X160.56982 Z9.37735
 X160.66329 Z9.35626
 X160.71002 Z9.34446
 X160.75676 Z9.33181
 X160.94369 Z9.27252
 X161.03716 Z9.23748
 X161.13063 Z9.19870
 X161.31757 Z9.10934
 X161.41104 Z9.05841
 X161.45777 Z9.03129
 X161.50450 Z9.00304
 X161.69144 Z8.87793
 X161.78491 Z8.80756
 X161.87838 Z8.73145
 X162.06532 Z8.55994
 X162.15878 Z8.46320
 X162.20552 Z8.41171
 X162.22889 Z8.38513
 X162.24057 Z8.37162
 X162.25225 Z8.35797
 X163.00000 Z5.64357
G0 Z35.00000
 Y1.19383
G1 Z7.16109
 X162.95327 Z7.56998
 X162.92990 Z7.74807
 X162.92406 Z7.79048
 X162.92260 Z7.80097
 X162.92187 Z7.80619
 X162.92150 Z7.80858
 X162.92114 Z7.80972
 X162.91822 Z7.81882
 X162.90653 Z7.85444
 X162.81306 Z8.10406
 X162.71959 Z8.31006
 X162.67286 Z8.40165
 X162.62613 Z8.48721
 X162.53266 Z8.64325
 X162.43919 Z8.78282
 X162.34572 Z8.90900
 X162.29899 Z8.96776
 X162.25225 Z9.02392
 X162.06532 Z9.22590
 X161.97185 Z9.31507
 X161.87838 Z9.39741
 X161.69144 Z9.54389
 X161.59797 Z9.60893
 X161.55124 Z9.63957
 X161.50450 Z9.66899
 X161.31757 Z9.77529
 X161.22410 Z9.82200
 X161.13063 Z9.86466
 X160.94369 Z9.93847
 X160.85023 Z9.96988
 X160.80349 Z9.98426
 X160.75676 Z9.99777
 X160.56982 Z10.04330
 X160.47635 Z10.06109
 X160.38288 Z10.07563
 X160.00901 Z10.10200
 X159.26126 Z10.10201
 X142.06306
 X141.31532 Z10.10202
 X10.08559
 X9.89865 Z10.10018
 X9.71171 Z10.08709
 X8.96396 Z9.95419
 X8.21622 Z9.81071
 X7.46847 Z9.66691
 X6.90766 Z9.55901
 X6.81419 Z9.54013
 X6.76745 Z9.52951
 X6.72072 Z9.51805
 X6.53378 Z9.46364
 X6.44032 Z9.43116
 X6.34685 Z9.39501
 X5.97297 Z9.21102
 X5.22523 Z8.75994
 X4.47748 Z8.30722
 X3.54279 Z7.74104
 X3.44932 Z7.68314
 X3.35586 Z7.62058
 X3.16892 Z7.47961
 X3.07545 Z7.40038
 X3.02872 Z7.35836
 X3.00535 Z7.33672
 X2.98198 Z7.31464
 X2.23423 Z5.98584
 X1.48649 Z4.43031
 X1.01914 Z3.45395
 X0.92568 Z3.25727
 X0.73874 Z2.75197
 X0.55180 Z1.66149
 X0.45833 Z1.03462
 X0.31229 Z0.00273
 X0.31083 Z-0.50000
 X-3.00000
 Y1.79295
 X-0.38288
 X-0.00901 Z0.93389
 X0.24803 Z2.75000
 X0.27140 Z2.86846
 X0.36486 Z3.20054
 X0.55180 Z3.82664
 X0.73874 Z4.34744
 X1.11261 Z5.17811
 X1.29955 Z5.56866
 X1.39302 Z5.76375
 X1.83699 Z6.68434
 X1.84868 Z6.70699
 X1.86036 Z6.72668
 X2.23423 Z7.15879
 X2.60811 Z7.57844
 X2.79505 Z7.78764
 X2.88851 Z7.88856
 X2.93525 Z7.93597
 X2.98198 Z7.98149
 X3.72973 Z8.52113
 X4.47748 Z8.97408
 X5.22523 Z9.42611
 X5.92624 Z9.84940
 X5.97297 Z9.87719
 X6.15991 Z9.97738
 X6.25338 Z10.02124
 X6.34685 Z10.06118
 X6.53378 Z10.12981
 X6.72072 Z10.18421
 X7.46847 Z10.33308
 X8.21622 Z10.47666
 X9.33784 Z10.69189
 X9.52477 Z10.72725
 X9.61824 Z10.74175
 X9.71171 Z10.75304
 X10.45946 Z10.76798
 X89.72072
 X90.46847 Z10.76797
 X159.91554
 X160.00901 Z10.76795
 X160.19595 Z10.76108
 X160.28941 Z10.75292
 X160.38288 Z10.74158
 X160.56982 Z10.70926
 X160.66329 Z10.68817
 X160.71002 Z10.67637
 X160.75676 Z10.66372
 X160.94369 Z10.60443
 X161.03716 Z10.56939
 X161.13063 Z10.53061
 X161.31757 Z10.44125
 X161.41104 Z10.39032
 X161.45777 Z10.36320
 X161.50450 Z10.33495
 X161.69144 Z10.20984
 X161.78491 Z10.13947
 X161.87838 Z10.06336
 X162.06532 Z9.89185
 X162.15878 Z9.79512
 X162.20552 Z9.74363
 X162.22889 Z9.71705
 X162.25225 Z9.68988
 X163.00000 Z8.19029
G0 Z35.00000
 Y2.39207
G1 Z8.85625
 X162.90653 Z9.18635
 X162.81306 Z9.43597
 X162.71959 Z9.64197
 X162.67286 Z9.73357
 X162.62613 Z9.81912
 X162.53266 Z9.97516
 X162.43919 Z10.11474
 X162.34572 Z10.24091
 X162.29899 Z10.29967
 X162.25225 Z10.35583
 X162.06532 Z10.55781
 X161.97185 Z10.64698
 X161.87838 Z10.72932
 X161.69144 Z10.87580
 X161.59797 Z10.94084
 X161.55124 Z10.97147
 X161.50450 Z11.00090
 X161.31757 Z11.10720
 X161.22410 Z11.15390
 X161.13063 Z11.19656
 X160.94369 Z11.27038
 X160.85023 Z11.30179
 X160.80349 Z11.31616
 X160.75676 Z11.32967
 X160.56982 Z11.37521
 X160.47635 Z11.39300
 X160.38288 Z11.40754
 X160.00901 Z11.43391
 X159.26126 Z11.43393
 X38.87387
 X38.12613 Z11.43394
 X10.08559
 X9.89865 Z11.43209
 X9.71171 Z11.41900
 X8.96396 Z11.28611
 X7.46847 Z10.99914
 X7.09459 Z10.92731
 X6.90766 Z10.89135
 X6.81419 Z10.87247
 X6.76745 Z10.86184
 X6.72072 Z10.85038
 X6.53378 Z10.79597
 X6.44032 Z10.76349
 X6.34685 Z10.72734
 X5.97297 Z10.54335
 X5.22523 Z10.09228
 X4.47748 Z9.64077
 X3.72973 Z9.18798
 X3.54279 Z9.07474
 X3.44932 Z9.01685
 X3.35586 Z8.95428
 X3.16892 Z8.81331
 X2.98198 Z8.64834
 X2.23423 Z7.82690
 X1.86036 Z7.40691
 X1.11261 Z6.56667
 X1.01914 Z6.46155
 X0.99578 Z6.43330
 X0.98409 Z6.41797
 X0.97825 Z6.40992
 X0.97241 Z6.40156
 X0.92568 Z6.31506
 X0.73874 Z5.87633
 X0.36486 Z4.72943
 X-0.00901 Z3.40711
 X-0.38288 Z1.49359
 X-0.47635 Z0.83318
 X-0.52309 Z0.50171
 X-0.59319 Z0.00388
 X-0.59465 Z-0.50000
 X-3.00000
 Y2.99119
 X-1.50450
 X-0.75676 Z2.05329
 X-0.38288 Z3.61185
 X-0.19595 Z4.27625
 X0.38677 Z6.33575
 X0.38750 Z6.33834
 X0.38823 Z6.34090
 X0.39115 Z6.35072
 X0.39261 Z6.35543
 X0.39407 Z6.35816
 X0.39992 Z6.36739
 X0.41160 Z6.38564
 X0.45833 Z6.45626
 X0.50507 Z6.52331
 X0.55180 Z6.58712
 X0.73874 Z6.81479
 X1.48649 Z7.65503
 X2.23423 Z8.49375
 X2.79505 Z9.12134
 X2.88851 Z9.22226
 X2.93525 Z9.26967
 X2.98198 Z9.31519
 X3.72973 Z9.85483
 X4.47748 Z10.30694
 X5.92624 Z11.18173
 X5.97297 Z11.20952
 X6.15991 Z11.30972
 X6.25338 Z11.35358
 X6.34685 Z11.39351
 X6.53378 Z11.46214
 X6.62725 Z11.49107
 X6.72072 Z11.51654
 X7.46847 Z11.63270
 X8.21622 Z11.73840
 X8.96396 Z11.84408
 X9.71171 Z11.91651
 X10.45946 Z11.92253
 X19.43243
 X20.18018 Z11.92250
 X159.26126
 X160.00901 Z11.92247
 X160.38288 Z11.91193
 X160.56982 Z11.89900
 X160.66329 Z11.89057
 X160.71002 Z11.88585
 X160.75676 Z11.88080
 X160.94369 Z11.85709
 X161.03716 Z11.84308
 X161.08390 Z11.83552
 X161.10726 Z11.83160
 X161.11895 Z11.82960
 X161.13063 Z11.82758
 X161.17736 Z11.81925
 X161.20073 Z11.81493
 X161.22410 Z11.81052
 X161.23578 Z11.80827
 X161.24162 Z11.80714
 X161.24455 Z11.80657
 X161.24601 Z11.80629
 X161.24747 Z11.80600
 X161.25331 Z11.80486
 X161.25477 Z11.80457
 X161.25550 Z11.80443
 X161.25586 Z11.80436
 X161.25605 Z11.80432
 X161.25623 Z11.80426
 X161.25915 Z11.80282
 X161.27083 Z11.79702
 X161.31757 Z11.77315
 X161.41104 Z11.72222
 X161.45777 Z11.69511
 X161.50450 Z11.66685
 X161.69144 Z11.54175
 X161.78491 Z11.47138
 X161.87838 Z11.39527
 X162.06532 Z11.22376
 X162.15878 Z11.12702
 X162.20552 Z11.07553
 X162.22889 Z11.04895
 X162.25225 Z11.02179
 X163.00000 Z9.52221
G0 Z35.00000
 Y3.59031
G1 Z10.18816
 X162.90653 Z10.51826
 X162.81306 Z10.76788
 X162.71959 Z10.97388
 X162.67286 Z11.06547
 X162.62613 Z11.15103
 X162.53266 Z11.30706
 X162.43919 Z11.44664
 X162.34572 Z11.57282
 X162.29899 Z11.63158
 X162.27562 Z11.65997
 X162.26394 Z11.67393
 X162.25809 Z11.68085
 X162.25517 Z11.68430
 X162.25225 Z11.68774
 X162.20552 Z11.74148
 X162.18215 Z11.76750
 X162.17047 Z11.78030
 X162.16463 Z11.78666
 X162.16170 Z11.78982
 X162.16024 Z11.79140
 X162.15951 Z11.79219
 X162.15878 Z11.79297
 X162.06532 Z11.83845
 X161.97185 Z11.87410
 X161.87838 Z11.90702
 X161.69144 Z11.96559
 X161.50450 Z12.01561
 X161.13063 Z12.09384
 X160.75676 Z12.14706
 X160.00901 Z12.18874
 X159.26126 Z12.18876
 X41.11712
 X40.36937 Z12.18878
 X10.45946
 X9.71171 Z12.18278
 X8.96396 Z12.11033
 X7.46847 Z11.89897
 X6.72072 Z11.79328
 X6.34685 Z11.73908
 X6.15991 Z11.70560
 X6.06644 Z11.68644
 X5.97297 Z11.66556
 X5.78604 Z11.61829
 X5.69257 Z11.59167
 X5.64583 Z11.57756
 X5.59910 Z11.56288
 X5.22523 Z11.39520
 X4.47748 Z10.97310
 X3.72973 Z10.52160
 X3.54279 Z10.40844
 X3.44932 Z10.35055
 X3.35586 Z10.28798
 X3.16892 Z10.14702
 X2.98198 Z9.98204
 X2.23423 Z9.16060
 X1.48649 Z8.32328
 X0.73874 Z7.48303
 X0.55180 Z7.25536
 X0.45833 Z7.12451
 X0.36486 Z6.97930
 X0.17793 Z6.63881
 X0.08446 Z6.46083
 X-0.00901 Z6.28196
 X-0.38288 Z5.14445
 X-0.75676 Z3.81660
 X-1.13063 Z2.48100
 X-1.31757 Z1.13198
 X-1.41104 Z0.23597
 X-1.42272 Z0.11415
 X-1.42856 Z0.05230
 X-1.43148 Z0.02114
 X-1.43294 Z0.00549
 X-1.43367 Z-0.50000
 X-3.00000
 Y4.18943
 X-2.25225
 X-1.50450 Z2.37222
 X-1.13063 Z4.02134
 X-0.94369 Z4.68914
 X-0.85023 Z5.02161
 X-0.75676 Z5.35196
 X-0.38288 Z6.23747
 X-0.00901 Z6.95142
 X0.17793 Z7.30705
 X0.27140 Z7.48448
 X0.31813 Z7.56853
 X0.36486 Z7.64754
 X0.73874 Z8.15128
 X1.48649 Z8.99066
 X2.79505 Z10.45505
 X2.88851 Z10.55596
 X2.93525 Z10.60337
 X2.95861 Z10.62636
 X2.97030 Z10.63769
 X2.98198 Z10.64889
 X3.72973 Z11.02312
 X5.22523 Z11.68810
 X5.41216 Z11.76425
 X5.59910 Z11.82909
 X5.78604 Z11.88450
 X5.97297 Z11.93177
 X6.72072 Z12.05949
 X7.46847 Z12.16523
 X8.96396 Z12.37659
 X9.71171 Z12.44905
 X10.45946 Z12.45504
 X62.05405
 X62.80180 Z12.45501
 X160.00901
 X160.38288 Z12.44446
 X160.75676 Z12.41333
 X161.13063 Z12.36011
 X161.31757 Z12.32438
 X161.50450 Z12.28188
 X161.69144 Z12.23186
 X161.87838 Z12.17329
 X162.06532 Z12.10472
 X162.15878 Z12.06604
 X162.20552 Z12.04545
 X162.22889 Z12.03482
 X162.24057 Z12.02942
 X162.24641 Z12.02670
 X162.25225 Z12.02396
 X163.00000 Z10.85411
G0 Z35.00000
 Y4.78855
G1 Z11.52007
 X162.95327 Z11.69950
 X162.94158 Z11.73936
 X162.93574 Z11.75869
 X162.93282 Z11.76822
 X162.93136 Z11.77295
 X162.93063 Z11.77531
 X162.92990 Z11.77766
 X162.92406 Z11.79627
 X162.92260 Z11.80087
 X162.92187 Z11.80316
 X162.92150 Z11.80430
 X162.92114 Z11.80476
 X162.91822 Z11.80840
 X162.90653 Z11.82264
 X162.85980 Z11.87530
 X162.81306 Z11.92244
 X162.71959 Z12.00481
 X162.67286 Z12.04143
 X162.62613 Z12.07564
 X162.43919 Z12.19383
 X162.34572 Z12.24428
 X162.25225 Z12.29023
 X162.06532 Z12.37098
 X161.87838 Z12.43956
 X161.69144 Z12.49813
 X161.50450 Z12.54815
 X161.13063 Z12.62638
 X160.75676 Z12.67960
 X160.00901 Z12.72128
 X84.48649 Z12.72127
 X83.73874 Z12.72130
 X10.45946
 X9.71171 Z12.71531
 X8.96396 Z12.64284
 X8.21622 Z12.53716
 X7.46847 Z12.43147
 X6.72072 Z12.32571
 X6.34685 Z12.27151
 X6.15991 Z12.23802
 X5.97297 Z12.19798
 X5.78604 Z12.15071
 X5.59910 Z12.09530
 X5.22523 Z11.95431
 X3.16892 Z11.03997
 X3.07545 Z10.99841
 X3.02872 Z10.97762
 X2.98198 Z10.95682
 X2.79505 Z10.87363
 X2.70158 Z10.82974
 X2.65484 Z10.80627
 X2.63148 Z10.79412
 X2.60811 Z10.78169
 X2.56137 Z10.75588
 X2.51464 Z10.72875
 X2.50296 Z10.72174
 X2.49711 Z10.71820
 X2.49419 Z10.71643
 X2.49127 Z10.71464
 X2.46791 Z10.69603
 X2.42117 Z10.65268
 X2.23423 Z10.47337
 X1.48649 Z9.65751
 X1.11261 Z9.23912
 X0.92568 Z9.02958
 X0.73874 Z8.81952
 X-0.00901 Z7.61966
 X-0.38288 Z6.90841
 X-0.56982 Z6.55071
 X-1.13063 Z5.47753
 X-1.50450 Z3.91257
 X-1.69144 Z2.69610
 X-1.78491 Z1.93595
 X-1.86669 Z0.86162
 X-1.87254 Z0.78486
 X-1.93095 Z0.01748
 X-1.93241 Z-0.50000
 X-3.00000
 Y5.38767
 X-2.25225
 X-1.87838 Z3.00503
 X-1.55124 Z5.16002
 X-1.53956 Z5.23636
 X-1.53371 Z5.27374
 X-1.53079 Z5.29222
 X-1.52933 Z5.30141
 X-1.52860 Z5.30600
 X-1.52787 Z5.31057
 X-1.50450 Z5.38324
 X-0.75676 Z6.86395
 X-0.00901 Z8.28791
 X0.17793 Z8.64353
 X0.27140 Z8.82096
 X0.31813 Z8.90501
 X0.36486 Z8.98403
 X0.45833 Z9.12923
 X0.55180 Z9.26008
 X0.64527 Z9.37899
 X0.73874 Z9.48138
 X1.48649 Z10.17640
 X1.86036 Z10.48685
 X2.23423 Z10.79478
 X2.42117 Z10.93601
 X2.51464 Z10.99484
 X2.60811 Z11.04778
 X2.98198 Z11.22291
 X3.72973 Z11.55555
 X5.03829 Z12.13741
 X5.22523 Z12.22052
 X5.41216 Z12.29667
 X5.59910 Z12.36151
 X5.78604 Z12.41693
 X5.97297 Z12.46419
 X6.72072 Z12.59193
 X7.46847 Z12.69768
 X8.21622 Z12.80342
 X8.96396 Z12.90910
 X9.71171 Z12.98158
 X10.45946 Z12.98755
 X105.42342
 X106.17117 Z12.98753
 X159.26126
 X160.00901 Z12.98754
 X160.38288 Z12.97700
 X160.75676 Z12.94587
 X161.13063 Z12.89265
 X161.31757 Z12.85692
 X161.50450 Z12.81441
 X161.69144 Z12.76439
 X161.87838 Z12.70583
 X162.06532 Z12.63725
 X162.15878 Z12.59857
 X162.20552 Z12.57799
 X162.22889 Z12.56736
 X162.25225 Z12.55650
 X163.00000 Z11.95692
G0 Z35.00000
 Y5.98678
G1 Z12.22319
 X162.95327 Z12.29493
 X162.90653 Z12.35517
 X162.85980 Z12.40783
 X162.81306 Z12.45498
 X162.71959 Z12.53734
 X162.67286 Z12.57397
 X162.62613 Z12.60817
 X162.43919 Z12.72637
 X162.34572 Z12.77682
 X162.25225 Z12.82276
 X162.06532 Z12.90352
 X161.87838 Z12.97209
 X161.69144 Z13.03066
 X161.50450 Z13.08068
 X161.13063 Z13.15891
 X160.75676 Z13.21213
 X160.00901 Z13.25381
 X159.26126 Z13.25378
 X127.85586
 X127.10811 Z13.25381
 X10.45946
 X9.71171 Z13.24785
 X8.96396 Z13.17536
 X8.21622 Z13.06966
 X6.72072 Z12.85815
 X6.34685 Z12.80393
 X6.15991 Z12.77045
 X5.97297 Z12.73041
 X5.78604 Z12.68314
 X5.59910 Z12.62772
 X5.22523 Z12.48673
 X4.47748 Z12.15426
 X3.72973 Z11.82172
 X2.98198 Z11.48900
 X2.79505 Z11.40581
 X2.70158 Z11.36192
 X2.65484 Z11.33846
 X2.60811 Z11.31387
 X2.23423 Z11.06087
 X0.36486 Z9.52121
 X0.27140 Z9.44406
 X0.25971 Z9.43435
 X0.25387 Z9.42949
 X0.25095 Z9.42706
 X0.24803 Z9.42462
 X0.24219 Z9.41975
 X0.23927 Z9.41732
 X0.23781 Z9.41610
 X0.23708 Z9.41549
 X0.23635 Z9.41488
 X0.23342 Z9.41244
 X0.23196 Z9.41122
 X0.23123 Z9.41061
 X0.23087 Z9.41030
 X0.23060 Z9.41007
 X0.23050 Z9.41000
 X0.22466 Z9.40003
 X0.17793 Z9.31177
 X-0.75676 Z7.53364
 X-1.13063 Z6.81946
 X-1.31757 Z6.46173
 X-1.41104 Z6.27419
 X-1.45777 Z6.16916
 X-1.50450 Z6.05420
 X-1.69144 Z5.45374
 X-1.73818 Z5.28792
 X-1.76154 Z5.20459
 X-1.78491 Z5.12112
 X-1.87838 Z4.54538
 X-2.06532 Z3.31396
 X-2.15878 Z2.68877
 X-2.25225 Z2.06305
 X-3.00000 Z-0.50000
 Y6.58590
 X-2.25225 Z3.62289
 X-1.87838 Z5.46473
 X-1.69144 Z6.12471
 X-1.59797 Z6.45288
 X-1.55124 Z6.59754
 X-1.50450 Z6.72517
 X-0.75676 Z8.20189
 X-0.38288 Z8.88012
 X-0.19595 Z9.17045
 X-0.10248 Z9.30667
 X-0.05574 Z9.37293
 X-0.03238 Z9.40567
 X-0.00901 Z9.43763
 X0.73874 Z10.09524
 X2.23423 Z11.32696
 X2.42117 Z11.46819
 X2.51464 Z11.52703
 X2.60811 Z11.57996
 X2.98198 Z11.75509
 X3.72973 Z12.08781
 X4.47748 Z12.42048
 X5.03829 Z12.66984
 X5.22523 Z12.75294
 X5.41216 Z12.82909
 X5.59910 Z12.89394
 X5.78604 Z12.94935
 X5.97297 Z12.99662
 X6.72072 Z13.12436
 X8.21622 Z13.33587
 X8.96396 Z13.44161
 X9.71171 Z13.51411
 X10.45946 Z13.52007
 X148.04505
 X148.79279 Z13.52004
 X159.26126
 X160.00901 Z13.52008
 X160.38288 Z13.50953
 X160.75676 Z13.47840
 X161.13063 Z13.42518
 X161.31757 Z13.38945
 X161.50450 Z13.34695
 X161.69144 Z13.29693
 X161.87838 Z13.23836
 X162.06532 Z13.16979
 X162.15878 Z13.13111
 X162.20552 Z13.11052
 X162.22889 Z13.09989
 X162.25225 Z13.08903
 X163.00000 Z12.48946
G0 Z35.00000
 Y7.18502
G1 Z12.75572
 X162.95327 Z12.82747
 X162.90653 Z12.88771
 X162.85980 Z12.94037
 X162.81306 Z12.98751
 X162.71959 Z13.06988
 X162.67286 Z13.10650
 X162.62613 Z13.14071
 X162.43919 Z13.25890
 X162.34572 Z13.30935
 X162.25225 Z13.35530
 X162.06532 Z13.43605
 X161.87838 Z13.50463
 X161.69144 Z13.56320
 X161.59797 Z13.58920
 X161.55124 Z13.60145
 X161.50450 Z13.61322
 X160.75676 Z13.68609
 X160.00901 Z13.69896
 X159.26126 Z13.69894
 X10.45946
 X9.71171 Z13.69713
 X8.96396 Z13.67450
 X8.21622 Z13.59312
 X7.46847 Z13.49017
 X6.72072 Z13.38679
 X6.34685 Z13.33492
 X6.15991 Z13.30287
 X5.97297 Z13.26283
 X5.78604 Z13.21556
 X5.59910 Z13.16015
 X5.22523 Z13.01916
 X4.47748 Z12.68662
 X2.79505 Z11.93800
 X2.70158 Z11.89411
 X2.65484 Z11.87064
 X2.60811 Z11.84606
 X2.23423 Z11.59305
 X1.48649 Z10.97719
 X0.73874 Z10.36116
 X0.22466 Z9.93745
 X0.17793 Z9.89860
 X0.13119 Z9.85698
 X0.08446 Z9.81141
 X-0.00901 Z9.70347
 X-0.75676 Z8.65844
 X-0.94369 Z8.39417
 X-1.03716 Z8.25551
 X-1.13063 Z8.11079
 X-1.22410 Z7.95881
 X-1.31757 Z7.79786
 X-1.41104 Z7.61612
 X-1.50450 Z7.39614
 X-1.87838 Z6.13570
 X-2.06532 Z5.47537
 X-2.25225 Z4.80869
 X-3.00000 Z-0.50000
 Y7.78414
 X-2.81306 Z0.78700
 X-2.71959 Z3.12161
 X-2.67286 Z3.72693
 X-2.64949 Z3.96347
 X-2.63781 Z4.07176
 X-2.62613 Z4.15147
 X-2.25225 Z5.48575
 X-1.87838 Z6.80667
 X-1.63302 Z7.67289
 X-1.62718 Z7.69352
 X-1.62426 Z7.70377
 X-1.62280 Z7.70887
 X-1.62207 Z7.71142
 X-1.62171 Z7.71269
 X-1.62152 Z7.71332
 X-1.62134 Z7.71396
 X-1.59797 Z7.74781
 X-0.03238 Z9.93732
 X-0.00901 Z9.96930
 X0.73874 Z10.62698
 X1.48649 Z11.24329
 X1.86036 Z11.55121
 X2.23423 Z11.85914
 X2.42117 Z12.00038
 X2.51464 Z12.05921
 X2.60811 Z12.11215
 X2.98198 Z12.28727
 X5.13176 Z13.24384
 X5.17849 Z13.26462
 X5.20186 Z13.27501
 X5.22523 Z13.28537
 X5.97297 Z13.41363
 X6.72072 Z13.51271
 X7.46847 Z13.61172
 X8.21622 Z13.70371
 X8.96396 Z13.75678
 X9.71171 Z13.77942
 X10.45946 Z13.78123
 X160.00901 Z13.78122
 X160.75676 Z13.76835
 X161.50450 Z13.72774
 X161.69144 Z13.71228
 X161.78491 Z13.70359
 X161.87838 Z13.69419
 X161.97185 Z13.68402
 X162.01858 Z13.67862
 X162.04195 Z13.67584
 X162.05363 Z13.67443
 X162.06532 Z13.67301
 X162.11205 Z13.66715
 X162.13542 Z13.66414
 X162.14710 Z13.66260
 X162.15294 Z13.66183
 X162.15586 Z13.66145
 X162.15878 Z13.66106
 X162.20552 Z13.64306
 X162.22889 Z13.63243
 X162.25225 Z13.62157
 X163.00000 Z13.02199
G0 Z35.00000
 Y8.38326
G1 Z13.28826
 X162.95327 Z13.36000
 X162.90653 Z13.42024
 X162.85980 Z13.47290
 X162.81306 Z13.52005
 X162.76633 Z13.56294
 X162.74296 Z13.58306
 X162.71959 Z13.60241
 X162.69623 Z13.62105
 X162.68454 Z13.63012
 X162.67870 Z13.63460
 X162.67578 Z13.63682
 X162.67286 Z13.63903
 X162.66118 Z13.64780
 X162.65534 Z13.65213
 X162.65241 Z13.65428
 X162.65095 Z13.65535
 X162.65022 Z13.65588
 X162.64986 Z13.65615
 X162.64949 Z13.65642
 X162.62613 Z13.66402
 X162.25225 Z13.73032
 X161.50450 Z13.81000
 X160.75676 Z13.85061
 X160.00901 Z13.86348
 X159.26126 Z13.86351
 X10.45946
 X9.71171 Z13.86170
 X8.96396 Z13.83907
 X8.21622 Z13.78600
 X7.46847 Z13.69399
 X5.97297 Z13.49606
 X5.59910 Z13.44653
 X5.27196 Z13.40320
 X5.22523 Z13.39692
 X5.03829 Z13.36901
 X4.94482 Z13.35297
 X4.89809 Z13.34431
 X4.87472 Z13.33981
 X4.85135 Z13.33518
 X4.47748 Z13.18243
 X3.72973 Z12.85985
 X3.35586 Z12.69802
 X2.98198 Z12.53583
 X2.79505 Z12.45458
 X2.70158 Z12.41392
 X2.65484 Z12.39358
 X2.63148 Z12.38341
 X2.60811 Z12.37324
 X2.51464 Z12.32530
 X2.42117 Z12.26647
 X2.23423 Z12.12523
 X1.48649 Z11.50911
 X0.22466 Z10.46910
 X0.17793 Z10.43027
 X0.13119 Z10.38865
 X0.08446 Z10.34308
 X-0.00901 Z10.23514
 X-0.75676 Z9.19009
 X-1.13063 Z8.66721
 X-1.59797 Z8.01312
 X-1.62134 Z7.98032
 X-1.64471 Z7.94528
 X-1.66807 Z7.90626
 X-1.69144 Z7.86162
 X-1.78491 Z7.62667
 X-1.87838 Z7.38421
 X-2.06532 Z6.81766
 X-2.25225 Z6.15769
 X-3.00000 Z-0.50000
 Y8.98238
 X-2.81306 Z4.06694
 X-2.76633 Z4.58813
 X-2.74296 Z4.84869
 X-2.71959 Z5.04856
 X-2.67286 Z5.31126
 X-2.62613 Z5.50557
 X-2.43919 Z6.15922
 X-2.25225 Z6.68178
 X-1.73818 Z8.01299
 X-1.71481 Z8.07348
 X-1.70312 Z8.10162
 X-1.69144 Z8.12692
 X-1.50450 Z8.40924
 X-0.75676 Z9.45578
 X-0.38288 Z9.97878
 X-0.03238 Z10.46897
 X-0.00901 Z10.50097
 X0.73874 Z11.15863
 X1.48649 Z11.77490
 X1.86036 Z12.08164
 X2.04730 Z12.23432
 X2.09403 Z12.27242
 X2.11740 Z12.29146
 X2.14077 Z12.31049
 X2.16413 Z12.32951
 X2.17582 Z12.33903
 X2.18166 Z12.34378
 X2.18458 Z12.34616
 X2.18750 Z12.34853
 X2.23423 Z12.37108
 X2.98198 Z12.68616
 X3.72973 Z13.00030
 X4.10360 Z13.15704
 X4.29054 Z13.23532
 X4.38401 Z13.27444
 X4.43074 Z13.29400
 X4.47748 Z13.31355
 X5.22523 Z13.47914
 X5.97297 Z13.57827
 X6.72072 Z13.67731
 X7.46847 Z13.77627
 X8.21622 Z13.86828
 X8.96396 Z13.92135
 X9.71171 Z13.94399
 X10.45946 Z13.94580
 X159.26126
 X160.00901 Z13.94574
 X160.75676 Z13.93287
 X161.50450 Z13.89226
 X161.87838 Z13.85871
 X162.06532 Z13.83752
 X162.15878 Z13.82558
 X162.20552 Z13.81922
 X162.25225 Z13.81258
 X163.00000 Z13.55453
G0 Z35.00000
 Y9.58150
G1 Z13.70961
 X162.95327 Z13.73177
 X162.90653 Z13.75038
 X162.81306 Z13.78121
 X162.71959 Z13.80666
 X162.62613 Z13.82854
 X162.25225 Z13.89484
 X161.50450 Z13.97451
 X160.75676 Z13.99722
 X160.00901 Z14.00244
 X159.26126 Z14.00246
 X10.45946
 X9.71171 Z14.00175
 X8.96396 Z13.99259
 X8.21622 Z13.95057
 X7.46847 Z13.85856
 X5.97297 Z13.66049
 X5.22523 Z13.56137
 X5.03829 Z13.53345
 X4.85135 Z13.49962
 X4.66441 Z13.45685
 X4.47748 Z13.39700
 X3.72973 Z13.08573
 X2.42117 Z12.54086
 X2.32770 Z12.50195
 X2.28097 Z12.48247
 X2.23423 Z12.46300
 X1.48649 Z11.96470
 X0.73874 Z11.37562
 X0.36486 Z11.07903
 X0.17793 Z10.93020
 X0.08446 Z10.85566
 X0.06109 Z10.83700
 X0.04941 Z10.82768
 X0.04357 Z10.82301
 X0.04065 Z10.82068
 X0.03773 Z10.81835
 X-0.00901 Z10.76681
 X-0.75676 Z9.72108
 X-1.50450 Z8.67454
 X-1.87838 Z7.91523
 X-2.25225 Z6.94708
 X-3.00000 Z1.95798
G0 Z35.00000
 Y10.18062
G1 Z3.32348
 X-2.81306 Z5.38186
 X-2.76633 Z5.76220
 X-2.75465 Z5.85728
 X-2.74880 Z5.89489
 X-2.74296 Z5.92269
 X-2.71959 Z6.00065
 X-2.62613 Z6.24317
 X-2.25225 Z7.21212
 X-1.87838 Z8.18053
 X-1.73818 Z8.54359
 X-1.71481 Z8.60409
 X-1.70312 Z8.63222
 X-1.69144 Z8.65753
 X-1.50450 Z8.93965
 X-0.75676 Z9.96873
 X-0.38288 Z10.47334
 X-0.28941 Z10.59853
 X-0.24268 Z10.66098
 X-0.21931 Z10.69217
 X-0.20763 Z10.70776
 X-0.19595 Z10.72334
 X-0.00901 Z10.90278
 X1.94215 Z12.40771
 X1.95383 Z12.41657
 X1.97720 Z12.43194
 X2.00056 Z12.44504
 X2.04730 Z12.46708
 X2.23423 Z12.54501
 X2.98198 Z12.85659
 X4.43074 Z13.45985
 X4.47748 Z13.47923
 X5.22523 Z13.64359
 X5.97297 Z13.74266
 X7.46847 Z13.94071
 X8.21622 Z14.00441
 X8.96396 Z14.02608
 X9.71171 Z14.03565
 X10.45946 Z14.03643
 X160.00901 Z14.03644
 X160.75676 Z14.03099
 X161.50450 Z14.01412
 X161.87838 Z14.00051
 X162.06532 Z13.99191
 X162.15878 Z13.98707
 X162.25225 Z13.97709
 X163.00000 Z13.79187
G0 Z35.00000
 Y10.77974
G1 Z13.87412
 X162.95327 Z13.89629
 X162.90653 Z13.91490
 X162.81306 Z13.94573
 X162.71959 Z13.97118
 X162.62613 Z13.98827
 X162.25225 Z14.01516
 X161.50450 Z14.04861
 X160.75676 Z14.06579
 X160.00901 Z14.07123
 X10.45946
 X9.71171 Z14.07045
 X8.96396 Z14.06088
 X8.21622 Z14.03844
 X7.46847 Z13.99624
 X6.72072 Z13.90359
 X4.78125 Z13.64748
 X4.75788 Z13.64410
 X4.71115 Z13.63311
 X4.66441 Z13.62130
 X4.47748 Z13.56145
 X3.72973 Z13.25018
 X2.23423 Z12.62702
 X1.48649 Z12.13827
 X0.73874 Z11.56153
 X0.36486 Z11.27300
 X-0.00901 Z10.98440
 X-0.75676 Z10.07712
 X-1.64471 Z8.91411
 X-1.66807 Z8.88348
 X-1.67976 Z8.86818
 X-1.68560 Z8.86052
 X-1.69144 Z8.85286
 X-1.71481 Z8.82222
 X-1.72649 Z8.80689
 X-1.73233 Z8.79922
 X-1.73525 Z8.79539
 X-1.73672 Z8.79347
 X-1.73818 Z8.79155
 X-1.78491 Z8.67766
 X-1.87838 Z8.44120
 X-2.06532 Z7.96067
 X-2.25225 Z7.47620
 X-3.00000 Z4.01337
G0 Z35.00000
 Y11.37885
G1 Z4.38866
 X-2.76633 Z6.29036
 X-2.75465 Z6.38546
 X-2.75172 Z6.40615
 X-2.74880 Z6.42307
 X-2.74734 Z6.43063
 X-2.74661 Z6.43424
 X-2.74625 Z6.43600
 X-2.74607 Z6.43687
 X-2.74597 Z6.43731
 X-2.74588 Z6.43772
 X-2.74296 Z6.44495
 X-2.71959 Z6.50276
 X-2.62613 Z6.73257
 X-2.25225 Z7.64034
 X-1.75570 Z8.84480
 X-1.75278 Z8.85116
 X-1.75132 Z8.85387
 X-1.74986 Z8.85636
 X-1.73818 Z8.87256
 X-1.50450 Z9.17887
 X-0.75676 Z10.15872
 X-0.19595 Z10.89326
 X-0.00901 Z11.06601
 X0.73874 Z11.64319
 X1.48649 Z12.22028
 X1.94215 Z12.57173
 X1.95383 Z12.58058
 X1.97720 Z12.59595
 X2.00056 Z12.60905
 X2.04730 Z12.63109
 X2.23423 Z12.70903
 X4.38401 Z13.60483
 X4.43074 Z13.62429
 X4.46579 Z13.63888
 X4.47748 Z13.64367
 X5.22523 Z13.74407
 X6.72072 Z13.94127
 X7.46847 Z14.02990
 X8.21622 Z14.07323
 X8.96396 Z14.09567
 X9.71171 Z14.10574
 X10.45946 Z14.10656
 X28.40541
 X29.15315 Z14.10657
 X160.00901
 X160.75676 Z14.10081
 X161.50450 Z14.08341
 X162.25225 Z14.04970
 X163.00000 Z13.95638
G0 Z35.00000
 Y11.97797
G1 Z14.00676
 X162.25225 Z14.08450
 X161.50450 Z14.11945
 X160.75676 Z14.13763
 X160.00901 Z14.14339
 X97.94595
 X97.19820 Z14.14338
 X10.45946
 X9.71171 Z14.14254
 X8.96396 Z14.13241
 X8.21622 Z14.10868
 X7.46847 Z14.06469
 X6.72072 Z13.97485
 X5.97297 Z13.87624
 X5.22523 Z13.77765
 X4.85135 Z13.72834
 X4.66441 Z13.70369
 X4.57095 Z13.69137
 X4.52421 Z13.68491
 X4.50084 Z13.68137
 X4.47748 Z13.67768
 X3.72973 Z13.39208
 X2.98198 Z13.08183
 X2.60811 Z12.92669
 X2.28097 Z12.79094
 X1.95383 Z12.65518
 X1.86036 Z12.58986
 X1.48649 Z12.30154
 X0.73874 Z11.72470
 X0.36486 Z11.43618
 X0.08446 Z11.21975
 X-0.00901 Z11.14761
 X-0.75676 Z10.23993
 X-1.73818 Z8.95340
 X-1.78491 Z8.85480
 X-2.25225 Z7.72118
 X-3.00000 Z4.64335
G0 Z35.00000
 Y12.57709
G1 Z4.72424
 X-2.81306 Z6.15149
 X-2.75903 Z6.56365
 X-2.75830 Z6.56854
 X-2.75793 Z6.57033
 X-2.75757 Z6.57188
 X-2.75465 Z6.58071
 X-2.62613 Z6.89277
 X-2.25225 Z7.79996
 X-2.06532 Z8.25286
 X-1.97185 Z8.47912
 X-1.92511 Z8.59221
 X-1.90175 Z8.64875
 X-1.87838 Z8.70527
 X-1.78491 Z8.93130
 X-1.76154 Z8.98780
 X-1.73818 Z9.02143
 X-1.69144 Z9.08243
 X-1.50450 Z9.32643
 X-0.19595 Z11.03441
 X-0.00901 Z11.19399
 X1.86036 Z12.63062
 X2.23423 Z12.80501
 X4.10360 Z13.58052
 X4.19707 Z13.61929
 X4.24381 Z13.63867
 X4.29054 Z13.65805
 X4.33727 Z13.67745
 X4.36064 Z13.68602
 X4.38401 Z13.69271
 X4.47748 Z13.71185
 X5.22523 Z13.81216
 X6.72072 Z14.00938
 X7.46847 Z14.09965
 X8.21622 Z14.14548
 X8.96396 Z14.16921
 X9.71171 Z14.17949
 X10.45946 Z14.18037
 X152.53153
 X153.27928 Z14.18040
 X154.02703 Z14.18038
 X159.26126
 X160.00901 Z14.18041
 X160.75676 Z14.17445
 X161.50450 Z14.15627
 X162.25225 Z14.12061
 X163.00000 Z14.04094
G0 Z35.00000
 Y13.17621
G1 Z14.07574
 X162.25225 Z14.15743
 X161.50450 Z14.19398
 X160.75676 Z14.21314
 X160.00901 Z14.21921
 X159.26126 Z14.21920
 X10.45946 Z14.21919
 X9.71171 Z14.21834
 X8.96396 Z14.20765
 X8.21622 Z14.18260
 X7.46847 Z14.13645
 X6.72072 Z14.04494
 X5.97297 Z13.94631
 X5.22523 Z13.84771
 X4.66441 Z13.77374
 X4.57095 Z13.76135
 X4.52421 Z13.75455
 X4.50084 Z13.75091
 X4.47748 Z13.74701
 X3.72973 Z13.45962
 X1.95383 Z12.72281
 X1.86036 Z12.66443
 X0.73874 Z11.80237
 X0.36486 Z11.51501
 X-0.00901 Z11.22766
 X-0.75676 Z10.33585
 X-1.71481 Z9.08525
 X-1.72649 Z9.06999
 X-1.73818 Z9.05474
 X-1.78491 Z8.96460
 X-2.25225 Z7.83459
 X-3.00000 Z4.77590
G0 Z35.00000
 Y13.77533
G1 Z4.80963
 X-2.76049 Z6.63189
 X-2.75903 Z6.64274
 X-2.75757 Z6.64676
 X-1.76154 Z9.05531
 X-1.73818 Z9.08904
 X-1.50450 Z9.39407
 X-0.75676 Z10.37021
 X-0.19595 Z11.10234
 X-0.00901 Z11.26225
 X1.86036 Z12.69915
 X2.23423 Z12.87423
 X4.33727 Z13.74685
 X4.36064 Z13.75570
 X4.38401 Z13.76277
 X4.47748 Z13.78304
 X5.22523 Z13.88416
 X6.72072 Z14.08143
 X7.46847 Z14.17325
 X8.21622 Z14.22145
 X8.96396 Z14.24650
 X9.71171 Z14.25719
 X10.45946 Z14.25801
 X160.00901 Z14.25802
 X160.75676 Z14.25194
 X161.50450 Z14.23279
 X162.25225 Z14.19520
 X163.00000 Z14.11134
G0 Z35.00000
 Y14.37445
G1 Z14.14816
 X162.25225 Z14.23400
 X161.50450 Z14.27215
 X160.75676 Z14.29231
 X160.00901 Z14.29871
 X159.26126 Z14.29869
 X10.45946
 X9.71171 Z14.29776
 X8.96396 Z14.28652
 X8.21622 Z14.26029
 X7.46847 Z14.21191
 X6.72072 Z14.11887
 X4.66441 Z13.84761
 X4.57095 Z13.83498
 X4.52421 Z13.82794
 X4.50084 Z13.82409
 X4.47748 Z13.81998
 X3.72973 Z13.53084
 X1.95383 Z12.79388
 X1.86036 Z12.73483
 X0.36486 Z11.58519
 X0.17793 Z11.44151
 X-0.00901 Z11.29780
 X-0.75676 Z10.40551
 X-1.73818 Z9.12428
 X-1.78491 Z9.03392
 X-2.25225 Z7.90370
 X-3.00000 Z4.84426
G0 Z35.00000
 Y14.97357
G1 Z4.87977
 X-2.76049 Z6.70240
 X-2.75903 Z6.71329
 X-2.75757 Z6.71744
 X-1.76154 Z9.12646
 X-1.73818 Z9.16042
 X-0.38288 Z10.92991
 X-0.28941 Z11.05196
 X-0.24268 Z11.11299
 X-0.21931 Z11.14349
 X-0.19595 Z11.17399
 X-0.00901 Z11.33421
 X0.73874 Z11.90912
 X1.86036 Z12.77144
 X2.23423 Z12.94721
 X4.33727 Z13.82000
 X4.36064 Z13.82915
 X4.38401 Z13.83644
 X4.47748 Z13.85784
 X5.22523 Z13.96001
 X6.72072 Z14.15732
 X7.46847 Z14.25076
 X8.21622 Z14.30103
 X8.96396 Z14.32738
 X9.71171 Z14.33862
 X10.45946 Z14.33952
 X159.26126
 X160.00901 Z14.33954
 X160.75676 Z14.33315
 X161.50450 Z14.31299
 X162.25225 Z14.27344
 X163.00000 Z14.18543
G0 Z35.00000
 Y15.57269
G1 Z14.22423
 X162.25225 Z14.31427
 X161.50450 Z14.35404
 X160.75676 Z14.37518
 X160.00901 Z14.38188
 X159.26126 Z14.38186
 X107.66667
 X106.91892 Z14.38187
 X10.45946
 X9.71171 Z14.38091
 X8.96396 Z14.36913
 X8.21622 Z14.34188
 X7.46847 Z14.29101
 X6.72072 Z14.19668
 X5.22523 Z13.99935
 X4.85135 Z13.95004
 X4.66441 Z13.92537
 X4.57095 Z13.91244
 X4.52421 Z13.90502
 X4.47748 Z13.89662
 X3.72973 Z13.60581
 X1.95383 Z12.86870
 X1.86036 Z12.80892
 X-0.00901 Z11.37157
 X-0.75676 Z10.47894
 X-1.73818 Z9.19745
 X-1.78491 Z9.10687
 X-2.25225 Z7.97643
 X-3.00000 Z4.91619
G0 Z35.00000
 Y16.17181
G1 Z4.95350
 X-2.76049 Z6.77649
 X-2.75903 Z6.78744
 X-2.75757 Z6.79172
 X-1.76154 Z9.20125
 X-1.73818 Z9.23542
 X-0.75676 Z10.51704
 X-0.19595 Z11.24939
 X-0.00901 Z11.40987
 X1.86036 Z12.84736
 X2.23423 Z13.02390
 X4.33727 Z13.89688
 X4.36064 Z13.90629
 X4.38401 Z13.91398
 X4.47748 Z13.93634
 X5.22523 Z14.03971
 X6.72072 Z14.23707
 X7.46847 Z14.33186
 X8.21622 Z14.38434
 X8.96396 Z14.41195
 X9.71171 Z14.42373
 X10.45946 Z14.42471
 X38.12613
 X38.87387 Z14.42470
 X160.00901 Z14.42469
 X160.75676 Z14.41799
 X161.50450 Z14.39685
 X162.25225 Z14.35538
 X163.00000 Z14.26315
G0 Z35.00000
 Y16.77093
G1 Z14.30399
 X162.25225 Z14.39820
 X161.50450 Z14.43967
 X160.75676 Z14.46170
 X160.00901 Z14.46873
 X159.26126 Z14.46876
 X119.63063
 X118.88288 Z14.46873
 X10.45946
 X9.71171 Z14.46772
 X8.96396 Z14.45537
 X8.21622 Z14.42715
 X7.46847 Z14.37383
 X6.72072 Z14.27842
 X4.85135 Z14.03173
 X4.66441 Z14.00707
 X4.57095 Z13.99361
 X4.52421 Z13.98580
 X4.47748 Z13.97698
 X3.72973 Z13.68452
 X1.95383 Z12.94726
 X1.86036 Z12.88673
 X1.48649 Z12.59920
 X0.73874 Z12.02417
 X-0.00901 Z11.44917
 X-0.75676 Z10.55607
 X-1.73818 Z9.27430
 X-1.78491 Z9.18346
 X-2.25225 Z8.05277
 X-3.00000 Z4.99181
G0 Z35.00000
 Y17.37004
G1 Z5.03102
 X-2.76779 Z6.79863
 X-2.76633 Z6.80974
 X-2.76049 Z6.85421
 X-2.75903 Z6.86518
 X-2.75757 Z6.86962
 X-1.76154 Z9.27966
 X-1.73818 Z9.31410
 X-0.19595 Z11.32852
 X-0.00901 Z11.48939
 X1.81363 Z12.89112
 X1.83699 Z12.90909
 X1.84868 Z12.91807
 X1.86036 Z12.92705
 X2.23423 Z13.10437
 X4.33727 Z13.97755
 X4.36064 Z13.98715
 X4.38401 Z13.99523
 X4.47748 Z14.01852
 X5.22523 Z14.12335
 X6.72072 Z14.32073
 X7.46847 Z14.41664
 X8.21622 Z14.47131
 X8.96396 Z14.50025
 X9.71171 Z14.51260
 X10.45946 Z14.51358
 X50.09009
 X50.83784 Z14.51361
 X160.00901
 X160.75676 Z14.50659
 X161.50450 Z14.48443
 X162.25225 Z14.44101
 X163.00000 Z14.34482
G0 Z35.00000
 Y17.96916
G1 Z14.38742
 X162.25225 Z14.48584
 X161.50450 Z14.52932
 X160.75676 Z14.55200
 X160.00901 Z14.55933
 X39.62162
 X38.87387 Z14.55930
 X10.45946
 X9.71171 Z14.55826
 X8.96396 Z14.54538
 X8.21622 Z14.51619
 X7.46847 Z14.46029
 X6.72072 Z14.36400
 X4.85135 Z14.11725
 X4.66441 Z14.09251
 X4.57095 Z14.07838
 X4.52421 Z14.07019
 X4.47748 Z14.06093
 X3.72973 Z13.76699
 X1.95383 Z13.02955
 X1.86036 Z12.96836
 X1.48649 Z12.68081
 X-0.00901 Z11.53054
 X-0.75676 Z10.63687
 X-1.73818 Z9.35481
 X-1.78491 Z9.26369
 X-2.25225 Z8.13275
 X-3.00000 Z5.07112
G0 Z35.00000
 Y18.56828
G1 Z5.11211
 X-2.76049 Z6.93571
 X-2.75903 Z6.94672
 X-2.75757 Z6.95124
 X-2.25225 Z8.17409
 X-1.76154 Z9.36172
 X-1.73818 Z9.39640
 X-0.19595 Z11.41130
 X-0.00901 Z11.57259
 X1.29955 Z12.57918
 X1.48649 Z12.72300
 X1.86036 Z13.01060
 X2.23423 Z13.18858
 X2.98198 Z13.49909
 X4.33727 Z14.06194
 X4.36064 Z14.07160
 X4.38401 Z14.08008
 X4.47748 Z14.10435
 X5.22523 Z14.21090
 X6.72072 Z14.40832
 X7.46847 Z14.50518
 X8.21622 Z14.56201
 X8.96396 Z14.59222
 X9.71171 Z14.60510
 X10.45946 Z14.60617
 X107.66667
 X108.41441 Z14.60620
 X160.00901
 X160.75676 Z14.59886
 X161.50450 Z14.57572
 X162.25225 Z14.53072
 X163.00000 Z14.43023
G0 Z35.00000
 Y19.16740
G1 Z14.47453
 X162.25225 Z14.57719
 X161.50450 Z14.62259
 X160.75676 Z14.64608
 X160.00901 Z14.65403
 X154.02703 Z14.65402
 X153.27928 Z14.65401
 X10.45946
 X9.71171 Z14.65284
 X8.96396 Z14.63906
 X8.21622 Z14.60885
 X7.46847 Z14.55051
 X6.72072 Z14.45354
 X4.85135 Z14.20673
 X4.66441 Z14.18168
 X4.57095 Z14.16692
 X4.52421 Z14.15837
 X4.47748 Z14.14874
 X3.72973 Z13.85324
 X2.42117 Z13.30973
 X2.32770 Z13.27093
 X2.28097 Z13.25150
 X2.23423 Z13.23208
 X1.95383 Z13.11561
 X1.86036 Z13.05374
 X-0.00901 Z11.61556
 X-0.75676 Z10.72127
 X-1.31757 Z9.98850
 X-1.41104 Z9.86639
 X-1.73818 Z9.43894
 X-1.78491 Z9.34755
 X-1.87838 Z9.12131
 X-2.06532 Z8.66886
 X-2.25225 Z8.21643
 X-3.00000 Z5.15400
G0 Z35.00000
 Y19.76652
G1 Z5.19679
 X-2.76049 Z7.02083
 X-2.75903 Z7.03186
 X-2.75757 Z7.03657
 X-1.76154 Z9.44746
 X-1.73818 Z9.48239
 X-0.19595 Z11.49775
 X-0.00901 Z11.65946
 X1.11261 Z12.52246
 X1.29955 Z12.66631
 X1.86036 Z13.09781
 X2.23423 Z13.27650
 X4.33727 Z14.15010
 X4.36064 Z14.15984
 X4.38401 Z14.16870
 X4.47748 Z14.19401
 X5.22523 Z14.30226
 X6.72072 Z14.49974
 X7.46847 Z14.59735
 X8.21622 Z14.65690
 X8.96396 Z14.68963
 X9.71171 Z14.70359
 X10.45946 Z14.70474
 X129.35135
 X130.09910 Z14.70475
 X160.00901 Z14.70476
 X160.75676 Z14.69682
 X161.50450 Z14.67177
 X162.25225 Z14.62406
 X163.00000 Z14.51942
G0 Z35.00000
 Y20.36564
G1 Z14.56539
 X162.25225 Z14.67336
 X161.50450 Z14.72251
 X160.75676 Z14.74755
 X160.00901 Z14.75549
 X105.42342
 X104.67568 Z14.75548
 X10.45946
 X9.71171 Z14.75433
 X8.96396 Z14.74037
 X8.21622 Z14.70765
 X7.46847 Z14.64445
 X6.72072 Z14.54689
 X5.97297 Z14.44813
 X4.85135 Z14.30000
 X4.66441 Z14.27453
 X4.57095 Z14.25912
 X4.52421 Z14.25019
 X4.47748 Z14.24028
 X3.72973 Z13.94320
 X2.04730 Z13.24423
 X2.00056 Z13.22482
 X1.95383 Z13.20541
 X1.86036 Z13.14281
 X1.48649 Z12.85510
 X0.73874 Z12.27972
 X-0.00901 Z11.70431
 X-0.75676 Z10.80942
 X-1.73818 Z9.52675
 X-1.78491 Z9.43521
 X-2.25225 Z8.30386
 X-3.00000 Z5.24047
G0 Z35.00000
 Y20.96476
G1 Z5.28506
 X-2.76049 Z7.10954
 X-2.75903 Z7.12061
 X-2.75830 Z7.12358
 X-2.75757 Z7.12550
 X-1.76154 Z9.53699
 X-1.73818 Z9.57210
 X-1.50450 Z9.87750
 X-0.75676 Z10.85486
 X-0.19595 Z11.58791
 X-0.00901 Z11.75009
 X0.73874 Z12.32558
 X1.11261 Z12.61329
 X1.86036 Z13.18878
 X2.23423 Z13.36827
 X2.98198 Z13.67893
 X4.36064 Z14.25177
 X4.38401 Z14.26097
 X4.47748 Z14.28742
 X5.22523 Z14.39932
 X6.72072 Z14.59690
 X7.46847 Z14.69519
 X8.21622 Z14.75839
 X8.96396 Z14.79111
 X9.71171 Z14.80507
 X10.45946 Z14.80622
 X80.74775
 X81.49550 Z14.80623
 X160.00901
 X160.75676 Z14.79829
 X161.50450 Z14.77324
 X162.25225 Z14.72410
 X163.00000 Z14.61226
G0 Z35.00000
 Y21.56388
G1 Z14.66059
 X162.25225 Z14.77483
 X161.50450 Z14.82398
 X160.75676 Z14.84902
 X160.00901 Z14.85696
 X56.81982 Z14.85697
 X56.07207 Z14.85696
 X10.45946 Z14.85695
 X9.71171 Z14.85581
 X8.96396 Z14.84185
 X8.21622 Z14.80913
 X7.46847 Z14.74594
 X6.72072 Z14.64764
 X4.85135 Z14.40066
 X4.66441 Z14.37406
 X4.57095 Z14.35753
 X4.52421 Z14.34796
 X4.47748 Z14.33713
 X3.72973 Z14.03699
 X1.95967 Z13.30152
 X1.95675 Z13.30031
 X1.95383 Z13.29910
 X1.86036 Z13.23567
 X0.73874 Z12.37233
 X0.36486 Z12.08454
 X-0.00901 Z11.79676
 X-0.75676 Z10.90122
 X-1.73818 Z9.61839
 X-1.78491 Z9.52654
 X-2.25225 Z8.39491
 X-3.00000 Z5.33053
G0 Z35.00000
 Y22.16300
G1 Z5.37690
 X-2.76049 Z7.20186
 X-2.75903 Z7.21295
 X-2.75830 Z7.21606
 X-2.75757 Z7.21805
 X-1.76154 Z9.63017
 X-1.73818 Z9.66555
 X-0.21931 Z11.65115
 X-0.20763 Z11.66643
 X-0.19595 Z11.68171
 X-0.00901 Z11.84496
 X1.86036 Z13.28450
 X2.23423 Z13.46605
 X2.98198 Z13.77687
 X4.36064 Z14.34997
 X4.38401 Z14.35952
 X4.43074 Z14.37521
 X4.47748 Z14.38787
 X5.22523 Z14.50080
 X6.72072 Z14.69838
 X7.46847 Z14.79668
 X8.21622 Z14.85987
 X8.96396 Z14.89260
 X9.71171 Z14.90656
 X10.45946 Z14.90769
 X31.39640
 X32.14414 Z14.90770
 X160.00901
 X160.75676 Z14.89976
 X161.50450 Z14.87471
 X162.25225 Z14.82557
 X163.00000 Z14.71132
G0 Z35.00000
 Y22.76211
G1 Z14.76206
 X162.25225 Z14.87630
 X161.50450 Z14.92545
 X160.75676 Z14.95049
 X160.00901 Z14.95897
 X12.70270 Z14.95896
 X11.95495 Z14.95894
 X10.45946
 X9.71171 Z14.95770
 X8.96396 Z14.94334
 X8.21622 Z14.91061
 X7.46847 Z14.84742
 X6.72072 Z14.74912
 X4.85135 Z14.50214
 X4.66441 Z14.47553
 X4.57095 Z14.45901
 X4.52421 Z14.44943
 X4.47748 Z14.43860
 X3.72973 Z14.13844
 X2.98198 Z13.82761
 X2.60811 Z13.67220
 X1.96551 Z13.40508
 X1.95967 Z13.40265
 X1.95383 Z13.40010
 X1.86036 Z13.33523
 X0.36486 Z12.18361
 X0.17793 Z12.03964
 X-0.00901 Z11.89569
 X-0.75676 Z10.99897
 X-1.50450 Z10.02101
 X-1.59797 Z9.89878
 X-1.73818 Z9.71541
 X-1.78491 Z9.62289
 X-2.25225 Z8.49060
 X-3.00000 Z5.42428
G0 Z35.00000
 Y23.36123
G1 Z5.47468
 X-2.76049 Z7.30046
 X-2.75903 Z7.31157
 X-2.75830 Z7.31490
 X-2.75757 Z7.31703
 X-2.75465 Z7.32412
 X-1.76154 Z9.73024
 X-1.73818 Z9.76615
 X-0.19595 Z11.78318
 X-0.00901 Z11.94643
 X1.86036 Z13.38597
 X2.23423 Z13.56753
 X2.98198 Z13.87836
 X3.72973 Z14.18918
 X4.36064 Z14.45145
 X4.38401 Z14.46100
 X4.43074 Z14.47669
 X4.47748 Z14.48934
 X5.22523 Z14.60227
 X6.72072 Z14.79986
 X7.46847 Z14.89816
 X8.21622 Z14.96222
 X8.96396 Z14.99863
 X9.71171 Z15.01416
 X10.45946 Z15.01541
 X35.88288
 X36.63063 Z15.01544
 X160.00901
 X160.75676 Z15.00660
 X161.50450 Z14.97872
 X162.25225 Z14.92704
 X163.00000 Z14.81279
G0 Z35.00000
 Y23.96035
G1 Z14.86353
 X162.25225 Z14.98049
 X161.50450 Z15.03519
 X160.75676 Z15.06307
 X160.00901 Z15.07191
 X61.30631
 X60.55856 Z15.07189
 X10.45946
 X9.71171 Z15.07062
 X8.96396 Z15.05509
 X8.21622 Z15.01868
 X7.46847 Z14.94890
 X6.72072 Z14.85060
 X4.85135 Z14.60361
 X4.66441 Z14.57701
 X4.57095 Z14.56048
 X4.52421 Z14.55091
 X4.47748 Z14.54008
 X3.72973 Z14.23992
 X2.98198 Z13.92910
 X1.96551 Z13.50656
 X1.95967 Z13.50413
 X1.95383 Z13.50158
 X1.86036 Z13.43671
 X-0.00901 Z11.99717
 X-0.75676 Z11.10045
 X-1.73818 Z9.81689
 X-1.78491 Z9.72436
 X-2.25225 Z8.59207
 X-3.00000 Z5.52543
G0 Z35.00000
 Y24.55947
G1 Z5.57616
 X-2.76049 Z7.40193
 X-2.75903 Z7.41305
 X-2.75830 Z7.41638
 X-2.75757 Z7.41851
 X-2.75465 Z7.42560
 X-1.76154 Z9.83172
 X-1.73818 Z9.86762
 X-0.19595 Z11.88466
 X-0.00901 Z12.04790
 X1.29955 Z13.05558
 X1.48649 Z13.19954
 X1.86036 Z13.48745
 X2.23423 Z13.66900
 X3.72973 Z14.29067
 X4.10360 Z14.44607
 X4.36064 Z14.55292
 X4.38401 Z14.56247
 X4.47748 Z14.59082
 X5.22523 Z14.70818
 X6.72072 Z14.90594
 X7.46847 Z15.00483
 X8.21622 Z15.07514
 X8.96396 Z15.11155
 X9.71171 Z15.12709
 X10.45946 Z15.12836
 X85.23423
 X85.98198 Z15.12838
 X160.00901
 X160.75676 Z15.11954
 X161.50450 Z15.09166
 X161.87838 Z15.06863
 X162.25225 Z15.03696
 X163.00000 Z14.91426
G0 Z35.00000
 Y25.15859
G1 Z14.96627
 X162.81306 Z15.01543
 X162.62613 Z15.04792
 X162.25225 Z15.09343
 X161.50450 Z15.14813
 X160.75676 Z15.17601
 X160.00901 Z15.18485
 X159.26126 Z15.18486
 X109.90991
 X109.16216 Z15.18483
 X10.45946
 X9.71171 Z15.18355
 X8.96396 Z15.16801
 X8.21622 Z15.13160
 X7.46847 Z15.06129
 X5.22523 Z14.76466
 X4.85135 Z14.71511
 X4.66441 Z14.68573
 X4.57095 Z14.66734
 X4.52421 Z14.65669
 X4.47748 Z14.64463
 X3.72973 Z14.34141
 X1.96551 Z13.60803
 X1.95967 Z13.60561
 X1.95383 Z13.60305
 X1.86036 Z13.53819
 X1.48649 Z13.25027
 X-0.00901 Z12.09864
 X-0.75676 Z11.20194
 X-1.73818 Z9.91836
 X-1.78491 Z9.82584
 X-2.25225 Z8.69355
 X-3.00000 Z5.62690
G0 Z35.00000
 Y25.75771
G1 Z5.67764
 X-2.76049 Z7.50341
 X-2.75903 Z7.51452
 X-2.75830 Z7.51786
 X-2.75757 Z7.51999
 X-2.75465 Z7.52708
 X-1.76154 Z9.93319
 X-1.73818 Z9.96910
 X-0.21931 Z11.95558
 X-0.20763 Z11.97085
 X-0.19595 Z11.98614
 X-0.00901 Z12.14995
 X1.86036 Z13.59071
 X2.23423 Z13.77520
 X4.38401 Z14.66959
 X4.43074 Z14.68702
 X4.47748 Z14.70110
 X5.22523 Z14.82113
 X7.46847 Z15.11776
 X8.21622 Z15.18806
 X8.96396 Z15.22447
 X9.71171 Z15.24001
 X10.45946 Z15.24131
 X133.83784
 X134.58559 Z15.24133
 X159.26126
 X160.00901 Z15.24132
 X160.75676 Z15.23248
 X161.50450 Z15.20460
 X161.87838 Z15.18157
 X162.25225 Z15.14990
 X163.00000 Z15.02274
G0 Z35.00000
 Y26.35683
G1 Z15.07921
 X162.81306 Z15.12837
 X162.62613 Z15.16086
 X162.25225 Z15.20637
 X161.50450 Z15.26107
 X160.75676 Z15.28895
 X160.00901 Z15.29779
 X159.26126 Z15.29780
 X158.51351
 X157.76577 Z15.29778
 X144.30631
 X143.55856 Z15.29777
 X10.45946
 X9.71171 Z15.29651
 X8.96396 Z15.28096
 X8.21622 Z15.24452
 X7.46847 Z15.17423
 X5.22523 Z14.87760
 X4.85135 Z14.82805
 X4.66441 Z14.79867
 X4.57095 Z14.78028
 X4.52421 Z14.76963
 X4.47748 Z14.75757
 X3.72973 Z14.45386
 X2.98198 Z14.14276
 X2.60811 Z13.98722
 X2.00056 Z13.73445
 X1.97720 Z13.72475
 X1.96551 Z13.71970
 X1.95967 Z13.71700
 X1.95383 Z13.71416
 X1.86036 Z13.64718
 X0.36486 Z12.49458
 X0.17793 Z12.35048
 X-0.00901 Z12.20640
 X-0.75676 Z11.30754
 X-1.59797 Z10.20640
 X-1.64471 Z10.14521
 X-1.73818 Z10.02286
 X-1.78491 Z9.92934
 X-2.25225 Z8.79609
 X-3.00000 Z5.72838
G0 Z35.00000
 Y26.95595
G1 Z5.78258
 X-2.75903 Z7.62105
 X-2.75830 Z7.62475
 X-2.75757 Z7.62713
 X-2.75465 Z7.63432
 X-1.76154 Z10.04248
 X-1.73818 Z10.07933
 X-0.19595 Z12.09811
 X-0.00901 Z12.26288
 X0.73874 Z12.83920
 X1.86036 Z13.70365
 X2.23423 Z13.88814
 X4.38401 Z14.78254
 X4.43074 Z14.79996
 X4.47748 Z14.81404
 X5.22523 Z14.93407
 X7.46847 Z15.23070
 X8.21622 Z15.30104
 X8.96396 Z15.34112
 X9.71171 Z15.35824
 X10.45946 Z15.35964
 X160.00901 Z15.35965
 X160.75676 Z15.34991
 X161.50450 Z15.31919
 X161.87838 Z15.29451
 X162.25225 Z15.26284
 X163.00000 Z15.13568
G0 Z35.00000
 Y27.55507
G1 Z15.19215
 X162.62613 Z15.27380
 X162.25225 Z15.32114
 X161.50450 Z15.38141
 X160.75676 Z15.41213
 X160.00901 Z15.42187
 X10.45946 Z15.42186
 X9.71171 Z15.42046
 X8.96396 Z15.40334
 X8.21622 Z15.36321
 X7.46847 Z15.28717
 X6.72072 Z15.18830
 X5.22523 Z14.99054
 X4.85135 Z14.94099
 X4.66441 Z14.91161
 X4.57095 Z14.89322
 X4.52421 Z14.88256
 X4.47748 Z14.87051
 X3.72973 Z14.56680
 X2.00056 Z13.84739
 X1.97720 Z13.83769
 X1.96551 Z13.83264
 X1.95967 Z13.82994
 X1.95383 Z13.82710
 X1.86036 Z13.76013
 X1.48649 Z13.47197
 X0.73874 Z12.89565
 X-0.00901 Z12.31935
 X-0.75676 Z11.42048
 X-1.13063 Z10.93107
 X-1.73818 Z10.13580
 X-1.78491 Z10.04229
 X-2.25225 Z8.90903
 X-3.00000 Z5.83906
G0 Z35.00000
 Y28.15419
G1 Z5.89553
 X-2.75903 Z7.73399
 X-2.75830 Z7.73770
 X-2.75757 Z7.74007
 X-2.75465 Z7.74726
 X-1.76154 Z10.15542
 X-1.73818 Z10.19227
 X-0.19595 Z12.21105
 X-0.00901 Z12.37582
 X1.11261 Z13.24027
 X1.48649 Z13.52845
 X1.86036 Z13.81660
 X2.23423 Z14.00108
 X3.72973 Z14.62328
 X4.10360 Z14.77882
 X4.38401 Z14.89548
 X4.43074 Z14.91290
 X4.47748 Z14.92698
 X5.22523 Z15.05170
 X5.97297 Z15.15066
 X7.46847 Z15.34860
 X8.21622 Z15.42543
 X8.96396 Z15.46556
 X9.71171 Z15.48268
 X10.45946 Z15.48408
 X160.00901
 X160.75676 Z15.47435
 X161.50450 Z15.44363
 X161.87838 Z15.41826
 X162.25225 Z15.38336
 X163.00000 Z15.24862
G0 Z35.00000
 Y28.75330
G1 Z15.30548
 X162.81306 Z15.35964
 X162.71959 Z15.37889
 X162.62613 Z15.39544
 X162.25225 Z15.44558
 X161.50450 Z15.50585
 X160.75676 Z15.53656
 X160.00901 Z15.54630
 X10.45946
 X9.71171 Z15.54490
 X8.96396 Z15.52778
 X8.21622 Z15.48766
 X7.46847 Z15.41082
 X5.97297 Z15.21288
 X5.22523 Z15.11392
 X4.85135 Z15.06328
 X4.66441 Z15.03091
 X4.57095 Z15.01064
 X4.47748 Z14.98562
 X3.72973 Z14.67975
 X2.00056 Z13.96034
 X1.97720 Z13.95063
 X1.96551 Z13.94558
 X1.95967 Z13.94288
 X1.95383 Z13.94004
 X1.86036 Z13.87307
 X1.48649 Z13.58490
 X-0.00901 Z12.43229
 X-0.75676 Z11.53341
 X-1.73818 Z10.24874
 X-1.78491 Z10.15523
 X-2.25225 Z9.02198
 X-3.00000 Z5.95200
G0 Z35.00000
 Y29.35242
G1 Z6.00847
 X-2.75903 Z7.84693
 X-2.75830 Z7.85064
 X-2.75757 Z7.85301
 X-2.75465 Z7.86020
 X-1.92511 Z9.87173
 X-1.90175 Z9.92839
 X-1.76154 Z10.26837
 X-1.73818 Z10.30522
 X-0.28941 Z12.20163
 X-0.24268 Z12.26282
 X-0.19595 Z12.32399
 X-0.00901 Z12.48876
 X0.73874 Z13.06537
 X1.86036 Z13.93064
 X2.23423 Z14.11839
 X4.38401 Z15.01363
 X4.43074 Z15.03233
 X4.47748 Z15.04785
 X5.22523 Z15.17615
 X5.97297 Z15.27512
 X6.72072 Z15.37407
 X7.46847 Z15.47304
 X8.21622 Z15.54988
 X8.96396 Z15.59001
 X9.71171 Z15.60712
 X10.45946 Z15.60852
 X160.00901
 X160.75676 Z15.59878
 X161.50450 Z15.56807
 X161.87838 Z15.54269
 X162.25225 Z15.50780
 X163.00000 Z15.36770
G0 Z35.00000
 Y29.95154
G1 Z15.42992
 X162.81306 Z15.48408
 X162.71959 Z15.50332
 X162.62613 Z15.51987
 X162.25225 Z15.57002
 X161.50450 Z15.63029
 X160.75676 Z15.66100
 X160.00901 Z15.67074
 X10.45946
 X9.71171 Z15.66935
 X8.96396 Z15.65223
 X8.21622 Z15.61210
 X7.46847 Z15.53526
 X6.72072 Z15.43629
 X5.97297 Z15.33734
 X5.22523 Z15.23837
 X4.85135 Z15.18774
 X4.66441 Z15.15537
 X4.57095 Z15.13510
 X4.47748 Z15.11008
 X3.72973 Z14.80339
 X2.98198 Z14.49200
 X2.60811 Z14.33631
 X2.00056 Z14.08330
 X1.97720 Z14.07328
 X1.96551 Z14.06772
 X1.95967 Z14.06475
 X1.95383 Z14.06162
 X1.86036 Z13.99286
 X0.36486 Z12.83917
 X0.17793 Z12.69494
 X-0.00901 Z12.55073
 X-0.75676 Z11.64948
 X-1.64471 Z10.48607
 X-1.66807 Z10.45547
 X-1.73818 Z10.36362
 X-1.78491 Z10.26900
 X-2.06532 Z9.58840
 X-2.15878 Z9.36157
 X-2.25225 Z9.13492
 X-3.00000 Z6.06494
G0 Z35.00000
 Y30.55066
G1 Z6.12319
 X-2.75903 Z7.96340
 X-2.75830 Z7.96745
 X-2.75757 Z7.97007
 X-2.75465 Z7.97752
 X-1.75862 Z10.39502
 X-1.75716 Z10.39852
 X-1.75643 Z10.40013
 X-1.75570 Z10.40159
 X-1.75278 Z10.40649
 X-1.74986 Z10.41053
 X-0.19595 Z12.44648
 X-0.00901 Z12.61295
 X1.86036 Z14.05508
 X2.23423 Z14.24283
 X4.38401 Z15.13807
 X4.43074 Z15.15679
 X4.47748 Z15.17231
 X5.22523 Z15.30059
 X6.72072 Z15.49853
 X7.46847 Z15.59748
 X8.21622 Z15.67432
 X8.96396 Z15.71724
 X9.71171 Z15.73595
 X10.45946 Z15.73747
 X160.00901
 X160.75676 Z15.72683
 X161.50450 Z15.69326
 X161.87838 Z15.66713
 X162.25225 Z15.63224
 X163.00000 Z15.49213
G0 Z35.00000
 Y31.14978
G1 Z15.55435
 X162.81306 Z15.60851
 X162.71959 Z15.62776
 X162.62613 Z15.64431
 X162.25225 Z15.69540
 X161.50450 Z15.76125
 X160.75676 Z15.79482
 X160.00901 Z15.80546
 X10.45946
 X9.71171 Z15.80393
 X8.96396 Z15.78523
 X8.21622 Z15.74139
 X7.46847 Z15.65972
 X5.22523 Z15.36281
 X4.85135 Z15.31220
 X4.66441 Z15.27983
 X4.57095 Z15.25956
 X4.47748 Z15.23454
 X3.72973 Z14.92783
 X2.00056 Z14.20775
 X1.97720 Z14.19772
 X1.96551 Z14.19215
 X1.95967 Z14.18918
 X1.95383 Z14.18605
 X1.86036 Z14.11730
 X-0.00901 Z12.67517
 X-0.75676 Z11.77392
 X-1.13063 Z11.28408
 X-1.73818 Z10.48806
 X-1.78491 Z10.39344
 X-2.25225 Z9.25912
 X-3.00000 Z6.18541
G0 Z35.00000
 Y31.74890
G1 Z6.24764
 X-2.75903 Z8.08784
 X-2.75830 Z8.09190
 X-2.75757 Z8.09451
 X-2.75465 Z8.10197
 X-1.75862 Z10.51946
 X-1.75716 Z10.52299
 X-1.75643 Z10.52460
 X-1.75570 Z10.52606
 X-1.75424 Z10.52866
 X-1.75278 Z10.53096
 X-1.74986 Z10.53498
 X-0.19595 Z12.57093
 X-0.00901 Z12.73739
 X1.11261 Z13.60266
 X1.48649 Z13.89110
 X1.86036 Z14.17952
 X2.23423 Z14.36728
 X3.72973 Z14.99006
 X4.10360 Z15.14575
 X4.38401 Z15.26252
 X4.43074 Z15.28125
 X4.47748 Z15.29677
 X5.22523 Z15.42983
 X7.46847 Z15.72705
 X8.21622 Z15.80937
 X8.96396 Z15.85322
 X9.71171 Z15.87192
 X10.45946 Z15.87345
 X160.00901
 X160.75676 Z15.86280
 X161.50450 Z15.82924
 X161.87838 Z15.80151
 X162.25225 Z15.76338
 X163.00000 Z15.61657
G0 Z35.00000
 Y32.34802
G1 Z15.67879
 X162.81306 Z15.73746
 X162.71959 Z15.75849
 X162.62613 Z15.77658
 X162.25225 Z15.83137
 X161.50450 Z15.89723
 X160.75676 Z15.93079
 X160.00901 Z15.94143
 X10.45946
 X9.71171 Z15.93991
 X8.96396 Z15.92121
 X8.21622 Z15.87736
 X7.46847 Z15.79504
 X5.22523 Z15.49782
 X4.85135 Z15.44507
 X4.66441 Z15.40971
 X4.57095 Z15.38757
 X4.47748 Z15.36023
 X3.72973 Z15.05228
 X2.00056 Z14.33219
 X1.97720 Z14.32215
 X1.96551 Z14.31659
 X1.95967 Z14.31362
 X1.95383 Z14.31049
 X1.86036 Z14.24174
 X1.48649 Z13.95331
 X-0.00901 Z12.79961
 X-0.75676 Z11.89838
 X-1.73818 Z10.61250
 X-1.78491 Z10.51788
 X-2.06532 Z9.83729
 X-2.15878 Z9.61044
 X-2.25225 Z9.38358
 X-3.00000 Z6.30986
G0 Z35.00000
 Y32.94714
G1 Z6.37208
 X-2.75903 Z8.21228
 X-2.75830 Z8.21634
 X-2.75757 Z8.21896
 X-2.75465 Z8.22641
 X-1.97185 Z10.12639
 X-1.92511 Z10.23980
 X-1.75862 Z10.64390
 X-1.75716 Z10.64746
 X-1.75643 Z10.64907
 X-1.75570 Z10.65053
 X-1.75424 Z10.65313
 X-1.75278 Z10.65543
 X-1.74986 Z10.65943
 X-1.73818 Z10.67473
 X-0.38288 Z12.45046
 X-0.28941 Z12.57290
 X-0.19595 Z12.69537
 X-0.00901 Z12.86184
 X0.73874 Z13.43868
 X1.48649 Z14.01567
 X1.86036 Z14.30440
 X2.23423 Z14.49565
 X2.98198 Z14.80739
 X4.38401 Z15.39185
 X4.43074 Z15.41126
 X4.47748 Z15.42821
 X5.22523 Z15.56581
 X7.46847 Z15.86303
 X8.21622 Z15.94535
 X8.96396 Z15.98919
 X9.71171 Z16.00790
 X10.45946 Z16.00942
 X160.00901
 X160.75676 Z15.99878
 X161.50450 Z15.96521
 X161.87838 Z15.93749
 X162.06532 Z15.91998
 X162.25225 Z15.89936
 X163.00000 Z15.74627
G0 Z35.00000
 Y33.54626
G1 Z15.81425
 X162.81306 Z15.87344
 X162.71959 Z15.89447
 X162.62613 Z15.91255
 X162.25225 Z15.96735
 X161.50450 Z16.03320
 X160.75676 Z16.06677
 X160.00901 Z16.07741
 X10.45946
 X9.71171 Z16.07589
 X8.96396 Z16.05718
 X8.21622 Z16.01334
 X7.46847 Z15.93102
 X6.72072 Z15.83194
 X5.22523 Z15.63379
 X4.85135 Z15.58103
 X4.66441 Z15.54566
 X4.57095 Z15.52352
 X4.47748 Z15.49619
 X3.72973 Z15.18709
 X2.98198 Z14.87538
 X2.60811 Z14.71950
 X2.23423 Z14.56364
 X1.48649 Z14.08366
 X0.17793 Z13.07314
 X0.08446 Z13.00097
 X-0.00901 Z12.92879
 X-0.75676 Z12.02497
 X-1.69144 Z10.79906
 X-1.71481 Z10.76841
 X-1.73818 Z10.73776
 X-1.78491 Z10.64234
 X-2.25225 Z9.50802
 X-3.00000 Z6.43430
G0 Z35.00000
 Y34.14537
G1 Z6.49660
 X-2.75903 Z8.33871
 X-2.75830 Z8.34309
 X-2.75793 Z8.34462
 X-2.75757 Z8.34595
 X-2.75465 Z8.35373
 X-2.71959 Z8.43889
 X-2.62613 Z8.66600
 X-1.75862 Z10.77376
 X-1.75716 Z10.77731
 X-1.75570 Z10.78066
 X-1.75424 Z10.78350
 X-1.75278 Z10.78602
 X-1.74986 Z10.79039
 X-1.73818 Z10.80575
 X-0.19595 Z12.82850
 X-0.00901 Z12.99678
 X0.73874 Z13.57421
 X1.86036 Z14.44037
 X2.23423 Z14.63163
 X2.98198 Z14.94334
 X3.72973 Z15.25508
 X4.38401 Z15.52782
 X4.43074 Z15.54721
 X4.47748 Z15.56416
 X5.22523 Z15.70178
 X7.46847 Z15.99900
 X8.21622 Z16.08132
 X8.96396 Z16.12707
 X9.71171 Z16.14737
 X10.45946 Z16.14901
 X160.00901 Z16.14902
 X160.75676 Z16.13747
 X161.50450 Z16.10119
 X161.87838 Z16.07346
 X162.06532 Z16.05595
 X162.25225 Z16.03533
 X163.00000 Z15.88224
G0 Z35.00000
 Y34.74449
G1 Z15.95023
 X162.81306 Z16.00941
 X162.71959 Z16.03044
 X162.62613 Z16.04853
 X162.25225 Z16.10337
 X161.50450 Z16.17482
 X160.75676 Z16.21124
 X160.00901 Z16.22279
 X10.45946
 X9.71171 Z16.22114
 X8.96396 Z16.20084
 X8.21622 Z16.15327
 X7.46847 Z16.06698
 X5.22523 Z15.76977
 X4.85135 Z15.71698
 X4.66441 Z15.68162
 X4.57095 Z15.65948
 X4.47748 Z15.63214
 X3.72973 Z15.32306
 X2.98198 Z15.01133
 X2.23423 Z14.69961
 X1.48649 Z14.21964
 X0.73874 Z13.64221
 X-0.00901 Z13.06476
 X-0.75676 Z12.16095
 X-1.73818 Z10.87373
 X-1.78491 Z10.77787
 X-2.25225 Z9.64238
 X-3.00000 Z6.56459
G0 Z35.00000
 Y35.34361
G1 Z6.63258
 X-2.75903 Z8.47468
 X-2.75830 Z8.47906
 X-2.75793 Z8.48059
 X-2.75757 Z8.48192
 X-2.75465 Z8.48970
 X-1.75716 Z10.91328
 X-1.75570 Z10.91661
 X-1.75424 Z10.91946
 X-1.75278 Z10.92197
 X-1.74986 Z10.92634
 X-1.73818 Z10.94172
 X-0.19595 Z12.96448
 X-0.00901 Z13.13275
 X0.73874 Z13.71019
 X1.48649 Z14.28762
 X1.86036 Z14.57634
 X2.23423 Z14.76760
 X3.72973 Z15.39103
 X4.10360 Z15.54691
 X4.38401 Z15.66380
 X4.43074 Z15.68317
 X4.47748 Z15.70012
 X5.22523 Z15.84255
 X5.97297 Z15.94174
 X7.46847 Z16.14011
 X8.21622 Z16.22704
 X8.96396 Z16.27461
 X9.71171 Z16.29491
 X10.45946 Z16.29656
 X160.00901
 X160.75676 Z16.28501
 X161.50450 Z16.24859
 X161.87838 Z16.21851
 X162.06532 Z16.19951
 X162.25225 Z16.17714
 X163.00000 Z16.01822
G0 Z35.00000
 Y35.94273
G1 Z16.08620
 X162.81306 Z16.14901
 X162.71959 Z16.17183
 X162.62613 Z16.19145
 X162.25225 Z16.25091
 X161.50450 Z16.32237
 X160.75676 Z16.35879
 X160.00901 Z16.37033
 X10.45946
 X9.71171 Z16.36868
 X8.96396 Z16.34839
 X8.21622 Z16.30081
 X7.46847 Z16.21388
 X5.97297 Z16.01551
 X5.22523 Z15.91632
 X5.03829 Z15.89083
 X4.85135 Z15.86048
 X4.66441 Z15.82210
 X4.47748 Z15.76841
 X3.72973 Z15.45901
 X2.23423 Z14.83559
 X1.48649 Z14.35562
 X-0.00901 Z13.20074
 X-0.75676 Z12.29691
 X-1.73818 Z11.00971
 X-1.78491 Z10.91385
 X-2.06532 Z10.23255
 X-2.15878 Z10.00544
 X-2.25225 Z9.77834
 X-3.00000 Z6.70057
G0 Z35.00000
 Y36.54185
G1 Z6.76856
 X-2.75903 Z8.61066
 X-2.75830 Z8.61503
 X-2.75793 Z8.61656
 X-2.75757 Z8.61789
 X-2.75465 Z8.62568
 X-2.06532 Z10.30053
 X-1.97185 Z10.52764
 X-1.75716 Z11.04925
 X-1.75570 Z11.05257
 X-1.75424 Z11.05541
 X-1.75278 Z11.05792
 X-1.74986 Z11.06229
 X-1.73818 Z11.07770
 X-0.38288 Z12.85526
 X-0.28941 Z12.97786
 X-0.19595 Z13.10045
 X-0.00901 Z13.26873
 X1.86036 Z14.71233
 X2.23423 Z14.90715
 X4.43074 Z15.82383
 X4.47748 Z15.84218
 X5.22523 Z15.99009
 X5.97297 Z16.08928
 X6.72072 Z16.18847
 X7.46847 Z16.28765
 X8.21622 Z16.37458
 X8.96396 Z16.42216
 X9.71171 Z16.44245
 X10.45946 Z16.44411
 X160.00901 Z16.44410
 X160.75676 Z16.43256
 X161.50450 Z16.39614
 X161.87838 Z16.36605
 X162.06532 Z16.34705
 X162.25225 Z16.32468
 X163.00000 Z16.15856
G0 Z35.00000
 Y37.14097
G1 Z16.23233
 X162.81306 Z16.29655
 X162.71959 Z16.31937
 X162.62613 Z16.33900
 X162.25225 Z16.39845
 X161.50450 Z16.46991
 X160.75676 Z16.50633
 X160.00901 Z16.51787
 X159.26126 Z16.51788
 X10.45946
 X9.71171 Z16.51622
 X8.96396 Z16.49593
 X8.21622 Z16.44835
 X7.46847 Z16.36143
 X6.72072 Z16.26223
 X5.22523 Z16.06386
 X5.03829 Z16.03837
 X4.85135 Z16.00802
 X4.66441 Z15.96964
 X4.57095 Z15.94562
 X4.47748 Z15.91595
 X3.72973 Z15.60504
 X2.98198 Z15.29298
 X2.60811 Z15.13695
 X2.23423 Z14.98092
 X1.48649 Z14.49684
 X0.17793 Z13.48517
 X0.08446 Z13.41293
 X-0.00901 Z13.34067
 X-0.75676 Z12.43398
 X-1.45777 Z11.51351
 X-1.50450 Z11.45216
 X-1.73818 Z11.14568
 X-1.78491 Z11.04982
 X-1.87838 Z10.82271
 X-2.25225 Z9.91432
 X-3.00000 Z6.83654
G0 Z35.00000
 Y37.74009
G1 Z6.90453
 X-2.81306 Z8.33356
 X-2.78970 Z8.51237
 X-2.75903 Z8.74708
 X-2.75830 Z8.75174
 X-2.75793 Z8.75340
 X-2.75757 Z8.75484
 X-2.75465 Z8.76312
 X-2.71959 Z8.84838
 X-2.62613 Z9.07573
 X-1.76154 Z11.17875
 X-1.75570 Z11.19289
 X-1.75278 Z11.19870
 X-1.74986 Z11.20345
 X-1.73818 Z11.21910
 X-0.19595 Z13.24413
 X-0.00901 Z13.41444
 X0.73874 Z13.99251
 X1.86036 Z14.85966
 X2.23423 Z15.05469
 X4.43074 Z15.97137
 X4.47748 Z15.98972
 X5.22523 Z16.13763
 X6.72072 Z16.33601
 X7.46847 Z16.43520
 X8.21622 Z16.52212
 X8.96396 Z16.57071
 X9.71171 Z16.59260
 X10.45946 Z16.59440
 X148.04505
 X148.79279 Z16.59442
 X159.26126
 X160.00901 Z16.59438
 X160.75676 Z16.58193
 X161.50450 Z16.54368
 X161.87838 Z16.51359
 X162.06532 Z16.49459
 X162.25225 Z16.47222
 X163.00000 Z16.30611
G0 Z35.00000
 Y38.33921
G1 Z16.37988
 X162.81306 Z16.44409
 X162.71959 Z16.46691
 X162.62613 Z16.48654
 X162.25225 Z16.54599
 X161.50450 Z16.62222
 X160.75676 Z16.66151
 X160.00901 Z16.67397
 X159.26126 Z16.67399
 X124.86486
 X124.11712 Z16.67397
 X10.45946
 X9.71171 Z16.67218
 X8.96396 Z16.65029
 X8.21622 Z16.59897
 X7.46847 Z16.50896
 X5.22523 Z16.21141
 X5.03829 Z16.18591
 X4.85135 Z16.15556
 X4.66441 Z16.11718
 X4.57095 Z16.09316
 X4.47748 Z16.06349
 X3.72973 Z15.75259
 X2.23423 Z15.12847
 X1.48649 Z14.64438
 X0.73874 Z14.06631
 X-0.00901 Z13.48822
 X-0.75676 Z12.58153
 X-1.73818 Z11.29287
 X-1.78491 Z11.19569
 X-2.25225 Z10.05891
 X-3.00000 Z6.97667
G0 Z35.00000
 Y38.93833
G1 Z7.05044
 X-2.75903 Z8.89463
 X-2.75830 Z8.89928
 X-2.75793 Z8.90094
 X-2.75757 Z8.90239
 X-2.75465 Z8.91067
 X-1.76154 Z11.32630
 X-1.75570 Z11.34045
 X-1.75278 Z11.34627
 X-1.74986 Z11.35101
 X-1.73818 Z11.36664
 X-0.19595 Z13.39167
 X-0.00901 Z13.56199
 X0.73874 Z14.14008
 X1.48649 Z14.71815
 X1.86036 Z15.00720
 X2.23423 Z15.20224
 X4.43074 Z16.11892
 X4.47748 Z16.13726
 X5.22523 Z16.28994
 X7.46847 Z16.58786
 X8.21622 Z16.67855
 X8.96396 Z16.72988
 X9.71171 Z16.75177
 X10.45946 Z16.75355
 X99.44144
 X100.18919 Z16.75357
 X159.26126
 X160.00901 Z16.75355
 X160.75676 Z16.74110
 X161.50450 Z16.70181
 X161.87838 Z16.66935
 X162.06532 Z16.64885
 X162.25225 Z16.62472
 X163.00000 Z16.45365
G0 Z35.00000
 Y39.53744
G1 Z16.52742
 X162.81306 Z16.59437
 X162.71959 Z16.61899
 X162.62613 Z16.64016
 X162.25225 Z16.70430
 X161.50450 Z16.78139
 X160.75676 Z16.82068
 X160.00901 Z16.83314
 X159.26126
 X75.51351
 X74.76577 Z16.83313
 X10.45946
 X9.71171 Z16.83135
 X8.96396 Z16.80946
 X8.21622 Z16.75814
 X7.46847 Z16.66743
 X5.22523 Z16.36951
 X5.03829 Z16.34248
 X4.85135 Z16.30973
 X4.66441 Z16.26833
 X4.47748 Z16.21103
 X3.72973 Z15.90013
 X2.23423 Z15.27601
 X1.48649 Z14.79195
 X-0.00901 Z13.63576
 X-0.75676 Z12.72907
 X-1.73818 Z11.44041
 X-1.78491 Z11.34323
 X-2.15878 Z10.43381
 X-2.25225 Z10.20647
 X-3.00000 Z7.12422
G0 Z35.00000
 Y40.13656
G1 Z7.19799
 X-2.75903 Z9.04217
 X-2.75830 Z9.04683
 X-2.75793 Z9.04849
 X-2.75757 Z9.04993
 X-2.75465 Z9.05821
 X-2.06532 Z10.73495
 X-1.97185 Z10.96229
 X-1.76154 Z11.47384
 X-1.75570 Z11.48802
 X-1.75278 Z11.49383
 X-1.74986 Z11.49858
 X-1.73818 Z11.51418
 X-0.19595 Z13.53922
 X-0.00901 Z13.70953
 X1.86036 Z15.15476
 X2.23423 Z15.35296
 X4.43074 Z16.27077
 X4.47748 Z16.28999
 X5.22523 Z16.44909
 X7.46847 Z16.74701
 X8.21622 Z16.83772
 X8.96396 Z16.88905
 X9.71171 Z16.91094
 X10.45946 Z16.91270
 X50.83784
 X51.58559 Z16.91272
 X160.00901
 X160.75676 Z16.90027
 X161.50450 Z16.86098
 X161.87838 Z16.82852
 X162.06532 Z16.80802
 X162.25225 Z16.78389
 X163.00000 Z16.60468
G0 Z35.00000
 Y40.73568
G1 Z16.68426
 X162.95327 Z16.70571
 X162.90653 Z16.72371
 X162.81306 Z16.75354
 X162.71959 Z16.77816
 X162.62613 Z16.79933
 X162.25225 Z16.86347
 X161.50450 Z16.94056
 X160.75676 Z16.97985
 X160.00901 Z16.99231
 X159.26126 Z16.99230
 X26.90991
 X26.16216 Z16.99228
 X10.45946
 X9.71171 Z16.99052
 X8.96396 Z16.96863
 X8.21622 Z16.91731
 X7.46847 Z16.82659
 X5.22523 Z16.52867
 X5.03829 Z16.50164
 X4.85135 Z16.46889
 X4.66441 Z16.42749
 X4.47748 Z16.36957
 X3.72973 Z16.05743
 X2.23423 Z15.43254
 X1.48649 Z14.94401
 X0.08446 Z13.85876
 X0.03773 Z13.82259
 X-0.00901 Z13.78641
 X-0.75676 Z12.87669
 X-1.13063 Z12.38570
 X-1.73818 Z11.58796
 X-1.78491 Z11.49077
 X-1.87838 Z11.26343
 X-2.25225 Z10.35401
 X-3.00000 Z7.27177
G0 Z35.00000
 Y41.33480
G1 Z7.34554
 X-2.77217 Z9.08913
 X-2.76925 Z9.11148
 X-2.75903 Z9.18971
 X-2.75830 Z9.19437
 X-2.75793 Z9.19603
 X-2.75757 Z9.19748
 X-2.75465 Z9.20575
 X-2.74880 Z9.21997
 X-1.76154 Z11.62434
 X-1.75570 Z11.63858
 X-1.75278 Z11.64485
 X-1.75132 Z11.64752
 X-1.74986 Z11.64997
 X-1.73818 Z11.66603
 X-1.69144 Z11.72747
 X-1.50450 Z11.97324
 X-0.19595 Z13.69354
 X-0.00901 Z13.86599
 X1.86036 Z15.31299
 X2.23423 Z15.51211
 X4.43074 Z16.42992
 X4.47748 Z16.44915
 X5.22523 Z16.60825
 X7.46847 Z16.90617
 X8.21622 Z16.99689
 X8.96396 Z17.04832
 X9.71171 Z17.07181
 X10.45946 Z17.07372
 X160.00901 Z17.07373
 X160.75676 Z17.06036
 X161.50450 Z17.02014
 X161.87838 Z16.98769
 X162.06532 Z16.96719
 X162.25225 Z16.94306
 X163.00000 Z16.76385
G0 Z35.00000
 Y41.93392
G1 Z16.84343
 X162.95327 Z16.86488
 X162.90653 Z16.88288
 X162.81306 Z16.91271
 X162.71959 Z16.93733
 X162.62613 Z16.95850
 X162.25225 Z17.02264
 X161.50450 Z17.10360
 X160.75676 Z17.14576
 X160.00901 Z17.15913
 X10.45946 Z17.15912
 X9.71171 Z17.15722
 X8.96396 Z17.13372
 X8.21622 Z17.07864
 X7.46847 Z16.98574
 X5.22523 Z16.68782
 X5.03829 Z16.66080
 X4.85135 Z16.62806
 X4.66441 Z16.58665
 X4.47748 Z16.52873
 X3.72973 Z16.21658
 X2.23423 Z15.59169
 X1.48649 Z15.10317
 X-0.00901 Z13.94557
 X-0.75676 Z13.03585
 X-1.13063 Z12.54433
 X-1.31757 Z12.29856
 X-1.73818 Z11.74561
 X-1.78491 Z11.64700
 X-2.25225 Z10.50884
 X-3.00000 Z7.42177
G0 Z35.00000
 Y42.53304
G1 Z7.50135
 X-2.75903 Z9.34778
 X-2.75830 Z9.35269
 X-2.75793 Z9.35448
 X-2.75757 Z9.35604
 X-2.75465 Z9.36489
 X-1.76154 Z11.78349
 X-1.75570 Z11.79773
 X-1.75278 Z11.80399
 X-1.75132 Z11.80666
 X-1.74986 Z11.80911
 X-1.73818 Z11.82519
 X-0.19595 Z13.85270
 X-0.00901 Z14.02515
 X1.86036 Z15.47214
 X2.23423 Z15.67127
 X4.43074 Z16.58907
 X4.47748 Z16.60831
 X5.22523 Z16.77166
 X5.97297 Z16.87143
 X7.46847 Z17.07030
 X8.21622 Z17.16405
 X8.96396 Z17.21912
 X9.71171 Z17.24262
 X10.45946 Z17.24453
 X160.00901
 X160.75676 Z17.23116
 X161.50450 Z17.18900
 X161.87838 Z17.15417
 X162.06532 Z17.13218
 X162.25225 Z17.10628
 X163.00000 Z16.92302
G0 Z35.00000
 Y43.13216
G1 Z17.00260
 X162.81306 Z17.07372
 X162.71959 Z17.10013
 X162.62613 Z17.12285
 X162.25225 Z17.19168
 X161.50450 Z17.27440
 X160.75676 Z17.31657
 X160.00901 Z17.32993
 X10.45946
 X9.71171 Z17.32802
 X8.96396 Z17.30453
 X8.21622 Z17.24945
 X7.46847 Z17.15571
 X5.59910 Z16.90711
 X5.22523 Z16.85707
 X5.03829 Z16.82807
 X4.85135 Z16.79293
 X4.66441 Z16.74850
 X4.47748 Z16.68789
 X3.72973 Z16.37573
 X2.23423 Z15.75085
 X1.48649 Z15.26232
 X-0.00901 Z14.10472
 X-0.75676 Z13.19499
 X-1.73818 Z11.90476
 X-1.78491 Z11.80616
 X-2.15878 Z10.89563
 X-2.25225 Z10.66799
 X-3.00000 Z7.58093
G0 Z35.00000
 Y43.73128
G1 Z7.66051
 X-2.75903 Z9.50694
 X-2.75830 Z9.51185
 X-2.75793 Z9.51364
 X-2.75757 Z9.51519
 X-2.75465 Z9.52405
 X-2.74880 Z9.53827
 X-2.06532 Z11.20283
 X-1.97185 Z11.43047
 X-1.75570 Z11.95687
 X-1.75278 Z11.96314
 X-1.75132 Z11.96580
 X-1.74986 Z11.96825
 X-1.73818 Z11.98434
 X-0.19595 Z14.01185
 X-0.00901 Z14.18430
 X1.83699 Z15.61321
 X1.86036 Z15.63130
 X1.94215 Z15.69460
 X1.95383 Z15.70328
 X1.97720 Z15.71820
 X2.00056 Z15.73174
 X2.04730 Z15.75470
 X2.23423 Z15.83320
 X2.98198 Z16.14603
 X4.43074 Z16.75219
 X4.47748 Z16.77174
 X4.66441 Z16.83391
 X4.85135 Z16.87834
 X5.22523 Z16.94248
 X5.97297 Z17.04223
 X7.46847 Z17.24111
 X8.21622 Z17.33485
 X8.96396 Z17.38993
 X9.71171 Z17.41342
 X10.45946 Z17.41534
 X159.26126 Z17.41535
 X160.00901 Z17.41534
 X160.75676 Z17.40197
 X161.50450 Z17.35981
 X161.87838 Z17.32498
 X162.06532 Z17.30298
 X162.15878 Z17.29058
 X162.25225 Z17.27708
 X163.00000 Z17.08477
G0 Z35.00000
 Y44.33040
G1 Z17.17018
 X162.95327 Z17.19319
 X162.90653 Z17.21251
 X162.81306 Z17.24452
 X162.71959 Z17.27094
 X162.62613 Z17.29366
 X162.25225 Z17.36249
 X161.50450 Z17.44521
 X160.75676 Z17.48737
 X160.00901 Z17.50074
 X159.26126 Z17.50075
 X10.45946
 X9.71171 Z17.49883
 X8.96396 Z17.47533
 X8.21622 Z17.42026
 X7.46847 Z17.32652
 X5.59910 Z17.07792
 X5.22523 Z17.02789
 X5.03829 Z16.99889
 X4.85135 Z16.96375
 X4.66441 Z16.91932
 X4.47748 Z16.85715
 X2.98198 Z16.23144
 X2.60811 Z16.07503
 X2.23423 Z15.91860
 X1.48649 Z15.42533
 X0.03773 Z14.30243
 X0.01436 Z14.28435
 X-0.00901 Z14.26624
 X-0.75676 Z13.35414
 X-1.73818 Z12.06392
 X-1.78491 Z11.96531
 X-2.25225 Z10.82714
 X-3.00000 Z7.74009
G0 Z35.00000
 Y44.92952
G1 Z7.81966
 X-2.78970 Z9.43110
 X-2.77801 Z9.52061
 X-2.75903 Z9.66609
 X-2.75830 Z9.67100
 X-2.75793 Z9.67279
 X-2.75757 Z9.67435
 X-2.75465 Z9.68320
 X-2.74880 Z9.69743
 X-2.62613 Z9.99619
 X-2.25225 Z10.90683
 X-1.75570 Z12.11771
 X-1.75278 Z12.12439
 X-1.75132 Z12.12725
 X-1.74986 Z12.12988
 X-1.73818 Z12.14664
 X-1.69144 Z12.20816
 X-1.50450 Z12.45426
 X-0.19595 Z14.17683
 X-0.00901 Z14.35164
 X0.73874 Z14.93118
 X1.86036 Z15.80052
 X1.95383 Z15.87292
 X1.97720 Z15.88893
 X2.00056 Z15.90258
 X2.04730 Z15.92553
 X2.23423 Z16.00401
 X2.98198 Z16.31686
 X3.72973 Z16.62970
 X4.43074 Z16.92300
 X4.47748 Z16.94256
 X4.66441 Z17.00473
 X4.85135 Z17.04916
 X5.22523 Z17.11330
 X5.97297 Z17.21304
 X7.46847 Z17.41192
 X8.21622 Z17.50566
 X8.96396 Z17.56074
 X9.71171 Z17.58503
 X10.45946 Z17.58706
 X155.52252
 X156.27027 Z17.58705
 X159.26126
 X160.00901 Z17.58708
 X160.75676 Z17.57279
 X161.50450 Z17.53061
 X161.87838 Z17.49578
 X162.06532 Z17.47379
 X162.15878 Z17.46138
 X162.25225 Z17.44789
 X163.00000 Z17.25558
G0 Z35.00000
 Y45.52863
G1 Z17.34098
 X162.95327 Z17.36399
 X162.90653 Z17.38332
 X162.81306 Z17.41533
 X162.71959 Z17.44174
 X162.62613 Z17.46446
 X162.25225 Z17.53329
 X161.50450 Z17.61900
 X160.75676 Z17.66404
 X160.00901 Z17.67833
 X159.26126 Z17.67831
 X132.34234
 X131.59459 Z17.67832
 X10.45946
 X9.71171 Z17.67628
 X8.96396 Z17.65118
 X8.21622 Z17.59233
 X7.46847 Z17.49732
 X5.59910 Z17.24873
 X5.22523 Z17.19871
 X5.03829 Z17.16971
 X4.85135 Z17.13457
 X4.66441 Z17.09014
 X4.47748 Z17.02797
 X3.72973 Z16.71510
 X2.98198 Z16.40227
 X2.23423 Z16.08941
 X1.48649 Z15.59614
 X0.36486 Z14.72682
 X-0.00901 Z14.43704
 X-0.75676 Z13.52399
 X-1.13063 Z13.03183
 X-1.31757 Z12.78573
 X-1.73818 Z12.23204
 X-1.78491 Z12.13189
 X-2.25225 Z10.99223
 X-3.00000 Z7.89998
G0 Z35.00000
 Y46.12775
G1 Z7.98539
 X-2.75903 Z9.83425
 X-2.75830 Z9.83937
 X-2.75757 Z9.84297
 X-2.75465 Z9.85247
 X-2.74880 Z9.86674
 X-1.75570 Z12.28852
 X-1.75278 Z12.29518
 X-1.75132 Z12.29804
 X-1.74986 Z12.30067
 X-1.73818 Z12.31745
 X-0.19595 Z14.34764
 X-0.00901 Z14.52245
 X0.73874 Z15.10201
 X1.48649 Z15.68155
 X1.86036 Z15.97133
 X1.95383 Z16.04376
 X1.97720 Z16.05977
 X2.00056 Z16.07341
 X2.04730 Z16.09637
 X2.23423 Z16.17482
 X3.72973 Z16.80053
 X4.10360 Z16.95694
 X4.43074 Z17.09381
 X4.47748 Z17.11338
 X4.66441 Z17.17555
 X4.85135 Z17.21998
 X5.22523 Z17.28745
 X5.97297 Z17.38832
 X7.46847 Z17.58747
 X8.21622 Z17.68358
 X8.96396 Z17.74243
 X9.71171 Z17.76753
 X10.45946 Z17.76958
 X106.91892
 X107.66667 Z17.76957
 X159.26126
 X160.00901 Z17.76958
 X160.75676 Z17.75530
 X161.50450 Z17.71025
 X161.87838 Z17.67303
 X162.06532 Z17.64953
 X162.25225 Z17.62186
 X163.00000 Z17.42639
G0 Z35.00000
 Y46.72687
G1 Z17.51179
 X162.81306 Z17.58707
 X162.71959 Z17.61529
 X162.62613 Z17.63957
 X162.25225 Z17.71311
 X161.50450 Z17.80150
 X160.75676 Z17.84655
 X160.00901 Z17.86083
 X159.26126 Z17.86082
 X83.73874
 X82.99099 Z17.86083
 X10.45946
 X9.71171 Z17.85878
 X8.96396 Z17.83368
 X8.21622 Z17.77483
 X7.46847 Z17.67873
 X6.72072 Z17.57915
 X5.97297 Z17.47956
 X5.41216 Z17.40488
 X5.22523 Z17.37870
 X5.03829 Z17.34772
 X4.85135 Z17.31018
 X4.66441 Z17.26271
 X4.47748 Z17.19879
 X2.23423 Z16.26022
 X1.48649 Z15.76695
 X0.73874 Z15.18741
 X-0.00901 Z14.60785
 X-0.75676 Z13.69481
 X-1.13063 Z13.20262
 X-1.73818 Z12.40285
 X-1.78491 Z12.30270
 X-2.25225 Z11.16304
 X-3.00000 Z8.07080
G0 Z35.00000
 Y47.32599
G1 Z8.15620
 X-2.75903 Z10.00506
 X-2.75830 Z10.01018
 X-2.75757 Z10.01377
 X-2.75465 Z10.02327
 X-2.74880 Z10.03755
 X-1.75570 Z12.45933
 X-1.75278 Z12.46597
 X-1.75132 Z12.46883
 X-1.74986 Z12.47146
 X-1.73818 Z12.48826
 X-0.75676 Z13.78018
 X-0.38288 Z14.27236
 X-0.19595 Z14.51844
 X-0.00901 Z14.69326
 X1.76689 Z16.06971
 X1.81363 Z16.10594
 X1.83699 Z16.12402
 X1.86036 Z16.14213
 X1.95383 Z16.21459
 X2.00056 Z16.24425
 X2.04730 Z16.26858
 X2.23423 Z16.34792
 X2.98198 Z16.66123
 X4.47748 Z17.28783
 X4.66441 Z17.35396
 X4.75788 Z17.37927
 X4.85135 Z17.40143
 X5.22523 Z17.46995
 X5.97297 Z17.57082
 X6.72072 Z17.67041
 X7.46847 Z17.76998
 X8.21622 Z17.86608
 X8.96396 Z17.92492
 X9.71171 Z17.95003
 X10.45946 Z17.95209
 X58.31532
 X59.06306 Z17.95208
 X160.00901
 X160.75676 Z17.93780
 X161.50450 Z17.89275
 X161.87838 Z17.85554
 X162.06532 Z17.83203
 X162.15878 Z17.81878
 X162.25225 Z17.80436
 X163.00000 Z17.59888
G0 Z35.00000
 Y47.92511
G1 Z17.69013
 X162.95327 Z17.71472
 X162.90653 Z17.73536
 X162.81306 Z17.76957
 X162.71959 Z17.79779
 X162.62613 Z17.82207
 X162.25225 Z17.89561
 X161.50450 Z17.98400
 X160.75676 Z18.02905
 X160.00901 Z18.04333
 X34.38739
 X33.63964 Z18.04335
 X10.45946
 X9.71171 Z18.04128
 X8.96396 Z18.01617
 X8.21622 Z17.95733
 X7.46847 Z17.86124
 X6.72072 Z17.76165
 X5.41216 Z17.58739
 X5.22523 Z17.56120
 X5.03829 Z17.53022
 X4.94482 Z17.51242
 X4.85135 Z17.49268
 X4.75788 Z17.47052
 X4.66441 Z17.44521
 X4.47748 Z17.37908
 X2.98198 Z16.75249
 X2.60811 Z16.59583
 X2.23423 Z16.43918
 X1.48649 Z15.94093
 X-0.00901 Z14.78017
 X-0.75676 Z13.86559
 X-1.73818 Z12.57366
 X-1.78491 Z12.47351
 X-2.25225 Z11.33385
 X-3.00000 Z8.24161
G0 Z35.00000
 Y48.52423
G1 Z8.32701
 X-2.75903 Z10.17587
 X-2.75830 Z10.18098
 X-2.75757 Z10.18457
 X-2.75465 Z10.19407
 X-2.74880 Z10.20836
 X-1.90175 Z12.27399
 X-1.87838 Z12.33102
 X-1.75570 Z12.63060
 X-1.75278 Z12.63751
 X-1.75132 Z12.64056
 X-1.74986 Z12.64338
 X-1.73818 Z12.66107
 X-1.69144 Z12.72268
 X-1.50450 Z12.96911
 X-0.19595 Z14.69411
 X-0.00901 Z14.87141
 X0.73874 Z15.45180
 X1.95383 Z16.39492
 X1.97720 Z16.41197
 X2.00056 Z16.42654
 X2.04730 Z16.45107
 X2.23423 Z16.53044
 X2.98198 Z16.84373
 X3.72973 Z17.15704
 X4.47748 Z17.47034
 X4.66441 Z17.53646
 X4.75788 Z17.56177
 X4.85135 Z17.58393
 X5.22523 Z17.65245
 X5.97297 Z17.75333
 X6.72072 Z17.85291
 X7.46847 Z17.95249
 X8.21622 Z18.04857
 X8.96396 Z18.10742
 X9.71171 Z18.13252
 X10.45946 Z18.13460
 X159.26126
 X160.00901 Z18.13461
 X160.75676 Z18.12030
 X161.50450 Z18.07525
 X161.87838 Z18.03804
 X162.06532 Z18.01454
 X162.15878 Z18.00128
 X162.25225 Z17.98686
 X163.00000 Z17.78138
G0 Z35.00000
 Y49.12335
G1 Z17.87264
 X162.95327 Z17.89722
 X162.90653 Z17.91787
 X162.81306 Z17.95207
 X162.71959 Z17.98030
 X162.62613 Z18.00457
 X162.25225 Z18.07811
 X161.50450 Z18.16858
 X160.75676 Z18.21653
 X160.00901 Z18.23174
 X10.45946 Z18.23173
 X9.71171 Z18.22955
 X8.96396 Z18.20283
 X8.21622 Z18.14019
 X7.46847 Z18.04374
 X5.41216 Z17.76990
 X5.22523 Z17.74370
 X5.03829 Z17.71272
 X4.94482 Z17.69492
 X4.85135 Z17.67518
 X4.75788 Z17.65302
 X4.66441 Z17.62771
 X4.47748 Z17.56159
 X3.72973 Z17.24830
 X2.98198 Z16.93499
 X2.23423 Z16.62169
 X1.48649 Z16.12344
 X0.73874 Z15.54306
 X0.36486 Z15.25285
 X-0.00901 Z14.96266
 X-0.75676 Z14.04608
 X-1.31757 Z13.30680
 X-1.41104 Z13.18358
 X-1.73818 Z12.75233
 X-1.78491 Z12.65053
 X-2.25225 Z11.50927
 X-3.00000 Z8.41241
G0 Z35.00000
 Y49.72247
G1 Z8.50268
 X-2.75903 Z10.35415
 X-2.75830 Z10.35945
 X-2.75757 Z10.36328
 X-2.75611 Z10.36897
 X-2.75465 Z10.37343
 X-2.74880 Z10.38793
 X-1.75570 Z12.81311
 X-1.75278 Z12.82004
 X-1.75132 Z12.82310
 X-1.74986 Z12.82591
 X-1.73818 Z12.84358
 X-0.19595 Z14.87662
 X-0.00901 Z15.05392
 X0.73874 Z15.63430
 X1.48649 Z16.21469
 X1.95383 Z16.57743
 X1.97720 Z16.59446
 X2.00056 Z16.60903
 X2.04730 Z16.63356
 X2.23423 Z16.71295
 X3.72973 Z17.33954
 X4.10360 Z17.49620
 X4.47748 Z17.65285
 X4.66441 Z17.71896
 X4.75788 Z17.74427
 X4.85135 Z17.76643
 X5.22523 Z17.83736
 X5.97297 Z17.93998
 X7.46847 Z18.13944
 X8.21622 Z18.23732
 X8.96396 Z18.29996
 X9.71171 Z18.32668
 X10.45946 Z18.32886
 X160.00901 Z18.32887
 X160.75676 Z18.31366
 X161.50450 Z18.26571
 X161.87838 Z18.22610
 X162.06532 Z18.20109
 X162.15878 Z18.18698
 X162.25225 Z18.17163
 X163.00000 Z17.96389
G0 Z35.00000
 Y50.32159
G1 Z18.05514
 X162.81306 Z18.13460
 X162.71959 Z18.16464
 X162.62613 Z18.19048
 X162.25225 Z18.26876
 X161.50450 Z18.36284
 X160.75676 Z18.41079
 X160.00901 Z18.42600
 X10.45946 Z18.42599
 X9.71171 Z18.42381
 X8.96396 Z18.39709
 X8.21622 Z18.33445
 X7.46847 Z18.23657
 X5.59910 Z17.98725
 X5.41216 Z17.96227
 X5.22523 Z17.93449
 X5.03829 Z17.90151
 X4.85135 Z17.86155
 X4.47748 Z17.74410
 X3.72973 Z17.43079
 X2.23423 Z16.80420
 X1.48649 Z16.30595
 X0.73874 Z15.72555
 X-0.00901 Z15.14518
 X-0.75676 Z14.22860
 X-1.73818 Z12.93484
 X-1.78491 Z12.83304
 X-2.25225 Z11.69178
 X-3.00000 Z8.59395
G0 Z35.00000
 Y50.92070
G1 Z8.68520
 X-2.75903 Z10.53666
 X-2.75830 Z10.54195
 X-2.75757 Z10.54579
 X-2.75611 Z10.55148
 X-2.75465 Z10.55594
 X-2.74880 Z10.57045
 X-1.75570 Z12.99563
 X-1.75278 Z13.00257
 X-1.75132 Z13.00563
 X-1.74986 Z13.00844
 X-1.73818 Z13.02610
 X-0.19595 Z15.05914
 X-0.00901 Z15.23643
 X1.76689 Z16.61483
 X1.81363 Z16.65112
 X1.95383 Z16.75994
 X1.97720 Z16.77695
 X2.00056 Z16.79152
 X2.04730 Z16.81639
 X2.23423 Z16.89729
 X2.98198 Z17.21104
 X4.47748 Z17.83858
 X4.66441 Z17.90815
 X4.75788 Z17.93509
 X4.85135 Z17.95868
 X5.22523 Z18.03161
 X5.97297 Z18.13424
 X7.46847 Z18.33370
 X8.21622 Z18.43158
 X8.96396 Z18.49422
 X9.71171 Z18.52094
 X10.45946 Z18.52313
 X160.00901
 X160.75676 Z18.50792
 X161.50450 Z18.45997
 X161.87838 Z18.42036
 X162.06532 Z18.39535
 X162.15878 Z18.38124
 X162.25225 Z18.36589
 X163.00000 Z18.14717
G0 Z35.00000
 Y51.51982
G1 Z18.24430
 X162.95327 Z18.27047
 X162.90653 Z18.29245
 X162.81306 Z18.32886
 X162.71959 Z18.35890
 X162.62613 Z18.38474
 X162.25225 Z18.46302
 X161.50450 Z18.55710
 X160.75676 Z18.60505
 X160.00901 Z18.62025
 X10.45946 Z18.62026
 X9.71171 Z18.61808
 X8.96396 Z18.59136
 X8.21622 Z18.52871
 X7.46847 Z18.43083
 X5.59910 Z18.18151
 X5.41216 Z18.15653
 X5.22523 Z18.12874
 X5.03829 Z18.09577
 X4.94482 Z18.07683
 X4.85135 Z18.05581
 X4.47748 Z17.93571
 X2.98198 Z17.30818
 X2.60811 Z17.15130
 X2.23423 Z16.99442
 X1.48649 Z16.49087
 X-0.00901 Z15.32837
 X-0.75676 Z14.41110
 X-1.73818 Z13.11735
 X-1.78491 Z13.01555
 X-2.25225 Z11.87429
 X-3.00000 Z8.77646
G0 Z35.00000
 Y52.11894
G1 Z8.86771
 X-2.75903 Z10.71918
 X-2.75830 Z10.72445
 X-2.75757 Z10.72829
 X-2.75611 Z10.73398
 X-2.75465 Z10.73844
 X-2.74880 Z10.75296
 X-1.78491 Z13.10681
 X-1.76154 Z13.16387
 X-1.75570 Z13.17814
 X-1.75278 Z13.18511
 X-1.74986 Z13.19098
 X-1.73818 Z13.20948
 X-1.69144 Z13.27119
 X-1.50450 Z13.51798
 X-0.19595 Z15.24557
 X-0.00901 Z15.42550
 X1.95383 Z16.95129
 X1.97720 Z16.96905
 X2.00056 Z16.98456
 X2.04730 Z17.01067
 X2.23423 Z17.09155
 X2.98198 Z17.40532
 X4.47748 Z18.03285
 X4.66441 Z18.10241
 X4.75788 Z18.12935
 X4.85135 Z18.15294
 X5.22523 Z18.22587
 X5.97297 Z18.32851
 X7.46847 Z18.52797
 X8.21622 Z18.62585
 X8.96396 Z18.68849
 X9.71171 Z18.71521
 X10.45946 Z18.71739
 X160.00901 Z18.71738
 X160.75676 Z18.70218
 X161.50450 Z18.65423
 X161.87838 Z18.61462
 X162.06532 Z18.58960
 X162.15878 Z18.57550
 X162.25225 Z18.56015
 X163.00000 Z18.34143
G0 Z35.00000
 Y52.71806
G1 Z18.43856
 X162.95327 Z18.46473
 X162.90653 Z18.48671
 X162.81306 Z18.52311
 X162.71959 Z18.55316
 X162.62613 Z18.57900
 X162.25225 Z18.65728
 X161.50450 Z18.75253
 X160.75676 Z18.80340
 X160.00901 Z18.81953
 X159.26126 Z18.81954
 X31.39640
 X30.64865 Z18.81956
 X10.45946
 X9.71171 Z18.81723
 X8.96396 Z18.78888
 X8.21622 Z18.72298
 X7.46847 Z18.62510
 X5.59910 Z18.37578
 X5.41216 Z18.35079
 X5.22523 Z18.32300
 X5.03829 Z18.29003
 X4.94482 Z18.27108
 X4.85135 Z18.25007
 X4.47748 Z18.12998
 X2.23423 Z17.18868
 X1.48649 Z16.68514
 X-0.00901 Z15.52263
 X-0.75676 Z14.60231
 X-1.31757 Z13.86191
 X-1.41104 Z13.73852
 X-1.73525 Z13.31048
 X-1.73818 Z13.30662
 X-1.78491 Z13.20306
 X-2.25225 Z12.06008
 X-3.00000 Z8.95897
G0 Z35.00000
 Y53.31718
G1 Z9.05339
 X-2.75903 Z10.90764
 X-2.75830 Z10.91306
 X-2.75757 Z10.91715
 X-2.75611 Z10.92321
 X-2.75465 Z10.92796
 X-2.74880 Z10.94279
 X-1.75570 Z13.37163
 X-1.75278 Z13.37875
 X-1.75132 Z13.38200
 X-1.74986 Z13.38500
 X-1.73818 Z13.40375
 X-1.69144 Z13.46546
 X-0.19595 Z15.43984
 X-0.00901 Z15.61977
 X1.95383 Z17.14555
 X1.97720 Z17.16333
 X2.00056 Z17.17884
 X2.04730 Z17.20495
 X2.23423 Z17.28582
 X3.72973 Z17.91335
 X4.10360 Z18.07023
 X4.47748 Z18.22711
 X4.66441 Z18.29667
 X4.75788 Z18.32361
 X4.85135 Z18.34720
 X5.22523 Z18.42160
 X5.97297 Z18.52657
 X7.46847 Z18.72634
 X8.21622 Z18.82547
 X8.96396 Z18.89192
 X9.71171 Z18.92027
 X10.45946 Z18.92260
 X54.57658
 X55.32432 Z18.92258
 X160.00901
 X160.75676 Z18.90645
 X161.50450 Z18.85558
 X161.87838 Z18.81356
 X162.06532 Z18.78702
 X162.15878 Z18.77205
 X162.25225 Z18.75576
 X163.00000 Z18.53569
G0 Z35.00000
 Y53.91630
G1 Z18.63282
 X162.95327 Z18.65899
 X162.90653 Z18.68097
 X162.81306 Z18.71737
 X162.71959 Z18.74835
 X162.62613 Z18.77576
 X162.25225 Z18.85881
 X161.50450 Z18.95862
 X160.75676 Z19.00950
 X160.00901 Z19.02562
 X80.00000
 X79.25225 Z19.02564
 X10.45946
 X9.71171 Z19.02332
 X8.96396 Z18.99497
 X8.21622 Z18.92851
 X7.46847 Z18.82938
 X6.72072 Z18.72949
 X5.59910 Z18.57965
 X5.41216 Z18.55411
 X5.22523 Z18.52463
 X5.03829 Z18.48966
 X4.85135 Z18.44726
 X4.47748 Z18.32424
 X2.23423 Z17.38295
 X1.48649 Z16.87940
 X-0.00901 Z15.71690
 X-0.75676 Z14.79657
 X-1.13063 Z14.30299
 X-1.73525 Z13.50475
 X-1.73818 Z13.50089
 X-1.78491 Z13.39733
 X-2.25225 Z12.25435
 X-3.00000 Z9.15052
G0 Z35.00000
 Y54.51542
G1 Z9.24767
 X-2.75903 Z11.10191
 X-2.75830 Z11.10734
 X-2.75757 Z11.11142
 X-2.75611 Z11.11748
 X-2.75465 Z11.12223
 X-2.74880 Z11.13705
 X-1.75570 Z13.56590
 X-1.75278 Z13.57303
 X-1.75132 Z13.57628
 X-1.74986 Z13.57927
 X-1.73818 Z13.59803
 X-1.69144 Z13.65972
 X-0.75676 Z14.89372
 X-0.38288 Z15.38730
 X-0.19595 Z15.63410
 X-0.00901 Z15.81403
 X1.95383 Z17.33982
 X1.97720 Z17.35760
 X2.00056 Z17.37312
 X2.04730 Z17.39923
 X2.23423 Z17.48147
 X2.98198 Z17.79571
 X4.47748 Z18.42425
 X4.66441 Z18.49670
 X4.75788 Z18.52528
 X4.85135 Z18.55030
 X5.22523 Z18.62767
 X5.97297 Z18.73263
 X6.72072 Z18.83253
 X7.46847 Z18.93242
 X8.21622 Z19.03156
 X8.96396 Z19.09801
 X9.71171 Z19.12636
 X10.45946 Z19.12867
 X103.18018
 X103.92793 Z19.12866
 X159.26126
 X160.00901 Z19.12867
 X160.75676 Z19.11254
 X161.50450 Z19.06167
 X161.87838 Z19.01965
 X162.06532 Z18.99311
 X162.15878 Z18.97814
 X162.25225 Z18.96186
 X163.00000 Z18.72995
G0 Z35.00000
 Y55.11454
G1 Z18.83287
 X162.95327 Z18.86063
 X162.90653 Z18.88394
 X162.81306 Z18.92257
 X162.71959 Z18.95444
 X162.62613 Z18.98185
 X162.25225 Z19.06490
 X161.50450 Z19.16471
 X160.75676 Z19.21559
 X160.00901 Z19.23171
 X159.26126 Z19.23170
 X128.60360
 X127.85586 Z19.23171
 X10.45946
 X9.71171 Z19.22941
 X8.96396 Z19.20106
 X8.21622 Z19.13460
 X7.46847 Z19.03545
 X6.72072 Z18.93556
 X5.59910 Z18.78573
 X5.41216 Z18.76017
 X5.22523 Z18.73070
 X5.03829 Z18.69573
 X4.94482 Z18.67563
 X4.85135 Z18.65333
 X4.47748 Z18.52729
 X2.98198 Z17.89875
 X2.60811 Z17.74162
 X2.23423 Z17.58448
 X1.48649 Z17.07538
 X0.17793 Z16.05656
 X0.08446 Z15.98382
 X-0.00901 Z15.91116
 X-0.75676 Z14.99085
 X-1.73525 Z13.69901
 X-1.73818 Z13.69517
 X-1.78491 Z13.59159
 X-2.25225 Z12.44860
 X-3.00000 Z9.34480
G0 Z35.00000
 Y55.71366
G1 Z9.44194
 X-2.75903 Z11.29618
 X-2.75830 Z11.30162
 X-2.75757 Z11.30570
 X-2.75611 Z11.31176
 X-2.75465 Z11.31651
 X-2.74880 Z11.33132
 X-1.75570 Z13.76016
 X-1.75278 Z13.76730
 X-1.75132 Z13.77055
 X-1.74986 Z13.77355
 X-1.73818 Z13.79230
 X-1.69144 Z13.85399
 X-1.50450 Z14.10096
 X-0.14921 Z15.89312
 X-0.13753 Z15.90789
 X-0.12584 Z15.92041
 X-0.10248 Z15.94120
 X-0.00901 Z16.01403
 X0.73874 Z16.59623
 X1.95383 Z17.54228
 X1.97720 Z17.56045
 X2.00056 Z17.57690
 X2.02393 Z17.59145
 X2.04730 Z17.60459
 X2.23423 Z17.68752
 X4.47748 Z18.63032
 X4.66441 Z18.70276
 X4.75788 Z18.73134
 X4.85135 Z18.75637
 X5.22523 Z18.83374
 X5.97297 Z18.93871
 X7.46847 Z19.13849
 X8.21622 Z19.23765
 X8.96396 Z19.30410
 X9.71171 Z19.33245
 X10.45946 Z19.33475
 X152.53153 Z19.33476
 X153.27928 Z19.33473
 X159.26126
 X160.00901 Z19.33476
 X160.75676 Z19.31863
 X161.50450 Z19.26776
 X161.87838 Z19.22574
 X162.06532 Z19.19920
 X162.15878 Z19.18423
 X162.25225 Z19.16795
 X163.00000 Z18.93591
G0 Z35.00000
 Y56.31278
G1 Z19.03896
 X162.95327 Z19.06672
 X162.90653 Z19.09003
 X162.81306 Z19.12866
 X162.71959 Z19.16053
 X162.62613 Z19.18794
 X162.25225 Z19.27099
 X161.50450 Z19.37106
 X160.75676 Z19.42486
 X160.00901 Z19.44191
 X159.26126 Z19.44192
 X10.45946
 X9.71171 Z19.43947
 X8.96396 Z19.40949
 X8.21622 Z19.34070
 X7.46847 Z19.24152
 X5.59910 Z18.99180
 X5.41216 Z18.96624
 X5.22523 Z18.93677
 X5.03829 Z18.90179
 X4.94482 Z18.88170
 X4.85135 Z18.85940
 X4.47748 Z18.73336
 X2.23423 Z17.79056
 X1.48649 Z17.28146
 X0.73874 Z16.69927
 X0.36486 Z16.40816
 X-0.00901 Z16.11707
 X-0.75676 Z15.19277
 X-1.41104 Z14.32759
 X-1.45777 Z14.26582
 X-1.50450 Z14.20399
 X-1.73233 Z13.90272
 X-1.73525 Z13.89889
 X-1.73818 Z13.89483
 X-1.78491 Z13.78957
 X-2.25225 Z12.64476
 X-3.00000 Z9.53907
G0 Z35.00000
 Y56.91189
G1 Z9.63763
 X-2.75903 Z11.49486
 X-2.75830 Z11.50040
 X-2.75757 Z11.50473
 X-2.75611 Z11.51116
 X-2.75465 Z11.51620
 X-2.74880 Z11.53141
 X-1.75570 Z13.96416
 X-1.75278 Z13.97134
 X-1.75132 Z13.97479
 X-1.74986 Z13.97796
 X-1.74402 Z13.98883
 X-1.73818 Z13.99785
 X-1.69144 Z14.05983
 X-0.14921 Z16.09919
 X-0.13753 Z16.11396
 X-0.12584 Z16.12648
 X-0.10248 Z16.14727
 X-0.00901 Z16.22011
 X0.73874 Z16.80229
 X1.48649 Z17.38449
 X1.95383 Z17.74836
 X1.97720 Z17.76651
 X2.00056 Z17.78296
 X2.02393 Z17.79751
 X2.04730 Z17.81066
 X2.23423 Z17.89359
 X3.72973 Z18.52213
 X4.10360 Z18.67926
 X4.47748 Z18.83640
 X4.66441 Z18.90883
 X4.75788 Z18.93741
 X4.85135 Z18.96244
 X5.22523 Z19.04032
 X5.97297 Z19.14815
 X7.46847 Z19.34827
 X8.21622 Z19.44819
 X8.96396 Z19.51847
 X9.71171 Z19.54844
 X10.45946 Z19.55089
 X160.00901 Z19.55088
 X160.75676 Z19.53383
 X161.50450 Z19.48003
 X161.87838 Z19.43559
 X162.06532 Z19.40753
 X162.15878 Z19.39170
 X162.25225 Z19.37448
 X163.00000 Z19.14200
G0 Z35.00000
 Y57.51101
G1 Z19.24505
 X162.95327 Z19.27281
 X162.90653 Z19.29612
 X162.81306 Z19.33475
 X162.71959 Z19.36664
 X162.62613 Z19.39562
 X162.25225 Z19.48345
 X161.50450 Z19.58900
 X160.75676 Z19.64280
 X160.00901 Z19.65986
 X10.45946
 X9.71171 Z19.65742
 X8.96396 Z19.62744
 X8.21622 Z19.55716
 X7.46847 Z19.45724
 X6.72072 Z19.35718
 X5.97297 Z19.25710
 X5.59910 Z19.20708
 X5.41216 Z19.18047
 X5.22523 Z19.14930
 X5.03829 Z19.11231
 X4.85135 Z19.06747
 X4.47748 Z18.93944
 X2.23423 Z17.99663
 X1.48649 Z17.48753
 X0.73874 Z16.90533
 X-0.00901 Z16.32314
 X-0.75676 Z15.39885
 X-1.73233 Z14.10879
 X-1.73525 Z14.10493
 X-1.73818 Z14.10088
 X-1.78491 Z13.99565
 X-2.25225 Z12.85083
 X-3.00000 Z9.74067
G0 Z35.00000
 Y58.11013
G1 Z9.84371
 X-2.75903 Z11.70093
 X-2.75830 Z11.70647
 X-2.75757 Z11.71081
 X-2.75611 Z11.71723
 X-2.75465 Z11.72227
 X-2.74880 Z11.73749
 X-2.25225 Z12.95385
 X-2.06532 Z13.41180
 X-1.75278 Z14.17739
 X-1.75132 Z14.18083
 X-1.74986 Z14.18401
 X-1.74402 Z14.19488
 X-1.73818 Z14.20390
 X-1.69144 Z14.26590
 X-0.14921 Z16.30527
 X-0.13753 Z16.32003
 X-0.12584 Z16.33255
 X-0.10248 Z16.35334
 X-0.00901 Z16.42618
 X1.67342 Z17.73609
 X1.76689 Z17.80889
 X1.95383 Z17.95443
 X1.97720 Z17.97257
 X2.00056 Z17.98903
 X2.02393 Z18.00357
 X2.04730 Z18.01672
 X2.23423 Z18.10053
 X2.98198 Z18.41532
 X4.47748 Z19.04494
 X4.66441 Z19.11975
 X4.85135 Z19.17644
 X5.22523 Z19.25827
 X5.97297 Z19.36608
 X6.72072 Z19.46615
 X7.46847 Z19.56621
 X8.21622 Z19.66613
 X8.96396 Z19.73641
 X9.71171 Z19.76639
 X10.45946 Z19.76883
 X160.00901
 X160.75676 Z19.75177
 X161.50450 Z19.69797
 X161.87838 Z19.65353
 X162.06532 Z19.62547
 X162.15878 Z19.60964
 X162.25225 Z19.59242
 X163.00000 Z19.34809
G0 Z35.00000
 Y58.70925
G1 Z19.45601
 X162.95327 Z19.48537
 X162.90653 Z19.51003
 X162.81306 Z19.55087
 X162.71959 Z19.58458
 X162.62613 Z19.61357
 X162.25225 Z19.70139
 X161.50450 Z19.80695
 X160.75676 Z19.86074
 X160.00901 Z19.87780
 X10.45946
 X9.71171 Z19.87536
 X8.96396 Z19.84538
 X8.21622 Z19.77510
 X7.46847 Z19.67518
 X6.72072 Z19.57510
 X5.59910 Z19.42502
 X5.41216 Z19.39842
 X5.31869 Z19.38347
 X5.22523 Z19.36725
 X5.03829 Z19.33026
 X4.94482 Z19.30900
 X4.85135 Z19.28542
 X4.47748 Z19.15391
 X2.98198 Z18.52430
 X2.60811 Z18.36691
 X2.23423 Z18.20951
 X1.48649 Z17.69457
 X0.73874 Z17.11140
 X-0.00901 Z16.52922
 X-0.75676 Z15.60491
 X-1.73233 Z14.31487
 X-1.73525 Z14.31098
 X-1.73818 Z14.30692
 X-1.78491 Z14.20172
 X-1.87838 Z13.97276
 X-2.06532 Z13.51482
 X-2.25225 Z13.05689
 X-3.00000 Z9.94675
G0 Z35.00000
 Y59.30837
G1 Z10.04979
 X-2.75903 Z11.90701
 X-2.75830 Z11.91255
 X-2.75757 Z11.91688
 X-2.75611 Z11.92331
 X-2.75465 Z11.92834
 X-2.74880 Z11.94356
 X-1.87838 Z14.07578
 X-1.78491 Z14.30476
 X-1.75278 Z14.38347
 X-1.75132 Z14.38688
 X-1.74986 Z14.39006
 X-1.74402 Z14.40093
 X-1.73818 Z14.40995
 X-1.69144 Z14.47198
 X-1.50450 Z14.71917
 X-0.75676 Z15.70867
 X-0.14921 Z16.51342
 X-0.13753 Z16.52863
 X-0.12584 Z16.54188
 X-0.10248 Z16.56387
 X-0.00901 Z16.63722
 X0.73874 Z17.22037
 X1.97720 Z18.18625
 X2.00056 Z18.20363
 X2.02393 Z18.21901
 X2.04730 Z18.23292
 X2.23423 Z18.31848
 X2.98198 Z18.63328
 X3.72973 Z18.94807
 X4.47748 Z19.26288
 X4.66441 Z19.33770
 X4.85135 Z19.39439
 X5.22523 Z19.47622
 X5.97297 Z19.58402
 X7.46847 Z19.78413
 X8.21622 Z19.88408
 X8.96396 Z19.95435
 X9.71171 Z19.98433
 X10.45946 Z19.98677
 X160.00901
 X160.75676 Z19.96972
 X161.50450 Z19.91592
 X161.87838 Z19.87148
 X162.06532 Z19.84341
 X162.15878 Z19.82758
 X162.25225 Z19.81036
 X163.00000 Z19.56498
G0 Z35.00000
 Y59.90749
G1 Z19.67396
 X162.95327 Z19.70332
 X162.90653 Z19.72797
 X162.81306 Z19.76882
 X162.71959 Z19.80252
 X162.62613 Z19.83151
 X162.25225 Z19.91934
 X161.50450 Z20.02489
 X160.75676 Z20.08096
 X160.00901 Z20.09895
 X23.17117
 X22.42342 Z20.09893
 X10.45946
 X9.71171 Z20.09637
 X8.96396 Z20.06475
 X8.21622 Z19.99305
 X7.46847 Z19.89310
 X5.59910 Z19.64296
 X5.41216 Z19.61637
 X5.31869 Z19.60142
 X5.22523 Z19.58520
 X5.03829 Z19.54821
 X4.94482 Z19.52695
 X4.85135 Z19.50337
 X4.47748 Z19.37185
 X3.72973 Z19.05704
 X2.98198 Z18.74225
 X2.23423 Z18.42745
 X1.48649 Z17.91252
 X0.73874 Z17.32934
 X0.36486 Z17.03778
 X-0.00901 Z16.74619
 X-0.75676 Z15.81764
 X-1.50450 Z14.82718
 X-1.59797 Z14.70338
 X-1.72649 Z14.53314
 X-1.73233 Z14.52536
 X-1.73525 Z14.52131
 X-1.73818 Z14.51703
 X-1.78491 Z14.41023
 X-2.25225 Z13.26347
 X-3.00000 Z10.15283
G0 Z35.00000
 Y60.50661
G1 Z10.25586
 X-2.81306 Z11.69875
 X-2.75903 Z12.11592
 X-2.75830 Z12.12154
 X-2.75757 Z12.12612
 X-2.75611 Z12.13292
 X-2.75465 Z12.13824
 X-2.74880 Z12.15401
 X-1.75278 Z14.59804
 X-1.75132 Z14.60160
 X-1.74986 Z14.60496
 X-1.74402 Z14.61646
 X-1.73818 Z14.62600
 X-1.69144 Z14.68854
 X-0.14921 Z16.73136
 X-0.13753 Z16.74660
 X-0.12584 Z16.75985
 X-0.10248 Z16.78184
 X-0.00901 Z16.85516
 X0.73874 Z17.43834
 X1.48649 Z18.02149
 X1.97720 Z18.40419
 X2.00056 Z18.42157
 X2.02393 Z18.43696
 X2.04730 Z18.45086
 X2.23423 Z18.53642
 X3.72973 Z19.16603
 X4.10360 Z19.32342
 X4.47748 Z19.48082
 X4.66441 Z19.55565
 X4.85135 Z19.61234
 X5.22523 Z19.69417
 X5.97297 Z19.80482
 X7.46847 Z20.00530
 X8.21622 Z20.10556
 X8.96396 Z20.17968
 X9.71171 Z20.21129
 X10.45946 Z20.21387
 X47.09910
 X47.84685 Z20.21389
 X160.00901
 X160.75676 Z20.19590
 X161.50450 Z20.13915
 X161.87838 Z20.09228
 X162.06532 Z20.06268
 X162.15878 Z20.04598
 X162.25225 Z20.02831
 X163.00000 Z19.78293
G0 Z35.00000
 Y61.10573
G1 Z19.89190
 X162.95327 Z19.92126
 X162.90653 Z19.94591
 X162.81306 Z19.98676
 X162.71959 Z20.02047
 X162.62613 Z20.05013
 X162.43919 Z20.10115
 X162.25225 Z20.14276
 X161.50450 Z20.25409
 X160.75676 Z20.31083
 X160.00901 Z20.32882
 X72.52252 Z20.32883
 X71.77477 Z20.32881
 X10.45946
 X9.71171 Z20.32622
 X8.96396 Z20.29460
 X8.21622 Z20.22049
 X7.46847 Z20.12023
 X5.97297 Z19.91976
 X5.59910 Z19.86954
 X5.41216 Z19.84155
 X5.22523 Z19.80867
 X5.03829 Z19.76965
 X4.85135 Z19.72236
 X4.47748 Z19.58979
 X3.72973 Z19.27500
 X2.23423 Z18.64539
 X1.48649 Z18.13046
 X0.73874 Z17.54731
 X-0.00901 Z16.96413
 X-0.75676 Z16.03558
 X-1.72649 Z14.75108
 X-1.73233 Z14.74331
 X-1.73525 Z14.73926
 X-1.73818 Z14.73497
 X-1.78491 Z14.62817
 X-2.25225 Z13.48141
 X-3.00000 Z10.36451
G0 Z35.00000
 Y61.70485
G1 Z10.47349
 X-2.75903 Z12.33386
 X-2.75830 Z12.33947
 X-2.75757 Z12.34406
 X-2.75611 Z12.35085
 X-2.75465 Z12.35618
 X-2.74880 Z12.37195
 X-1.75278 Z14.81598
 X-1.75132 Z14.81955
 X-1.74986 Z14.82291
 X-1.74402 Z14.83441
 X-1.73818 Z14.84395
 X-1.69144 Z14.90648
 X-0.14921 Z16.94930
 X-0.13753 Z16.96457
 X-0.12584 Z16.97782
 X-0.10248 Z16.99981
 X-0.00901 Z17.07310
 X1.48649 Z18.23945
 X1.67342 Z18.38522
 X1.97720 Z18.62214
 X2.00056 Z18.63952
 X2.02393 Z18.65490
 X2.04730 Z18.66881
 X2.23423 Z18.75471
 X4.47748 Z19.70082
 X4.66441 Z19.77751
 X4.85135 Z19.83730
 X5.22523 Z19.92360
 X5.97297 Z20.03470
 X8.21622 Z20.33541
 X8.96396 Z20.40953
 X9.71171 Z20.44114
 X10.45946 Z20.44374
 X95.70270
 X96.45045 Z20.44376
 X160.00901
 X160.75676 Z20.42577
 X161.50450 Z20.36903
 X161.87838 Z20.32216
 X162.06532 Z20.29255
 X162.15878 Z20.27586
 X162.25225 Z20.25770
 X163.00000 Z20.00087
G0 Z35.00000
 Y62.30396
G1 Z20.11382
 X162.95327 Z20.14479
 X162.90653 Z20.17079
 X162.81306 Z20.21387
 X162.71959 Z20.24943
 X162.62613 Z20.28000
 X162.43919 Z20.33102
 X162.25225 Z20.37263
 X161.50450 Z20.48397
 X160.75676 Z20.54071
 X160.00901 Z20.55870
 X121.12613
 X120.37838 Z20.55868
 X10.45946
 X9.71171 Z20.55606
 X8.96396 Z20.52445
 X8.21622 Z20.45034
 X5.97297 Z20.14963
 X5.59910 Z20.09941
 X5.41216 Z20.07142
 X5.31869 Z20.05565
 X5.22523 Z20.03854
 X5.03829 Z19.99952
 X4.94482 Z19.97710
 X4.85135 Z19.95223
 X4.47748 Z19.81576
 X2.23423 Z18.86964
 X1.48649 Z18.34866
 X0.73874 Z17.76525
 X-0.00901 Z17.18207
 X-0.75676 Z16.25353
 X-1.72649 Z14.96902
 X-1.73233 Z14.96125
 X-1.73525 Z14.95721
 X-1.73818 Z14.95292
 X-1.78491 Z14.84611
 X-2.25225 Z13.69936
 X-3.00000 Z10.58246
G0 Z35.00000
 Y62.90308
G1 Z10.69143
 X-2.75903 Z12.55181
 X-2.75830 Z12.55741
 X-2.75757 Z12.56199
 X-2.75611 Z12.56878
 X-2.75465 Z12.57411
 X-2.74880 Z12.58989
 X-1.90175 Z14.66840
 X-1.87838 Z14.72573
 X-1.75278 Z15.03393
 X-1.75132 Z15.03750
 X-1.74986 Z15.04086
 X-1.74402 Z15.05236
 X-1.73818 Z15.06190
 X-1.69144 Z15.12442
 X-0.75676 Z16.36250
 X-0.38288 Z16.85829
 X-0.14921 Z17.16837
 X-0.13753 Z17.18388
 X-0.12584 Z17.19784
 X-0.11416 Z17.21006
 X-0.10248 Z17.22104
 X-0.00901 Z17.29516
 X1.95383 Z18.82874
 X2.00056 Z18.86497
 X2.02393 Z18.88120
 X2.04730 Z18.89586
 X2.23423 Z18.98458
 X4.47748 Z19.93069
 X4.66441 Z20.00738
 X4.85135 Z20.06717
 X5.22523 Z20.15347
 X5.97297 Z20.26457
 X8.21622 Z20.56528
 X8.96396 Z20.63940
 X9.71171 Z20.67103
 X10.45946 Z20.67362
 X144.30631
 X145.05405 Z20.67364
 X160.00901
 X160.75676 Z20.65565
 X161.50450 Z20.59890
 X161.87838 Z20.55203
 X162.06532 Z20.52243
 X162.15878 Z20.50573
 X162.25225 Z20.48757
 X163.00000 Z20.22876
G0 Z35.00000
 Y63.50220
G1 Z20.34369
 X162.95327 Z20.37466
 X162.90653 Z20.40067
 X162.81306 Z20.44375
 X162.71959 Z20.47930
 X162.62613 Z20.50988
 X162.43919 Z20.56090
 X162.25225 Z20.60251
 X161.50450 Z20.71384
 X160.75676 Z20.77193
 X160.00901 Z20.79086
 X10.45946
 X9.71171 Z20.78815
 X8.96396 Z20.75488
 X8.21622 Z20.68023
 X7.46847 Z20.57998
 X5.97297 Z20.37950
 X5.59910 Z20.32928
 X5.41216 Z20.30129
 X5.31869 Z20.28552
 X5.22523 Z20.26841
 X5.03829 Z20.22939
 X4.94482 Z20.20697
 X4.85135 Z20.18210
 X4.47748 Z20.04563
 X2.23423 Z19.09951
 X1.48649 Z18.57853
 X0.73874 Z17.99431
 X0.36486 Z17.70221
 X-0.00901 Z17.41010
 X-0.75676 Z16.47711
 X-1.50450 Z15.48487
 X-1.59797 Z15.36081
 X-1.72649 Z15.19027
 X-1.73233 Z15.18232
 X-1.73525 Z15.17806
 X-1.73818 Z15.17354
 X-1.78491 Z15.06524
 X-1.87838 Z14.83548
 X-2.06532 Z14.37600
 X-2.25225 Z13.91730
 X-3.00000 Z10.80040
G0 Z35.00000
 Y64.10132
G1 Z10.90937
 X-2.81306 Z12.35311
 X-2.76049 Z12.75974
 X-2.75757 Z12.78149
 X-2.75611 Z12.78866
 X-2.75465 Z12.79427
 X-2.74880 Z12.81073
 X-2.71959 Z12.88254
 X-2.62613 Z13.11229
 X-1.75278 Z15.25916
 X-1.74986 Z15.26628
 X-1.74402 Z15.27841
 X-1.73818 Z15.28847
 X-1.69144 Z15.35172
 X-0.14921 Z17.39824
 X-0.13753 Z17.41374
 X-0.12584 Z17.42771
 X-0.11416 Z17.43992
 X-0.10248 Z17.45090
 X-0.00901 Z17.52503
 X1.95383 Z19.05861
 X2.00056 Z19.09483
 X2.02393 Z19.11106
 X2.04730 Z19.12572
 X2.23423 Z19.21445
 X4.47748 Z20.16056
 X4.66441 Z20.23725
 X4.85135 Z20.29704
 X5.22523 Z20.38334
 X5.97297 Z20.49677
 X8.21622 Z20.79806
 X8.96396 Z20.87581
 X9.71171 Z20.90908
 X10.45946 Z20.91180
 X160.00901 Z20.91179
 X160.75676 Z20.89286
 X161.50450 Z20.83316
 X161.87838 Z20.78384
 X162.06532 Z20.75270
 X162.15878 Z20.73561
 X162.25225 Z20.71744
 X163.00000 Z20.45863
G0 Z35.00000
 Y64.70044
G1 Z20.57357
 X162.95327 Z20.60454
 X162.90653 Z20.63054
 X162.81306 Z20.67362
 X162.71959 Z20.70918
 X162.62613 Z20.73975
 X162.43919 Z20.79317
 X162.25225 Z20.83695
 X161.50450 Z20.95409
 X160.75676 Z21.01380
 X160.00901 Z21.03272
 X10.45946 Z21.03273
 X9.71171 Z21.03001
 X8.96396 Z20.99675
