G40 (disable tool radius compensation)
G49 (disable tool length compensation)
G80 (cancel modal motion)
G54 (select coordinate system 1)
G90 (disable incremental moves)
G21 (metric)
F2000.00000
S250.00000
G61 (exact path mode)
;PYCAM_TOOLPATH_SETTINGS: START
;[Bounds]
;maxz = 34.0
;maxx = 242.0
;maxy = 127.0
;minx = 83.0
;miny = 3.0
;minz = 8.0
;
;[Tool]
;torus_radius = 0.125
;shape = CylindricalCutter
;tool_radius = 3.0
;feedrate = 2000.0
;
;[Process]
;engrave_offset = 0.0
;step_down = 3.0
;generator = DropCutter
;postprocessor = PathAccumulator
;overlap_percent = 90
;milling_style = ignore
;material_allowance = 0.5
;pocketing_type = none
;path_direction = y
;
;PYCAM_TOOLPATH_SETTINGS: END
G0 Z35.00000
 X83.00000 Y3.00000
G1 Z12.10418
 Y6.36145 Z13.59805
 Y6.45482 Z13.63956
 Y6.49859 Z13.65901
 Y6.50151 Z13.65998
 Y8.22892 Z13.89722
 Y8.97590 Z13.99101
 Y9.72289 Z14.03309
 Y10.46988 Z14.07648
 Y11.21687 Z14.12120
 Y11.96386 Z14.16710
 Y12.71084 Z14.21498
 Y13.45783 Z14.26350
 Y14.20482 Z14.31440
 Y14.95181 Z14.36608
 Y15.69880 Z14.41950
 Y16.44578 Z14.47434
 Y17.19277 Z14.53026
 Y17.93976 Z14.58832
 Y18.68675 Z14.64718
 Y21.67470 Z14.90021
 Y22.42169 Z14.96458
 Y25.40964 Z15.24623
 Y26.15663 Z15.31819
 Y29.14458 Z15.62849
 Y29.89157 Z15.70807
 Y32.87952 Z16.04714
 Y33.62651 Z16.13438
 Y36.61446 Z16.50231
 Y37.36145 Z16.59724
 Y40.34940 Z16.99410
 Y41.09639 Z17.09673
 Y44.08434 Z17.52267
 Y44.83133 Z17.63304
 Y47.81928 Z18.08816
 Y48.56627 Z18.20627
 Y51.55422 Z18.69069
 Y52.30120 Z18.81665
 Y55.28916 Z19.33052
 Y56.03614 Z19.46436
 Y59.02410 Z20.00782
 Y59.77108 Z20.14950
 Y62.75904 Z20.72271
 Y63.50602 Z20.87237
 Y66.49398 Z21.47549
 Y67.24096 Z21.63309
 Y69.48193 Z22.10800
 Y70.22892 Z22.26629
 Y70.97590 Z22.43196
 Y73.21687 Z22.92957
 Y73.96386 Z23.09572
 Y76.95181 Z23.78968
 Y77.69880 Z23.96394
 Y80.68675 Z24.68857
 Y81.43373 Z24.87098
 Y84.42169 Z25.62651
 Y85.16867 Z25.81713
 Y88.15663 Z26.60379
 Y88.90361 Z26.80269
 Y91.89157 Z27.62071
 Y92.63855 Z27.82698
 Y93.38554 Z28.03658
 Y94.13253 Z28.24816
 Y94.87952 Z28.46125
 Y95.62651 Z28.67586
 Y96.37349 Z28.89194
 Y97.12048 Z29.10984
 Y97.86747 Z29.32949
 Y98.61446 Z29.55061
 Y99.36145 Z29.77316
 Y100.10843 Z29.99742
 Y100.85542 Z30.17868
 Y102.34940 Z30.53253
 Y103.09639 Z30.63694
 Y104.59036 Z30.73334
 Y105.33735 Z30.76018
 Y106.08434 Z30.76058
 Y106.83133 Z30.76060
 Y112.80723
 Y113.55422 Z30.73731
 Y115.04819 Z30.66069
 Y115.79518 Z30.46849
 Y119.81024 Z29.18861
 Y119.85693 Z29.17367
 Y119.90361 Z29.15879
 Y120.27711 Z28.82943
 Y124.33886 Z24.94792
 Y124.36220 Z24.92564
 Y124.38554 Z24.90333
 Y124.75904 Z24.18467
 Y126.25301 Z20.79068
 Y127.00000 Z18.27561
 X83.59774
 Y126.71988 Z19.56001
 Y126.67319 Z19.77374
 Y126.64985 Z19.88077
 Y126.62651 Z19.94219
 Y124.57229 Z24.60892
 Y124.52560 Z24.71489
 Y124.48475 Z24.80769
 Y124.47892 Z24.81410
 Y124.38554 Z24.90333
 Y124.01205 Z25.26023
 Y119.95030 Z29.14174
 Y119.90361 Z29.15879
 Y119.53012 Z29.27791
 Y115.23494 Z30.64708
 Y115.04819 Z30.66069
 Y113.55422 Z30.73731
 Y112.80723 Z30.76060
 Y106.83133
 Y106.08434 Z30.76058
 Y105.33735 Z30.76018
 Y104.59036 Z30.73334
 Y102.72289 Z30.61284
 Y102.34940 Z30.53253
 Y100.85542 Z30.17868
 Y100.10843 Z29.99742
 Y99.36145 Z29.77316
 Y98.61446 Z29.55061
 Y97.86747 Z29.32949
 Y97.12048 Z29.10984
 Y96.37349 Z28.89194
 Y95.62651 Z28.67586
 Y94.87952 Z28.46125
 Y94.13253 Z28.24816
 Y93.38554 Z28.03658
 Y92.63855 Z27.82698
 Y91.89157 Z27.62071
 Y88.90361 Z26.80269
 Y88.15663 Z26.60379
 Y85.16867 Z25.81713
 Y84.42169 Z25.62651
 Y81.43373 Z24.87098
 Y80.68675 Z24.68857
 Y77.69880 Z23.96394
 Y76.95181 Z23.78968
 Y73.96386 Z23.09572
 Y73.21687 Z22.92957
 Y70.97590 Z22.43196
 Y70.22892 Z22.26629
 Y69.48193 Z22.10800
 Y67.24096 Z21.63309
 Y66.49398 Z21.47549
 Y63.50602 Z20.87237
 Y62.75904 Z20.72271
 Y59.77108 Z20.14950
 Y59.02410 Z20.00782
 Y56.03614 Z19.46436
 Y55.28916 Z19.33052
 Y52.30120 Z18.81665
 Y51.55422 Z18.69069
 Y48.56627 Z18.20627
 Y47.81928 Z18.08816
 Y44.83133 Z17.63304
 Y44.08434 Z17.52267
 Y41.09639 Z17.09673
 Y40.34940 Z16.99410
 Y37.36145 Z16.59724
 Y36.61446 Z16.50231
 Y33.62651 Z16.13438
 Y32.87952 Z16.04714
 Y29.89157 Z15.70807
 Y29.14458 Z15.62849
 Y26.15663 Z15.31819
 Y25.40964 Z15.24623
 Y22.42169 Z14.96458
 Y21.67470 Z14.90021
 Y18.68675 Z14.64718
 Y17.93976 Z14.58832
 Y17.19277 Z14.53026
 Y16.44578 Z14.47434
 Y15.69880 Z14.41950
 Y14.95181 Z14.36608
 Y14.20482 Z14.31440
 Y13.45783 Z14.26350
 Y12.71084 Z14.21498
 Y11.96386 Z14.16710
 Y11.21687 Z14.12120
 Y10.46988 Z14.07648
 Y9.72289 Z14.03309
 Y8.97590 Z13.99101
 Y8.22892 Z13.89722
 Y6.73494 Z13.69204
 Y5.98795 Z13.43207
 Y3.00000 Z12.10418
 X84.19549
 Y6.33810 Z13.58768
 Y6.36145 Z13.59806
 Y6.49859 Z13.65901
 Y6.50151 Z13.65998
 Y8.22892 Z13.89722
 Y8.97590 Z13.99101
 Y9.72289 Z14.03309
 Y10.46988 Z14.07648
 Y11.21687 Z14.12120
 Y11.96386 Z14.16710
 Y12.71084 Z14.21498
 Y13.45783 Z14.26350
 Y14.20482 Z14.31440
 Y14.95181 Z14.36608
 Y15.69880 Z14.41950
 Y16.44578 Z14.47434
 Y17.19277 Z14.53026
 Y17.93976 Z14.58832
 Y18.68675 Z14.64718
 Y21.67470 Z14.90021
 Y22.42169 Z14.96458
 Y25.40964 Z15.24623
 Y26.15663 Z15.31819
 Y29.14458 Z15.62849
 Y29.89157 Z15.70807
 Y32.87952 Z16.04714
 Y33.62651 Z16.13438
 Y36.61446 Z16.50231
 Y37.36145 Z16.59724
 Y40.34940 Z16.99410
 Y41.09639 Z17.09673
 Y44.08434 Z17.52267
 Y44.83133 Z17.63304
 Y47.81928 Z18.08816
 Y48.56627 Z18.20627
 Y51.55422 Z18.69069
 Y52.30120 Z18.81665
 Y55.28916 Z19.33052
 Y56.03614 Z19.46436
 Y59.02410 Z20.00782
 Y59.77108 Z20.14950
 Y62.75904 Z20.72271
 Y63.50602 Z20.87237
 Y66.49398 Z21.47549
 Y67.24096 Z21.63309
 Y69.48193 Z22.10800
 Y70.22892 Z22.26629
 Y70.97590 Z22.43196
 Y73.21687 Z22.92957
 Y73.96386 Z23.09572
 Y76.95181 Z23.78968
 Y77.69880 Z23.96394
 Y80.68675 Z24.68857
 Y81.43373 Z24.87098
 Y84.42169 Z25.62651
 Y85.16867 Z25.81713
 Y88.15663 Z26.60379
 Y88.90361 Z26.80269
 Y91.89157 Z27.62071
 Y92.63855 Z27.82698
 Y93.38554 Z28.03658
 Y94.13253 Z28.24816
 Y94.87952 Z28.46125
 Y95.62651 Z28.67586
 Y96.37349 Z28.89194
 Y97.12048 Z29.10984
 Y97.86747 Z29.32949
 Y98.61446 Z29.55061
 Y99.36145 Z29.77316
 Y100.10843 Z29.99742
 Y100.85542 Z30.17868
 Y102.34940 Z30.53253
 Y103.09639 Z30.63694
 Y104.59036 Z30.73334
 Y105.33735 Z30.76018
 Y106.08434 Z30.76058
 Y106.83133 Z30.76060
 Y112.80723
 Y113.55422 Z30.73731
 Y115.04819 Z30.66069
 Y115.79518 Z30.46849
 Y119.71687 Z29.21838
 Y119.81024 Z29.18855
 Y119.90361 Z29.15879
 Y120.27711 Z28.82943
 Y124.29217 Z24.99254
 Y124.33886 Z24.94795
 Y124.38554 Z24.90333
 Y124.75904 Z24.18467
 Y126.25301 Z20.79068
 Y127.00000 Z18.27561
 X84.79323
 Y126.71988 Z19.56001
 Y126.67319 Z19.77374
 Y126.64985 Z19.88077
 Y126.62651 Z19.94219
 Y124.57229 Z24.60892
 Y124.52560 Z24.71489
 Y124.48475 Z24.80769
 Y124.47892 Z24.81410
 Y124.38554 Z24.90333
 Y124.01205 Z25.26023
 Y119.95030 Z29.14174
 Y119.90361 Z29.15879
 Y119.53012 Z29.27791
 Y115.23494 Z30.64708
 Y115.04819 Z30.66069
 Y113.55422 Z30.73731
 Y112.80723 Z30.76060
 Y106.83133
 Y106.08434 Z30.76058
 Y105.33735 Z30.76018
 Y104.59036 Z30.73334
 Y102.72289 Z30.61284
 Y102.34940 Z30.53253
 Y100.85542 Z30.17868
 Y100.10843 Z29.99742
 Y99.36145 Z29.77316
 Y98.61446 Z29.55061
 Y97.86747 Z29.32949
 Y97.12048 Z29.10984
 Y96.37349 Z28.89194
 Y95.62651 Z28.67586
 Y94.87952 Z28.46125
 Y94.13253 Z28.24816
 Y93.38554 Z28.03658
 Y92.63855 Z27.82698
 Y91.89157 Z27.62071
 Y88.90361 Z26.80269
 Y88.15663 Z26.60379
 Y85.16867 Z25.81713
 Y84.42169 Z25.62651
 Y81.43373 Z24.87098
 Y80.68675 Z24.68857
 Y77.69880 Z23.96394
 Y76.95181 Z23.78968
 Y73.96386 Z23.09572
 Y73.21687 Z22.92957
 Y70.97590 Z22.43196
 Y70.22892 Z22.26629
 Y69.48193 Z22.10800
 Y67.24096 Z21.63309
 Y66.49398 Z21.47549
 Y63.50602 Z20.87237
 Y62.75904 Z20.72271
 Y59.77108 Z20.14950
 Y59.02410 Z20.00782
 Y56.03614 Z19.46436
 Y55.28916 Z19.33052
 Y52.30120 Z18.81665
 Y51.55422 Z18.69069
 Y48.56627 Z18.20627
 Y47.81928 Z18.08816
 Y44.83133 Z17.63304
 Y44.08434 Z17.52267
 Y41.09639 Z17.09673
 Y40.34940 Z16.99410
 Y37.36145 Z16.59724
 Y36.61446 Z16.50231
 Y33.62651 Z16.13438
 Y32.87952 Z16.04714
 Y29.89157 Z15.70807
 Y29.14458 Z15.62849
 Y26.15663 Z15.31819
 Y25.40964 Z15.24623
 Y22.42169 Z14.96458
 Y21.67470 Z14.90021
 Y18.68675 Z14.64718
 Y17.93976 Z14.58832
 Y17.19277 Z14.53026
 Y16.44578 Z14.47434
 Y15.69880 Z14.41950
 Y14.95181 Z14.36608
 Y14.20482 Z14.31440
 Y13.45783 Z14.26350
 Y12.71084 Z14.21498
 Y11.96386 Z14.16710
 Y11.21687 Z14.12120
 Y10.46988 Z14.07648
 Y9.72289 Z14.03309
 Y8.97590 Z13.99101
 Y8.22892 Z13.89722
 Y6.73494 Z13.69204
 Y5.98795 Z13.43207
 Y3.00000 Z12.10418
 X85.39098
 Y6.26807 Z13.55656
 Y6.31476 Z13.57732
 Y6.33810 Z13.58769
 Y6.49859 Z13.65901
 Y6.50151 Z13.65998
 Y8.22892 Z13.89722
 Y8.97590 Z13.99101
 Y9.72289 Z14.03309
 Y10.46988 Z14.07648
 Y11.21687 Z14.12120
 Y11.96386 Z14.16710
 Y12.71084 Z14.21498
 Y13.45783 Z14.26350
 Y14.20482 Z14.31440
 Y14.95181 Z14.36608
 Y15.69880 Z14.41950
 Y16.44578 Z14.47434
 Y17.19277 Z14.53026
 Y17.93976 Z14.58832
 Y18.68675 Z14.64718
 Y21.67470 Z14.90021
 Y22.42169 Z14.96458
 Y25.40964 Z15.24623
 Y26.15663 Z15.31819
 Y29.14458 Z15.62849
 Y29.89157 Z15.70807
 Y32.87952 Z16.04714
 Y33.62651 Z16.13438
 Y36.61446 Z16.50231
 Y37.36145 Z16.59724
 Y40.34940 Z16.99410
 Y41.09639 Z17.09673
 Y44.08434 Z17.52267
 Y44.83133 Z17.63304
 Y47.81928 Z18.08816
 Y48.56627 Z18.20627
 Y51.55422 Z18.69069
 Y52.30120 Z18.81665
 Y55.28916 Z19.33052
 Y56.03614 Z19.46436
 Y58.27711 Z19.87195
 Y59.02410 Z20.00779
 Y59.77108 Z20.14950
 Y62.75904 Z20.72271
 Y63.50602 Z20.87237
 Y66.49398 Z21.47549
 Y67.24096 Z21.63309
 Y69.48193 Z22.10800
 Y70.22892 Z22.26629
 Y70.97590 Z22.43196
 Y73.21687 Z22.92957
 Y73.96386 Z23.09572
 Y76.95181 Z23.78968
 Y77.69880 Z23.96394
 Y80.68675 Z24.68857
 Y81.43373 Z24.87098
 Y84.42169 Z25.62651
 Y85.16867 Z25.81713
 Y88.15663 Z26.60379
 Y88.90361 Z26.80269
 Y91.89157 Z27.62071
 Y92.63855 Z27.82698
 Y93.38554 Z28.03658
 Y94.13253 Z28.24816
 Y94.87952 Z28.46125
 Y95.62651 Z28.67586
 Y96.37349 Z28.89194
 Y97.12048 Z29.10984
 Y97.86747 Z29.32949
 Y98.61446 Z29.55061
 Y99.36145 Z29.77316
 Y100.10843 Z29.99742
 Y100.85542 Z30.17868
 Y102.34940 Z30.53253
 Y103.09639 Z30.63694
 Y104.59036 Z30.73334
 Y105.33735 Z30.76018
 Y106.08434 Z30.76058
 Y106.83133 Z30.76060
 Y112.80723
 Y113.55422 Z30.73731
 Y115.04819 Z30.66069
 Y115.79518 Z30.46849
 Y119.71687 Z29.21838
 Y119.81024 Z29.18855
 Y119.90361 Z29.15879
 Y120.27711 Z28.82943
 Y124.19880 Z25.08177
 Y124.29217 Z24.99256
 Y124.38554 Z24.90333
 Y124.75904 Z24.18467
 Y126.25301 Z20.79068
 Y127.00000 Z18.27561
 X85.98872
 Y126.71988 Z19.56001
 Y126.67319 Z19.77374
 Y126.64985 Z19.88077
 Y126.62651 Z19.94219
 Y124.75904 Z24.18467
 Y124.57229 Z24.60882
 Y124.48475 Z24.80769
 Y124.47892 Z24.81410
 Y124.38554 Z24.90333
 Y124.01205 Z25.26023
 Y119.95030 Z29.14174
 Y119.90361 Z29.15879
 Y119.53012 Z29.27791
 Y115.23494 Z30.64708
 Y115.04819 Z30.66069
 Y113.55422 Z30.73731
 Y112.80723 Z30.76060
 Y106.83133
 Y106.08434 Z30.76058
 Y105.33735 Z30.76018
 Y104.59036 Z30.73334
 Y102.72289 Z30.61284
 Y102.34940 Z30.53253
 Y100.85542 Z30.17868
 Y100.10843 Z29.99742
 Y99.36145 Z29.77316
 Y98.61446 Z29.55061
 Y97.86747 Z29.32949
 Y97.12048 Z29.10984
 Y96.37349 Z28.89194
 Y95.62651 Z28.67586
 Y94.87952 Z28.46125
 Y94.13253 Z28.24816
 Y93.38554 Z28.03658
 Y92.63855 Z27.82698
 Y91.89157 Z27.62071
 Y88.90361 Z26.80269
 Y88.15663 Z26.60379
 Y85.16867 Z25.81713
 Y84.42169 Z25.62651
 Y81.43373 Z24.87098
 Y80.68675 Z24.68857
 Y77.69880 Z23.96394
 Y76.95181 Z23.78968
 Y73.96386 Z23.09572
 Y73.21687 Z22.92957
 Y70.97590 Z22.43196
 Y70.22892 Z22.26629
 Y69.48193 Z22.10800
 Y67.24096 Z21.63309
 Y66.49398 Z21.47549
 Y63.50602 Z20.87237
 Y62.75904 Z20.72271
 Y59.77108 Z20.14950
 Y59.02410 Z20.00779
 Y58.27711 Z19.87195
 Y56.03614 Z19.46436
 Y55.28916 Z19.33052
 Y52.30120 Z18.81665
 Y51.55422 Z18.69069
 Y48.56627 Z18.20627
 Y47.81928 Z18.08816
 Y44.83133 Z17.63304
 Y44.08434 Z17.52267
 Y41.09639 Z17.09673
 Y40.34940 Z16.99410
 Y37.36145 Z16.59724
 Y36.61446 Z16.50231
 Y33.62651 Z16.13438
 Y32.87952 Z16.04714
 Y29.89157 Z15.70807
 Y29.14458 Z15.62849
 Y26.15663 Z15.31819
 Y25.40964 Z15.24623
 Y22.42169 Z14.96458
 Y21.67470 Z14.90021
 Y18.68675 Z14.64718
 Y17.93976 Z14.58832
 Y17.19277 Z14.53026
 Y16.44578 Z14.47434
 Y15.69880 Z14.41950
 Y14.95181 Z14.36608
 Y14.20482 Z14.31440
 Y13.45783 Z14.26350
 Y12.71084 Z14.21498
 Y11.96386 Z14.16710
 Y11.21687 Z14.12120
 Y10.46988 Z14.07648
 Y9.72289 Z14.03309
 Y8.97590 Z13.99101
 Y8.22892 Z13.89722
 Y6.73494 Z13.69204
 Y5.98795 Z13.43207
 Y3.00000 Z12.10418
 X86.58647
 Y6.26807 Z13.55656
 Y6.31476 Z13.57731
 Y6.49859 Z13.65901
 Y6.50151 Z13.65998
 Y8.22892 Z13.89722
 Y8.97590 Z13.99101
 Y9.72289 Z14.03309
 Y10.46988 Z14.07648
 Y11.21687 Z14.12120
 Y11.96386 Z14.16710
 Y12.71084 Z14.21498
 Y13.45783 Z14.26350
 Y14.20482 Z14.31440
 Y14.95181 Z14.36608
 Y15.69880 Z14.41950
 Y16.44578 Z14.47434
 Y17.19277 Z14.53026
 Y17.93976 Z14.58832
 Y18.68675 Z14.64718
 Y21.67470 Z14.90021
 Y22.42169 Z14.96458
 Y25.40964 Z15.24623
 Y26.15663 Z15.31819
 Y29.14458 Z15.62849
 Y29.89157 Z15.70807
 Y32.87952 Z16.04714
 Y33.62651 Z16.13438
 Y36.61446 Z16.50231
 Y37.36145 Z16.59724
 Y40.34940 Z16.99410
 Y41.09639 Z17.09673
 Y44.08434 Z17.52267
 Y44.83133 Z17.63304
 Y47.81928 Z18.08816
 Y48.56627 Z18.20627
 Y51.55422 Z18.69069
 Y52.30120 Z18.81665
 Y55.28916 Z19.33052
 Y56.03614 Z19.46436
 Y58.27711 Z19.87195
 Y59.02410 Z20.00779
 Y59.77108 Z20.14950
 Y62.75904 Z20.72271
 Y63.50602 Z20.87237
 Y66.49398 Z21.47549
 Y67.24096 Z21.63309
 Y69.48193 Z22.10800
 Y70.22892 Z22.26629
 Y70.97590 Z22.43196
 Y73.21687 Z22.92957
 Y73.96386 Z23.09572
 Y76.95181 Z23.78968
 Y77.69880 Z23.96394
 Y80.68675 Z24.68857
 Y81.43373 Z24.87098
 Y84.42169 Z25.62651
 Y85.16867 Z25.81713
 Y88.15663 Z26.60379
 Y88.90361 Z26.80269
 Y91.89157 Z27.62071
 Y92.63855 Z27.82698
 Y93.38554 Z28.03658
 Y94.13253 Z28.24816
 Y94.87952 Z28.46125
 Y95.62651 Z28.67586
 Y96.37349 Z28.89194
 Y97.12048 Z29.10984
 Y97.86747 Z29.32949
 Y98.61446 Z29.55061
 Y99.36145 Z29.77316
 Y100.10843 Z29.99742
 Y100.85542 Z30.17868
 Y102.34940 Z30.53253
 Y103.09639 Z30.63694
 Y104.59036 Z30.73334
 Y105.33735 Z30.76018
 Y106.08434 Z30.76058
 Y106.83133 Z30.76060
 Y112.80723
 Y113.55422 Z30.73731
 Y115.04819 Z30.66069
 Y115.79518 Z30.46849
 Y119.53012 Z29.27791
 Y119.71687 Z29.21832
 Y119.90361 Z29.15879
 Y120.27711 Z28.82943
 Y124.19880 Z25.08177
 Y124.29217 Z24.99256
 Y124.38554 Z24.90333
 Y124.75904 Z24.18467
 Y126.25301 Z20.79068
 Y127.00000 Z18.27561
 X87.18421
 Y126.71988 Z19.56001
 Y126.67319 Z19.77374
 Y126.64985 Z19.88077
 Y126.62651 Z19.94219
 Y124.75904 Z24.18467
 Y124.57229 Z24.60882
 Y124.48475 Z24.80769
 Y124.47892 Z24.81410
 Y124.38554 Z24.90333
 Y124.01205 Z25.26023
 Y119.95030 Z29.14174
 Y119.90361 Z29.15879
 Y119.53012 Z29.27791
 Y115.23494 Z30.64708
 Y115.04819 Z30.66069
 Y113.55422 Z30.73731
 Y112.80723 Z30.76060
 Y106.83133
 Y106.08434 Z30.76058
 Y105.33735 Z30.76018
 Y104.59036 Z30.73334
 Y102.72289 Z30.61284
 Y102.34940 Z30.53253
 Y100.85542 Z30.17868
 Y100.10843 Z29.99742
 Y99.36145 Z29.77316
 Y98.61446 Z29.55061
 Y97.86747 Z29.32949
 Y97.12048 Z29.10984
 Y96.37349 Z28.89194
 Y95.62651 Z28.67586
 Y94.87952 Z28.46125
 Y94.13253 Z28.24816
 Y93.38554 Z28.03658
 Y92.63855 Z27.82698
 Y91.89157 Z27.62071
 Y88.90361 Z26.80269
 Y88.15663 Z26.60379
 Y85.16867 Z25.81713
 Y84.42169 Z25.62651
 Y81.43373 Z24.87098
 Y80.68675 Z24.68857
 Y77.69880 Z23.96394
 Y76.95181 Z23.78968
 Y73.96386 Z23.09572
 Y73.21687 Z22.92957
 Y70.97590 Z22.43196
 Y70.22892 Z22.26629
 Y69.48193 Z22.10800
 Y67.24096 Z21.63309
 Y66.49398 Z21.47549
 Y63.50602 Z20.87237
 Y62.75904 Z20.72271
 Y59.77108 Z20.14950
 Y59.02410 Z20.00779
 Y58.27711 Z19.87195
 Y56.03614 Z19.46436
 Y55.28916 Z19.33054
 Y54.54217 Z19.20205
 Y52.30120 Z18.81665
 Y51.55422 Z18.69069
 Y48.56627 Z18.20627
 Y47.81928 Z18.08816
 Y44.83133 Z17.63304
 Y44.08434 Z17.52267
 Y41.09639 Z17.09673
 Y40.34940 Z16.99410
 Y37.36145 Z16.59724
 Y36.61446 Z16.50231
 Y33.62651 Z16.13438
 Y32.87952 Z16.04714
 Y29.89157 Z15.70807
 Y29.14458 Z15.62849
 Y26.15663 Z15.31819
 Y25.40964 Z15.24623
 Y22.42169 Z14.96458
 Y21.67470 Z14.90021
 Y18.68675 Z14.64718
 Y17.93976 Z14.58832
 Y17.19277 Z14.53026
 Y16.44578 Z14.47434
 Y15.69880 Z14.41950
 Y14.95181 Z14.36608
 Y14.20482 Z14.31440
 Y13.45783 Z14.26350
 Y12.71084 Z14.21498
 Y11.96386 Z14.16710
 Y11.21687 Z14.12120
 Y10.46988 Z14.07648
 Y9.72289 Z14.03309
 Y8.97590 Z13.99101
 Y8.22892 Z13.89722
 Y6.73494 Z13.69204
 Y5.98795 Z13.43207
 Y3.00000 Z12.10418
 X87.78195
 Y6.17470 Z13.51506
 Y6.26807 Z13.55656
 Y6.49859 Z13.65901
 Y6.50151 Z13.65998
 Y8.22892 Z13.89722
 Y8.97590 Z13.99101
 Y9.72289 Z14.03309
 Y10.46988 Z14.07648
 Y11.21687 Z14.12120
 Y11.96386 Z14.16710
 Y12.71084 Z14.21498
 Y13.45783 Z14.26350
 Y14.20482 Z14.31440
 Y14.95181 Z14.36608
 Y15.69880 Z14.41950
 Y16.44578 Z14.47434
 Y17.19277 Z14.53026
 Y17.93976 Z14.58832
 Y18.68675 Z14.64718
 Y21.67470 Z14.90021
 Y22.42169 Z14.96458
 Y25.40964 Z15.24623
 Y26.15663 Z15.31819
 Y29.14458 Z15.62849
 Y29.89157 Z15.70807
 Y32.87952 Z16.04714
 Y33.62651 Z16.13438
 Y36.61446 Z16.50231
 Y37.36145 Z16.59724
 Y40.34940 Z16.99410
 Y41.09639 Z17.09673
 Y44.08434 Z17.52267
 Y44.83133 Z17.63304
 Y47.81928 Z18.08816
 Y48.56627 Z18.20627
 Y51.55422 Z18.69069
 Y52.30120 Z18.81665
 Y54.54217 Z19.20205
 Y55.28916 Z19.33054
 Y56.03614 Z19.46436
 Y58.27711 Z19.87195
 Y59.02410 Z20.00779
 Y59.77108 Z20.14950
 Y62.75904 Z20.72271
 Y63.50602 Z20.87237
 Y66.49398 Z21.47549
 Y67.24096 Z21.63309
 Y69.48193 Z22.10800
 Y70.22892 Z22.26629
 Y70.97590 Z22.43196
 Y73.21687 Z22.92957
 Y73.96386 Z23.09572
 Y76.95181 Z23.78968
 Y77.69880 Z23.96394
 Y80.68675 Z24.68857
 Y81.43373 Z24.87098
 Y84.42169 Z25.62651
 Y85.16867 Z25.81713
 Y88.15663 Z26.60379
 Y88.90361 Z26.80269
 Y91.89157 Z27.62071
 Y92.63855 Z27.82698
 Y93.38554 Z28.03658
 Y94.13253 Z28.24816
 Y94.87952 Z28.46125
 Y95.62651 Z28.67586
 Y96.37349 Z28.89194
 Y97.12048 Z29.10984
 Y97.86747 Z29.32949
 Y98.61446 Z29.55061
 Y99.36145 Z29.77316
 Y100.10843 Z29.99742
 Y100.85542 Z30.17868
 Y102.34940 Z30.53253
 Y103.09639 Z30.63694
 Y104.59036 Z30.73334
 Y105.33735 Z30.76018
 Y106.08434 Z30.76058
 Y106.83133 Z30.76060
 Y112.80723
 Y113.55422 Z30.73731
 Y115.04819 Z30.66069
 Y115.79518 Z30.46849
 Y119.53012 Z29.27791
 Y119.71687 Z29.21832
 Y119.90361 Z29.15879
 Y120.27711 Z28.82943
 Y124.19880 Z25.08177
 Y124.29217 Z24.99256
 Y124.38554 Z24.90333
 Y124.75904 Z24.18467
 Y126.25301 Z20.79068
 Y127.00000 Z18.27561
 X88.37970
 Y126.81325 Z19.13188
 Y126.71988 Z19.55968
 Y126.64985 Z19.88077
 Y126.62651 Z19.94219
 Y124.75904 Z24.18467
 Y124.57229 Z24.60882
 Y124.48475 Z24.80769
 Y124.47892 Z24.81410
 Y124.38554 Z24.90333
 Y124.01205 Z25.26023
 Y119.95030 Z29.14174
 Y119.90361 Z29.15879
 Y119.53012 Z29.27791
 Y115.23494 Z30.64708
 Y115.04819 Z30.66069
 Y113.55422 Z30.73731
 Y112.80723 Z30.76060
 Y106.83133
 Y106.08434 Z30.76058
 Y105.33735 Z30.76018
 Y104.59036 Z30.73334
 Y102.72289 Z30.61284
 Y102.34940 Z30.53253
 Y100.85542 Z30.17868
 Y100.10843 Z29.99742
 Y99.36145 Z29.77316
 Y98.61446 Z29.55061
 Y97.86747 Z29.32949
 Y97.12048 Z29.10984
 Y96.37349 Z28.89194
 Y95.62651 Z28.67586
 Y94.87952 Z28.46125
 Y94.13253 Z28.24816
 Y93.38554 Z28.03658
 Y92.63855 Z27.82698
 Y91.89157 Z27.62071
 Y88.90361 Z26.80269
 Y88.15663 Z26.60379
 Y85.16867 Z25.81713
 Y84.42169 Z25.62651
 Y81.43373 Z24.87098
 Y80.68675 Z24.68857
 Y77.69880 Z23.96394
 Y76.95181 Z23.78968
 Y73.96386 Z23.09572
 Y73.21687 Z22.92957
 Y70.97590 Z22.43196
 Y70.22892 Z22.26629
 Y69.48193 Z22.10800
 Y67.24096 Z21.63309
 Y66.49398 Z21.47549
 Y63.50602 Z20.87237
 Y62.75904 Z20.72271
 Y59.77108 Z20.14950
 Y59.02410 Z20.00779
 Y58.27711 Z19.87195
 Y56.03614 Z19.46436
 Y55.28916 Z19.33054
 Y54.54217 Z19.20205
 Y52.30120 Z18.81665
 Y51.55422 Z18.69069
 Y48.56627 Z18.20627
 Y47.81928 Z18.08816
 Y44.83133 Z17.63304
 Y44.08434 Z17.52267
 Y41.09639 Z17.09673
 Y40.34940 Z16.99410
 Y37.36145 Z16.59724
 Y36.61446 Z16.50231
 Y33.62651 Z16.13438
 Y32.87952 Z16.04714
 Y29.89157 Z15.70807
 Y29.14458 Z15.62849
 Y26.15663 Z15.31819
 Y25.40964 Z15.24623
 Y22.42169 Z14.96458
 Y21.67470 Z14.90021
 Y18.68675 Z14.64718
 Y17.93976 Z14.58832
 Y17.19277 Z14.53026
 Y16.44578 Z14.47434
 Y15.69880 Z14.41950
 Y14.95181 Z14.36608
 Y14.20482 Z14.31440
 Y13.45783 Z14.26350
 Y12.71084 Z14.21498
 Y11.96386 Z14.16710
 Y11.21687 Z14.12120
 Y10.46988 Z14.07648
 Y9.72289 Z14.03309
 Y8.97590 Z13.99101
 Y8.22892 Z13.89722
 Y6.73494 Z13.69204
 Y5.98795 Z13.43207
 Y3.00000 Z12.10418
 X88.97744
 Y6.17470 Z13.51506
 Y6.26807 Z13.55656
 Y6.49859 Z13.65901
 Y6.50151 Z13.65998
 Y8.22892 Z13.89722
 Y8.97590 Z13.99101
 Y9.72289 Z14.03309
 Y10.46988 Z14.07648
 Y11.21687 Z14.12120
 Y11.96386 Z14.16710
 Y12.71084 Z14.21498
 Y13.45783 Z14.26350
 Y14.20482 Z14.31440
 Y14.95181 Z14.36608
 Y15.69880 Z14.41950
 Y16.44578 Z14.47434
 Y17.19277 Z14.53026
 Y17.93976 Z14.58832
 Y18.68675 Z14.64718
 Y21.67470 Z14.90021
 Y22.42169 Z14.96458
 Y25.40964 Z15.24623
 Y26.15663 Z15.31819
 Y29.14458 Z15.62849
 Y29.89157 Z15.70807
 Y32.87952 Z16.04714
 Y33.62651 Z16.13438
 Y36.61446 Z16.50231
 Y37.36145 Z16.59724
 Y40.34940 Z16.99410
 Y41.09639 Z17.09673
 Y44.08434 Z17.52267
 Y44.83133 Z17.63304
 Y47.81928 Z18.08816
 Y48.56627 Z18.20627
 Y51.55422 Z18.69069
 Y52.30120 Z18.81665
 Y54.54217 Z19.20205
 Y55.28916 Z19.33054
 Y56.03614 Z19.46436
 Y58.27711 Z19.87195
 Y59.02410 Z20.00779
 Y59.77108 Z20.14950
 Y62.75904 Z20.72271
 Y63.50602 Z20.87237
 Y66.49398 Z21.47549
 Y67.24096 Z21.63309
 Y69.48193 Z22.10800
 Y70.22892 Z22.26629
 Y70.97590 Z22.43196
 Y73.21687 Z22.92957
 Y73.96386 Z23.09572
 Y76.95181 Z23.78968
 Y77.69880 Z23.96394
 Y80.68675 Z24.68857
 Y81.43373 Z24.87098
 Y84.42169 Z25.62651
 Y85.16867 Z25.81713
 Y88.15663 Z26.60379
 Y88.90361 Z26.80269
 Y91.89157 Z27.62071
 Y92.63855 Z27.82698
 Y93.38554 Z28.03658
 Y94.13253 Z28.24816
 Y94.87952 Z28.46125
 Y95.62651 Z28.67586
 Y96.37349 Z28.89194
 Y97.12048 Z29.10984
 Y97.86747 Z29.32949
 Y98.61446 Z29.55061
 Y99.36145 Z29.77316
 Y100.10843 Z29.99742
 Y100.85542 Z30.17868
 Y102.34940 Z30.53253
 Y103.09639 Z30.63694
 Y104.59036 Z30.73334
 Y105.33735 Z30.76018
 Y106.08434 Z30.76058
 Y106.83133 Z30.76060
 Y112.80723
 Y113.55422 Z30.73731
 Y115.04819 Z30.66069
 Y115.79518 Z30.46849
 Y119.53012 Z29.27791
 Y119.71687 Z29.21832
 Y119.90361 Z29.15879
 Y120.27711 Z28.82943
 Y124.01205 Z25.26023
 Y124.19880 Z25.08179
 Y124.38554 Z24.90333
 Y124.75904 Z24.18467
 Y126.25301 Z20.79068
 Y127.00000 Z18.27561
 X89.57519
 Y126.81325 Z19.13188
 Y126.71988 Z19.55968
 Y126.64985 Z19.88077
 Y126.62651 Z19.94219
 Y124.75904 Z24.18467
 Y124.57229 Z24.60882
 Y124.48475 Z24.80769
 Y124.47892 Z24.81410
 Y124.38554 Z24.90333
 Y124.01205 Z25.26023
 Y119.95030 Z29.14174
 Y119.90361 Z29.15879
 Y119.53012 Z29.27791
 Y115.23494 Z30.64708
 Y115.04819 Z30.66069
 Y113.55422 Z30.73731
 Y112.80723 Z30.76060
 Y106.83133
 Y106.08434 Z30.76058
 Y105.33735 Z30.76018
 Y104.59036 Z30.73334
 Y102.72289 Z30.61284
 Y102.34940 Z30.53253
 Y100.85542 Z30.17868
 Y100.10843 Z29.99742
 Y99.36145 Z29.77316
 Y98.61446 Z29.55061
 Y97.86747 Z29.32949
 Y97.12048 Z29.10984
 Y96.37349 Z28.89194
 Y95.62651 Z28.67586
 Y94.87952 Z28.46125
 Y94.13253 Z28.24816
 Y93.38554 Z28.03658
 Y92.63855 Z27.82698
 Y91.89157 Z27.62071
 Y88.90361 Z26.80269
 Y88.15663 Z26.60379
 Y85.16867 Z25.81713
 Y84.42169 Z25.62651
 Y81.43373 Z24.87098
 Y80.68675 Z24.68857
 Y77.69880 Z23.96394
 Y76.95181 Z23.78968
 Y73.96386 Z23.09572
 Y73.21687 Z22.92957
 Y70.97590 Z22.43196
 Y70.22892 Z22.26629
 Y69.48193 Z22.10800
 Y67.24096 Z21.63309
 Y66.49398 Z21.47549
 Y63.50602 Z20.87237
 Y62.75904 Z20.72271
 Y59.77108 Z20.14950
 Y59.02410 Z20.00779
 Y58.27711 Z19.87195
 Y56.03614 Z19.46436
 Y55.28916 Z19.33054
 Y54.54217 Z19.20205
 Y52.30120 Z18.81665
 Y51.55422 Z18.69069
 Y48.56627 Z18.20627
 Y47.81928 Z18.08816
 Y44.83133 Z17.63304
 Y44.08434 Z17.52267
 Y41.09639 Z17.09673
 Y40.34940 Z16.99410
 Y37.36145 Z16.59724
 Y36.61446 Z16.50231
 Y33.62651 Z16.13438
 Y32.87952 Z16.04714
 Y29.89157 Z15.70807
 Y29.14458 Z15.62849
 Y26.15663 Z15.31819
 Y25.40964 Z15.24623
 Y22.42169 Z14.96458
 Y21.67470 Z14.90021
 Y18.68675 Z14.64718
 Y17.93976 Z14.58832
 Y17.19277 Z14.53026
 Y16.44578 Z14.47434
 Y15.69880 Z14.41950
 Y14.95181 Z14.36608
 Y14.20482 Z14.31440
 Y13.45783 Z14.26350
 Y12.71084 Z14.21498
 Y11.96386 Z14.16710
 Y11.21687 Z14.12120
 Y10.46988 Z14.07648
 Y9.72289 Z14.03309
 Y8.97590 Z13.99101
 Y8.22892 Z13.89722
 Y6.73494 Z13.69204
 Y5.98795 Z13.43207
 Y3.00000 Z12.10418
 X90.17293
 Y5.98795 Z13.43207
 Y6.17470 Z13.51510
 Y6.26807 Z13.55656
 Y6.49859 Z13.65901
 Y6.50151 Z13.65998
 Y8.22892 Z13.89722
 Y8.97590 Z13.99101
 Y9.72289 Z14.03309
 Y10.46988 Z14.07648
 Y11.21687 Z14.12120
 Y11.96386 Z14.16710
 Y12.71084 Z14.21498
 Y13.45783 Z14.26350
 Y14.20482 Z14.31440
 Y14.95181 Z14.36608
 Y15.69880 Z14.41950
 Y16.44578 Z14.47434
 Y17.19277 Z14.53026
 Y17.93976 Z14.58832
 Y18.68675 Z14.64718
 Y21.67470 Z14.90021
 Y22.42169 Z14.96458
 Y25.40964 Z15.24623
 Y26.15663 Z15.31819
 Y29.14458 Z15.62849
 Y29.89157 Z15.70807
 Y32.87952 Z16.04714
 Y33.62651 Z16.13438
 Y36.61446 Z16.50231
 Y37.36145 Z16.59724
 Y40.34940 Z16.99410
 Y41.09639 Z17.09673
 Y44.08434 Z17.52267
 Y44.83133 Z17.63304
 Y47.81928 Z18.08816
 Y48.56627 Z18.20627
 Y51.55422 Z18.69069
 Y52.30120 Z18.81665
 Y54.54217 Z19.20205
 Y55.28916 Z19.33054
 Y56.03614 Z19.46436
 Y58.27711 Z19.87195
 Y59.02410 Z20.00779
 Y59.77108 Z20.14950
 Y62.75904 Z20.72271
 Y63.50602 Z20.87237
 Y66.49398 Z21.47549
 Y67.24096 Z21.63309
 Y69.48193 Z22.10800
 Y70.22892 Z22.26629
 Y70.97590 Z22.43196
 Y73.21687 Z22.92957
 Y73.96386 Z23.09572
 Y76.95181 Z23.78968
 Y77.69880 Z23.96394
 Y80.68675 Z24.68857
 Y81.43373 Z24.87098
 Y84.42169 Z25.62651
 Y85.16867 Z25.81713
 Y88.15663 Z26.60379
 Y88.90361 Z26.80269
 Y91.89157 Z27.62071
 Y92.63855 Z27.82698
 Y93.38554 Z28.03658
 Y94.13253 Z28.24816
 Y94.87952 Z28.46125
 Y95.62651 Z28.67586
 Y96.37349 Z28.89194
 Y97.12048 Z29.10984
 Y97.86747 Z29.32949
 Y98.61446 Z29.55061
 Y99.36145 Z29.77316
 Y100.10843 Z29.99742
 Y100.85542 Z30.17868
 Y102.34940 Z30.53253
 Y103.09639 Z30.63694
 Y104.59036 Z30.73334
 Y105.33735 Z30.76018
 Y106.08434 Z30.76058
 Y106.83133 Z30.76060
 Y112.80723
 Y113.55422 Z30.73731
 Y115.04819 Z30.66069
 Y115.79518 Z30.46849
 Y119.53012 Z29.27791
 Y119.71687 Z29.21832
 Y119.90361 Z29.15879
 Y120.27711 Z28.82943
 Y124.01205 Z25.26023
 Y124.19880 Z25.08179
 Y124.38554 Z24.90333
 Y124.75904 Z24.18467
 Y126.25301 Z20.79068
 Y127.00000 Z18.27561
 X90.77068
 Y126.81325 Z19.13188
 Y126.71988 Z19.55968
 Y126.64985 Z19.88077
 Y126.62651 Z19.94219
 Y124.75904 Z24.18467
 Y124.57229 Z24.60882
 Y124.48475 Z24.80769
 Y124.47892 Z24.81410
 Y124.38554 Z24.90333
 Y124.01205 Z25.26023
 Y119.95030 Z29.14174
 Y119.90361 Z29.15879
 Y119.53012 Z29.27791
 Y115.23494 Z30.64708
 Y115.04819 Z30.66068
 Y114.30120 Z30.69900
 Y113.55422 Z30.73731
 Y112.80723 Z30.76060
 Y106.83133
 Y106.08434 Z30.76058
 Y105.33735 Z30.76018
 Y104.59036 Z30.73334
 Y102.72289 Z30.61284
 Y102.34940 Z30.53253
 Y100.85542 Z30.17868
 Y100.10843 Z29.99742
 Y99.36145 Z29.77316
 Y98.61446 Z29.55061
 Y97.86747 Z29.32949
 Y97.12048 Z29.10984
 Y96.37349 Z28.89194
 Y95.62651 Z28.67586
 Y94.87952 Z28.46125
 Y94.13253 Z28.24816
 Y93.38554 Z28.03658
 Y92.63855 Z27.82698
 Y91.89157 Z27.62071
 Y88.90361 Z26.80269
 Y88.15663 Z26.60379
 Y85.16867 Z25.81713
 Y84.42169 Z25.62651
 Y81.43373 Z24.87098
 Y80.68675 Z24.68857
 Y77.69880 Z23.96394
 Y76.95181 Z23.78968
 Y73.96386 Z23.09572
 Y73.21687 Z22.92957
 Y70.97590 Z22.43196
 Y70.22892 Z22.26629
 Y69.48193 Z22.10800
 Y67.24096 Z21.63309
 Y66.49398 Z21.47549
 Y63.50602 Z20.87237
 Y62.75904 Z20.72271
 Y59.77108 Z20.14950
 Y59.02410 Z20.00779
 Y58.27711 Z19.87195
 Y56.03614 Z19.46436
 Y55.28916 Z19.33054
 Y54.54217 Z19.20205
 Y52.30120 Z18.81665
 Y51.55422 Z18.69069
 Y48.56627 Z18.20627
 Y47.81928 Z18.08814
 Y47.07229 Z17.97438
 Y44.83133 Z17.63304
 Y44.08434 Z17.52267
 Y41.09639 Z17.09673
 Y40.34940 Z16.99410
 Y37.36145 Z16.59724
 Y36.61446 Z16.50231
 Y33.62651 Z16.13438
 Y32.87952 Z16.04714
 Y29.89157 Z15.70807
 Y29.14458 Z15.62849
 Y26.15663 Z15.31819
 Y25.40964 Z15.24623
 Y22.42169 Z14.96458
 Y21.67470 Z14.90021
 Y18.68675 Z14.64718
 Y17.93976 Z14.58832
 Y17.19277 Z14.53026
 Y16.44578 Z14.47434
 Y15.69880 Z14.41950
 Y14.95181 Z14.36608
 Y14.20482 Z14.31440
 Y13.45783 Z14.26350
 Y12.71084 Z14.21498
 Y11.96386 Z14.16710
 Y11.21687 Z14.12120
 Y10.46988 Z14.07648
 Y9.72289 Z14.03309
 Y8.97590 Z13.99101
 Y8.22892 Z13.89722
 Y6.73494 Z13.69204
 Y5.98795 Z13.43207
 Y3.00000 Z12.10418
 X91.36842
 Y5.98795 Z13.43207
 Y6.17470 Z13.51507
 Y6.49859 Z13.65901
 Y6.50151 Z13.65998
 Y8.22892 Z13.89722
 Y8.97590 Z13.99101
 Y9.72289 Z14.03309
 Y10.46988 Z14.07648
 Y11.21687 Z14.12120
 Y11.96386 Z14.16710
 Y12.71084 Z14.21498
 Y13.45783 Z14.26350
 Y14.20482 Z14.31440
 Y14.95181 Z14.36608
 Y15.69880 Z14.41950
 Y16.44578 Z14.47434
 Y17.19277 Z14.53026
 Y17.93976 Z14.58832
 Y18.68675 Z14.64718
 Y21.67470 Z14.90021
 Y22.42169 Z14.96458
 Y25.40964 Z15.24623
 Y26.15663 Z15.31819
 Y29.14458 Z15.62849
 Y29.89157 Z15.70807
 Y32.87952 Z16.04714
 Y33.62651 Z16.13438
 Y36.61446 Z16.50231
 Y37.36145 Z16.59724
 Y40.34940 Z16.99410
 Y41.09639 Z17.09673
 Y44.08434 Z17.52267
 Y44.83133 Z17.63304
 Y47.07229 Z17.97438
 Y47.81928 Z18.08814
 Y48.56627 Z18.20627
 Y51.55422 Z18.69069
 Y52.30120 Z18.81665
 Y54.54217 Z19.20205
 Y55.28916 Z19.33054
 Y56.03614 Z19.46436
 Y58.27711 Z19.87195
 Y59.02410 Z20.00779
 Y59.77108 Z20.14950
 Y62.75904 Z20.72271
 Y63.50602 Z20.87237
 Y66.49398 Z21.47549
 Y67.24096 Z21.63309
 Y69.48193 Z22.10800
 Y70.22892 Z22.26629
 Y70.97590 Z22.43196
 Y73.21687 Z22.92957
 Y73.96386 Z23.09572
 Y76.95181 Z23.78968
 Y77.69880 Z23.96394
 Y80.68675 Z24.68857
 Y81.43373 Z24.87098
 Y84.42169 Z25.62651
 Y85.16867 Z25.81713
 Y88.15663 Z26.60379
 Y88.90361 Z26.80269
 Y91.89157 Z27.62071
 Y92.63855 Z27.82698
 Y93.38554 Z28.03658
 Y94.13253 Z28.24816
 Y94.87952 Z28.46125
 Y95.62651 Z28.67586
 Y96.37349 Z28.89194
 Y97.12048 Z29.10984
 Y97.86747 Z29.32949
 Y98.61446 Z29.55061
 Y99.36145 Z29.77316
 Y100.10843 Z29.99742
 Y100.85542 Z30.17868
 Y102.34940 Z30.53253
 Y103.09639 Z30.63694
 Y104.59036 Z30.73334
 Y105.33735 Z30.76018
 Y106.08434 Z30.76058
 Y106.83133 Z30.76060
 Y112.80723
 Y113.55422 Z30.73731
 Y115.02485 Z30.66189
 Y115.04819 Z30.66068
 Y115.79518 Z30.46849
 Y119.53012 Z29.27791
 Y119.71687 Z29.21832
 Y119.90361 Z29.15879
 Y120.27711 Z28.82943
 Y124.01205 Z25.26023
 Y124.19880 Z25.08179
 Y124.38554 Z24.90333
 Y124.75904 Z24.18467
 Y126.25301 Z20.79068
 Y127.00000 Z18.27561
 X91.96617
 Y126.81325 Z19.13188
 Y126.71988 Z19.55968
 Y126.64985 Z19.88077
 Y126.62651 Z19.94219
 Y124.75904 Z24.18467
 Y124.57229 Z24.60882
 Y124.48475 Z24.80769
 Y124.47892 Z24.81410
 Y124.38554 Z24.90333
 Y124.01205 Z25.26023
 Y119.95030 Z29.14174
 Y119.90361 Z29.15879
 Y119.53012 Z29.27785
 Y118.78313 Z29.51602
 Y115.23494 Z30.64708
 Y115.04819 Z30.66068
 Y114.30120 Z30.69900
 Y113.55422 Z30.73731
 Y112.80723 Z30.76060
 Y106.83133
 Y106.08434 Z30.76058
 Y105.33735 Z30.76018
 Y104.59036 Z30.73334
 Y102.72289 Z30.61284
 Y102.34940 Z30.53253
 Y100.85542 Z30.17868
 Y100.10843 Z29.99742
 Y99.36145 Z29.77316
 Y98.61446 Z29.55061
 Y97.86747 Z29.32949
 Y97.12048 Z29.10984
 Y96.37349 Z28.89194
 Y95.62651 Z28.67586
 Y94.87952 Z28.46125
 Y94.13253 Z28.24816
 Y93.38554 Z28.03658
 Y92.63855 Z27.82698
 Y91.89157 Z27.62071
 Y88.90361 Z26.80269
 Y88.15663 Z26.60379
 Y85.16867 Z25.81713
 Y84.42169 Z25.62651
 Y81.43373 Z24.87098
 Y80.68675 Z24.68857
 Y77.69880 Z23.96394
 Y76.95181 Z23.78968
 Y73.96386 Z23.09572
 Y73.21687 Z22.92957
 Y70.97590 Z22.43196
 Y70.22892 Z22.26629
 Y69.48193 Z22.10800
 Y67.24096 Z21.63309
 Y66.49398 Z21.47549
 Y63.50602 Z20.87237
 Y62.75904 Z20.72271
 Y59.77108 Z20.14950
 Y59.02410 Z20.00779
 Y58.27711 Z19.87195
 Y56.03614 Z19.46436
 Y55.28916 Z19.33054
 Y54.54217 Z19.20205
 Y52.30120 Z18.81665
 Y51.55422 Z18.69069
 Y48.56627 Z18.20627
 Y47.81928 Z18.08814
 Y47.07229 Z17.97438
 Y44.83133 Z17.63304
 Y44.08434 Z17.52267
 Y41.09639 Z17.09673
 Y40.34940 Z16.99410
 Y37.36145 Z16.59724
 Y36.61446 Z16.50231
 Y33.62651 Z16.13438
 Y32.87952 Z16.04714
 Y29.89157 Z15.70807
 Y29.14458 Z15.62849
 Y26.15663 Z15.31819
 Y25.40964 Z15.24623
 Y22.42169 Z14.96458
 Y21.67470 Z14.90021
 Y18.68675 Z14.64718
 Y17.93976 Z14.58832
 Y17.19277 Z14.53026
 Y16.44578 Z14.47434
 Y15.69880 Z14.41950
 Y14.95181 Z14.36608
 Y14.20482 Z14.31440
 Y13.45783 Z14.26350
 Y12.71084 Z14.21498
 Y11.96386 Z14.16710
 Y11.21687 Z14.12120
 Y10.46988 Z14.07648
 Y9.72289 Z14.03309
 Y8.97590 Z13.99101
 Y8.22892 Z13.89722
 Y6.73494 Z13.69204
 Y5.98795 Z13.43207
 Y3.00000 Z12.10418
 X92.56391
 Y5.98795 Z13.43207
 Y6.17470 Z13.51507
 Y6.49859 Z13.65901
 Y6.50151 Z13.65998
 Y8.22892 Z13.89722
 Y8.97590 Z13.99101
 Y9.72289 Z14.03309
 Y10.46988 Z14.07648
 Y11.21687 Z14.12120
 Y11.96386 Z14.16710
 Y12.71084 Z14.21498
 Y13.45783 Z14.26350
 Y14.20482 Z14.31440
 Y14.95181 Z14.36608
 Y15.69880 Z14.41950
 Y16.44578 Z14.47434
 Y17.19277 Z14.53026
 Y17.93976 Z14.58832
 Y18.68675 Z14.64718
 Y21.67470 Z14.90021
 Y22.42169 Z14.96458
 Y25.40964 Z15.24623
 Y26.15663 Z15.31819
 Y29.14458 Z15.62849
 Y29.89157 Z15.70807
 Y32.87952 Z16.04714
 Y33.62651 Z16.13438
 Y36.61446 Z16.50231
 Y37.36145 Z16.59724
 Y40.34940 Z16.99410
 Y41.09639 Z17.09673
 Y43.33735 Z17.41618
 Y44.08434 Z17.52268
 Y44.83133 Z17.63304
 Y47.07229 Z17.97438
 Y47.81928 Z18.08814
 Y48.56627 Z18.20627
 Y51.55422 Z18.69069
 Y52.30120 Z18.81665
 Y54.54217 Z19.20205
 Y55.28916 Z19.33054
 Y56.03614 Z19.46436
 Y58.27711 Z19.87195
 Y59.02410 Z20.00779
 Y59.77108 Z20.14950
 Y62.75904 Z20.72271
 Y63.50602 Z20.87237
 Y66.49398 Z21.47549
 Y67.24096 Z21.63309
 Y69.48193 Z22.10800
 Y70.22892 Z22.26629
 Y70.97590 Z22.43196
 Y73.21687 Z22.92957
 Y73.96386 Z23.09572
 Y76.95181 Z23.78968
 Y77.69880 Z23.96394
 Y80.68675 Z24.68857
 Y81.43373 Z24.87098
 Y84.42169 Z25.62651
 Y85.16867 Z25.81713
 Y88.15663 Z26.60379
 Y88.90361 Z26.80269
 Y91.89157 Z27.62071
 Y92.63855 Z27.82698
 Y93.38554 Z28.03658
 Y94.13253 Z28.24816
 Y94.87952 Z28.46125
 Y95.62651 Z28.67586
 Y96.37349 Z28.89194
 Y97.12048 Z29.10984
 Y97.86747 Z29.32949
 Y98.61446 Z29.55061
 Y99.36145 Z29.77316
 Y100.10843 Z29.99742
 Y100.85542 Z30.17868
 Y102.34940 Z30.53253
 Y103.09639 Z30.63694
 Y104.59036 Z30.73334
 Y105.33735 Z30.76018
 Y106.08434 Z30.76058
 Y106.83133 Z30.76060
 Y112.80723
 Y113.55422 Z30.73731
 Y115.00151 Z30.66309
 Y115.02485 Z30.66188
 Y115.04819 Z30.66068
 Y115.79518 Z30.46849
 Y119.48343 Z29.29279
 Y119.50678 Z29.28529
 Y119.90361 Z29.15879
 Y120.27711 Z28.82943
 Y124.01205 Z25.26023
 Y124.19880 Z25.08179
 Y124.38554 Z24.90333
 Y124.75904 Z24.18467
 Y126.25301 Z20.79068
 Y127.00000 Z18.27561
 X93.16165
 Y126.81325 Z19.13188
 Y126.71988 Z19.55968
 Y126.64985 Z19.88077
 Y126.62651 Z19.94219
 Y124.75904 Z24.18467
 Y124.57229 Z24.60882
 Y124.48475 Z24.80769
 Y124.47892 Z24.81410
 Y124.38554 Z24.90333
 Y124.01205 Z25.26023
 Y119.95030 Z29.14174
 Y119.90361 Z29.15879
 Y119.53012 Z29.27785
 Y118.78313 Z29.51602
 Y115.23494 Z30.64708
 Y115.04819 Z30.66068
 Y114.30120 Z30.69900
 Y113.55422 Z30.73731
 Y112.80723 Z30.76060
 Y106.83133
 Y106.08434 Z30.76058
 Y105.33735 Z30.76018
 Y104.59036 Z30.73334
 Y102.72289 Z30.61284
 Y102.34940 Z30.53253
 Y100.85542 Z30.17868
 Y100.10843 Z29.99742
 Y99.36145 Z29.77316
 Y98.61446 Z29.55061
 Y97.86747 Z29.32949
 Y97.12048 Z29.10984
 Y96.37349 Z28.89194
 Y95.62651 Z28.67586
 Y94.87952 Z28.46125
 Y94.13253 Z28.24816
 Y93.38554 Z28.03658
 Y92.63855 Z27.82698
 Y91.89157 Z27.62071
 Y88.90361 Z26.80269
 Y88.15663 Z26.60379
 Y85.16867 Z25.81713
 Y84.42169 Z25.62651
 Y81.43373 Z24.87098
 Y80.68675 Z24.68857
 Y77.69880 Z23.96394
 Y76.95181 Z23.78968
 Y73.96386 Z23.09572
 Y73.21687 Z22.92957
 Y70.97590 Z22.43196
 Y70.22892 Z22.26629
 Y69.48193 Z22.10800
 Y67.24096 Z21.63309
 Y66.49398 Z21.47549
 Y63.50602 Z20.87237
 Y62.75904 Z20.72271
 Y59.77108 Z20.14950
 Y59.02410 Z20.00779
 Y58.27711 Z19.87195
 Y56.03614 Z19.46436
 Y55.28916 Z19.33054
 Y54.54217 Z19.20205
 Y52.30120 Z18.81665
 Y51.55422 Z18.69069
 Y48.56627 Z18.20627
 Y47.81928 Z18.08814
 Y47.07229 Z17.97438
 Y44.83133 Z17.63304
 Y44.08434 Z17.52264
 Y43.33735 Z17.41618
 Y41.09639 Z17.09673
 Y40.34940 Z16.99410
 Y37.36145 Z16.59724
 Y36.61446 Z16.50231
 Y33.62651 Z16.13438
 Y32.87952 Z16.04714
 Y29.89157 Z15.70807
 Y29.14458 Z15.62849
 Y26.15663 Z15.31819
 Y25.40964 Z15.24623
 Y22.42169 Z14.96458
 Y21.67470 Z14.90021
 Y18.68675 Z14.64718
 Y17.93976 Z14.58832
 Y17.19277 Z14.53028
 Y16.44578 Z14.47434
 Y15.69880 Z14.41950
 Y14.95181 Z14.36608
 Y14.20482 Z14.31440
 Y13.45783 Z14.26350
 Y12.71084 Z14.21498
 Y11.96386 Z14.16710
 Y11.21687 Z14.12120
 Y10.46988 Z14.07648
 Y9.72289 Z14.03309
 Y8.97590 Z13.99101
 Y8.22892 Z13.89722
 Y6.73494 Z13.69204
 Y5.98795 Z13.43207
 Y3.00000 Z12.10418
 X93.75940
 Y5.98795 Z13.43207
 Y6.17470 Z13.51507
 Y6.49859 Z13.65901
 Y6.50151 Z13.65998
 Y8.22892 Z13.89722
 Y8.97590 Z13.99101
 Y9.72289 Z14.03309
 Y10.46988 Z14.07648
 Y11.21687 Z14.12120
 Y11.96386 Z14.16710
 Y12.71084 Z14.21498
 Y13.45783 Z14.26350
 Y14.20482 Z14.31440
 Y14.95181 Z14.36608
 Y15.69880 Z14.41950
 Y16.44578 Z14.47434
 Y17.19277 Z14.53028
 Y17.93976 Z14.58832
 Y18.68675 Z14.64718
 Y21.67470 Z14.90021
 Y22.42169 Z14.96458
 Y25.40964 Z15.24623
 Y26.15663 Z15.31819
 Y29.14458 Z15.62849
 Y29.89157 Z15.70807
 Y32.87952 Z16.04714
 Y33.62651 Z16.13438
 Y36.61446 Z16.50231
 Y37.36145 Z16.59724
 Y40.34940 Z16.99410
 Y41.09639 Z17.09673
 Y43.33735 Z17.41618
 Y44.08434 Z17.52264
 Y44.83133 Z17.63304
 Y47.07229 Z17.97438
 Y47.81928 Z18.08814
 Y48.56627 Z18.20627
 Y51.55422 Z18.69069
 Y52.30120 Z18.81665
 Y54.54217 Z19.20205
 Y55.28916 Z19.33054
 Y56.03614 Z19.46436
 Y58.27711 Z19.87195
 Y59.02410 Z20.00779
 Y59.77108 Z20.14950
 Y62.75904 Z20.72271
 Y63.50602 Z20.87237
 Y66.49398 Z21.47549
 Y67.24096 Z21.63309
 Y69.48193 Z22.10800
 Y70.22892 Z22.26629
 Y70.97590 Z22.43196
 Y73.21687 Z22.92957
 Y73.96386 Z23.09572
 Y76.95181 Z23.78968
 Y77.69880 Z23.96394
 Y80.68675 Z24.68857
 Y81.43373 Z24.87098
 Y84.42169 Z25.62651
 Y85.16867 Z25.81713
 Y88.15663 Z26.60379
 Y88.90361 Z26.80269
 Y91.89157 Z27.62071
 Y92.63855 Z27.82698
 Y93.38554 Z28.03658
 Y94.13253 Z28.24816
 Y94.87952 Z28.46125
 Y95.62651 Z28.67586
 Y96.37349 Z28.89194
 Y97.12048 Z29.10984
 Y97.86747 Z29.32949
 Y98.61446 Z29.55061
 Y99.36145 Z29.77316
 Y100.10843 Z29.99742
 Y100.85542 Z30.17868
 Y102.34940 Z30.53253
 Y103.09639 Z30.63694
 Y104.59036 Z30.73334
 Y105.33735 Z30.76018
 Y106.08434 Z30.76058
 Y106.83133 Z30.76060
 Y112.80723
 Y113.55422 Z30.73731
 Y114.95482 Z30.66548
 Y115.00151 Z30.66310
 Y115.02485 Z30.66188
 Y115.04819 Z30.66068
 Y115.79518 Z30.46849
 Y119.43675 Z29.30767
 Y119.48343 Z29.29273
 Y119.90361 Z29.15879
 Y120.27711 Z28.82943
 Y124.01205 Z25.26023
 Y124.19880 Z25.08179
 Y124.38554 Z24.90333
 Y124.75904 Z24.18467
 Y126.25301 Z20.79068
 Y127.00000 Z18.27561
 X94.35714
 Y126.81325 Z19.13188
 Y126.71988 Z19.55968
 Y126.64985 Z19.88077
 Y126.62651 Z19.94219
 Y124.75904 Z24.18467
 Y124.57229 Z24.60882
 Y124.48475 Z24.80769
 Y124.47892 Z24.81410
 Y124.01205 Z25.26025
 Y123.26506 Z25.97407
 Y119.95030 Z29.14174
 Y119.90361 Z29.15879
 Y119.53012 Z29.27785
 Y118.78313 Z29.51602
 Y115.23494 Z30.64708
 Y115.04819 Z30.66068
 Y114.30120 Z30.69900
 Y113.55422 Z30.73731
 Y112.80723 Z30.76060
 Y106.83133
 Y106.08434 Z30.76058
 Y105.33735 Z30.76018
 Y104.59036 Z30.73334
 Y102.72289 Z30.61284
 Y102.34940 Z30.53253
 Y100.85542 Z30.17868
 Y100.10843 Z29.99742
 Y99.36145 Z29.77316
 Y98.61446 Z29.55061
 Y97.86747 Z29.32949
 Y97.12048 Z29.10984
 Y96.37349 Z28.89194
 Y95.62651 Z28.67586
 Y94.87952 Z28.46125
 Y94.13253 Z28.24816
 Y93.38554 Z28.03658
 Y92.63855 Z27.82698
 Y91.89157 Z27.62071
 Y88.90361 Z26.80269
 Y88.15663 Z26.60379
 Y85.16867 Z25.81713
 Y84.42169 Z25.62651
 Y81.43373 Z24.87098
 Y80.68675 Z24.68857
 Y77.69880 Z23.96394
 Y76.95181 Z23.78968
 Y73.96386 Z23.09572
 Y73.21687 Z22.92957
 Y70.97590 Z22.43196
 Y70.22892 Z22.26629
 Y69.48193 Z22.10800
 Y67.24096 Z21.63309
 Y66.49398 Z21.47549
 Y63.50602 Z20.87237
 Y62.75904 Z20.72271
 Y59.77108 Z20.14950
 Y59.02410 Z20.00779
 Y58.27711 Z19.87195
 Y56.03614 Z19.46436
 Y55.28916 Z19.33054
 Y54.54217 Z19.20205
 Y52.30120 Z18.81665
 Y51.55422 Z18.69069
 Y48.56627 Z18.20627
 Y47.81928 Z18.08814
 Y47.07229 Z17.97438
 Y44.83133 Z17.63304
 Y44.08434 Z17.52264
 Y43.33735 Z17.41618
 Y41.09639 Z17.09673
 Y40.34940 Z16.99410
 Y37.36145 Z16.59724
 Y36.61446 Z16.50231
 Y33.62651 Z16.13438
 Y32.87952 Z16.04714
 Y29.89157 Z15.70807
 Y29.14458 Z15.62849
 Y26.15663 Z15.31819
 Y25.40964 Z15.24623
 Y22.42169 Z14.96458
 Y21.67470 Z14.90021
 Y18.68675 Z14.64718
 Y17.93976 Z14.58832
 Y17.19277 Z14.53028
 Y16.44578 Z14.47434
 Y15.69880 Z14.41950
 Y14.95181 Z14.36608
 Y14.20482 Z14.31440
 Y13.45783 Z14.26350
 Y12.71084 Z14.21498
 Y11.96386 Z14.16710
 Y11.21687 Z14.12120
 Y10.46988 Z14.07648
 Y9.72289 Z14.03309
 Y8.97590 Z13.99101
 Y8.22892 Z13.89722
 Y6.73494 Z13.69204
 Y5.98795 Z13.43207
 Y3.00000 Z12.10418
 X94.95489
 Y5.98795 Z13.43207
 Y6.17470 Z13.51507
 Y6.49859 Z13.65901
 Y6.50151 Z13.65998
 Y8.22892 Z13.89722
 Y8.97590 Z13.99101
 Y9.72289 Z14.03309
 Y10.46988 Z14.07648
 Y11.21687 Z14.12120
 Y11.96386 Z14.16710
 Y12.71084 Z14.21498
 Y13.45783 Z14.26350
 Y14.20482 Z14.31440
 Y14.95181 Z14.36608
 Y15.69880 Z14.41950
 Y16.44578 Z14.47434
 Y17.19277 Z14.53028
 Y17.93976 Z14.58832
 Y18.68675 Z14.64718
 Y21.67470 Z14.90021
 Y22.42169 Z14.96458
 Y25.40964 Z15.24623
 Y26.15663 Z15.31819
 Y29.14458 Z15.62849
 Y29.89157 Z15.70807
 Y32.87952 Z16.04714
 Y33.62651 Z16.13438
 Y36.61446 Z16.50231
 Y37.36145 Z16.59724
 Y39.60241 Z16.89488
 Y40.34940 Z16.99409
 Y41.09639 Z17.09673
 Y43.33735 Z17.41618
 Y44.08434 Z17.52264
 Y44.83133 Z17.63304
 Y47.07229 Z17.97438
 Y47.81928 Z18.08814
 Y48.56627 Z18.20627
 Y51.55422 Z18.69069
 Y52.30120 Z18.81665
 Y54.54217 Z19.20205
 Y55.28916 Z19.33054
 Y56.03614 Z19.46436
 Y58.27711 Z19.87195
 Y59.02410 Z20.00779
 Y59.77108 Z20.14950
 Y62.75904 Z20.72271
 Y63.50602 Z20.87237
 Y66.49398 Z21.47549
 Y67.24096 Z21.63309
 Y69.48193 Z22.10800
 Y70.22892 Z22.26629
 Y70.97590 Z22.43196
 Y73.21687 Z22.92957
 Y73.96386 Z23.09572
 Y76.95181 Z23.78968
 Y77.69880 Z23.96394
 Y80.68675 Z24.68857
 Y81.43373 Z24.87098
 Y84.42169 Z25.62651
 Y85.16867 Z25.81713
 Y88.15663 Z26.60379
 Y88.90361 Z26.80269
 Y91.89157 Z27.62071
 Y92.63855 Z27.82698
 Y93.38554 Z28.03658
 Y94.13253 Z28.24816
 Y94.87952 Z28.46125
 Y95.62651 Z28.67586
 Y96.37349 Z28.89194
 Y97.12048 Z29.10984
 Y97.86747 Z29.32949
 Y98.61446 Z29.55061
 Y99.36145 Z29.77316
 Y100.10843 Z29.99742
 Y100.85542 Z30.17868
 Y102.34940 Z30.53253
 Y103.09639 Z30.63694
 Y104.59036 Z30.73334
 Y105.33735 Z30.76018
 Y106.08434 Z30.76058
 Y106.83133 Z30.76060
 Y112.80723
 Y113.55422 Z30.73731
 Y114.95482 Z30.66548
 Y115.00151 Z30.66307
 Y115.04819 Z30.66068
 Y115.79518 Z30.46849
 Y119.34337 Z29.33744
 Y119.43675 Z29.30761
 Y119.90361 Z29.15879
 Y120.27711 Z28.82943
 Y123.96536 Z25.30484
 Y124.01205 Z25.26025
 Y124.38554 Z24.90333
 Y124.75904 Z24.18467
 Y126.25301 Z20.79068
 Y127.00000 Z18.27561
 X95.55263
 Y126.81325 Z19.13188
 Y126.71988 Z19.55968
 Y126.64985 Z19.88077
 Y126.62651 Z19.94219
 Y124.75904 Z24.18467
 Y124.57229 Z24.60882
 Y124.48475 Z24.80769
 Y124.47892 Z24.81410
 Y124.01205 Z25.26025
 Y123.26506 Z25.97407
 Y119.95030 Z29.14174
 Y119.90361 Z29.15879
 Y119.53012 Z29.27785
 Y118.78313 Z29.51602
 Y115.23494 Z30.64708
 Y115.04819 Z30.66068
 Y114.30120 Z30.69900
 Y113.55422 Z30.73731
 Y112.80723 Z30.76060
 Y106.83133
 Y106.08434 Z30.76058
 Y105.33735 Z30.76018
 Y104.59036 Z30.73334
 Y102.72289 Z30.61284
 Y102.34940 Z30.53253
 Y100.85542 Z30.17868
 Y100.10843 Z29.99742
 Y99.36145 Z29.77316
 Y98.61446 Z29.55061
 Y97.86747 Z29.32949
 Y97.12048 Z29.10984
 Y96.37349 Z28.89194
 Y95.62651 Z28.67586
 Y94.87952 Z28.46125
 Y94.13253 Z28.24816
 Y93.38554 Z28.03658
 Y92.63855 Z27.82698
 Y91.89157 Z27.62071
 Y88.90361 Z26.80269
 Y88.15663 Z26.60379
 Y85.16867 Z25.81713
 Y84.42169 Z25.62651
 Y81.43373 Z24.87098
 Y80.68675 Z24.68857
 Y77.69880 Z23.96394
 Y76.95181 Z23.78968
 Y73.96386 Z23.09572
 Y73.21687 Z22.92957
 Y70.97590 Z22.43196
 Y70.22892 Z22.26629
 Y69.48193 Z22.10800
 Y67.24096 Z21.63309
 Y66.49398 Z21.47549
 Y63.50602 Z20.87237
 Y62.75904 Z20.72270
 Y59.77108 Z20.14950
 Y59.02410 Z20.00779
 Y58.27711 Z19.87195
 Y56.03614 Z19.46436
 Y55.28916 Z19.33054
 Y54.54217 Z19.20205
 Y52.30120 Z18.81665
 Y51.55422 Z18.69069
 Y48.56627 Z18.20627
 Y47.81928 Z18.08814
 Y47.07229 Z17.97438
 Y44.83133 Z17.63304
 Y44.08434 Z17.52264
 Y43.33735 Z17.41618
 Y41.09639 Z17.09673
 Y40.34940 Z16.99409
 Y39.60241 Z16.89488
 Y37.36145 Z16.59724
 Y36.61446 Z16.50231
 Y33.62651 Z16.13438
 Y32.87952 Z16.04714
 Y29.89157 Z15.70807
 Y29.14458 Z15.62849
 Y26.15663 Z15.31819
 Y25.40964 Z15.24623
 Y22.42169 Z14.96458
 Y21.67470 Z14.90021
 Y18.68675 Z14.64718
 Y17.93976 Z14.58832
 Y17.19277 Z14.53028
 Y16.44578 Z14.47434
 Y15.69880 Z14.41950
 Y14.95181 Z14.36608
 Y14.20482 Z14.31440
 Y13.45783 Z14.26350
 Y12.71084 Z14.21498
 Y11.96386 Z14.16710
 Y11.21687 Z14.12120
 Y10.46988 Z14.07648
 Y9.72289 Z14.03309
 Y8.97590 Z13.99101
 Y8.22892 Z13.89722
 Y6.73494 Z13.69204
 Y5.98795 Z13.43207
 Y3.00000 Z12.10418
 X96.15038
 Y5.98795 Z13.43207
 Y6.17470 Z13.51507
 Y6.49859 Z13.65901
 Y6.50151 Z13.65998
 Y8.22892 Z13.89722
 Y8.97590 Z13.99101
 Y9.72289 Z14.03309
 Y10.46988 Z14.07648
 Y11.21687 Z14.12120
 Y11.96386 Z14.16710
 Y12.71084 Z14.21498
 Y13.45783 Z14.26350
 Y14.20482 Z14.31440
 Y14.95181 Z14.36608
 Y15.69880 Z14.41950
 Y16.44578 Z14.47434
 Y17.19277 Z14.53028
 Y17.93976 Z14.58832
 Y18.68675 Z14.64718
 Y21.67470 Z14.90021
 Y22.42169 Z14.96458
 Y25.40964 Z15.24623
 Y26.15663 Z15.31819
 Y29.14458 Z15.62849
 Y29.89157 Z15.70807
 Y32.87952 Z16.04714
 Y33.62651 Z16.13438
 Y36.61446 Z16.50231
 Y37.36145 Z16.59724
 Y39.60241 Z16.89488
 Y40.34940 Z16.99409
 Y41.09639 Z17.09673
 Y43.33735 Z17.41618
 Y44.08434 Z17.52264
 Y44.83133 Z17.63304
 Y47.07229 Z17.97438
 Y47.81928 Z18.08814
 Y48.56627 Z18.20627
 Y51.55422 Z18.69069
 Y52.30120 Z18.81665
 Y54.54217 Z19.20205
 Y55.28916 Z19.33054
 Y56.03614 Z19.46436
 Y58.27711 Z19.87195
 Y59.02410 Z20.00779
 Y59.77108 Z20.14950
 Y62.75904 Z20.72270
 Y63.50602 Z20.87237
 Y66.49398 Z21.47549
 Y67.24096 Z21.63309
 Y69.48193 Z22.10800
 Y70.22892 Z22.26629
 Y70.97590 Z22.43196
 Y73.21687 Z22.92957
 Y73.96386 Z23.09572
 Y76.95181 Z23.78968
 Y77.69880 Z23.96394
 Y80.68675 Z24.68857
 Y81.43373 Z24.87098
 Y84.42169 Z25.62651
 Y85.16867 Z25.81713
 Y88.15663 Z26.60379
 Y88.90361 Z26.80269
 Y91.89157 Z27.62071
 Y92.63855 Z27.82698
 Y93.38554 Z28.03658
 Y94.13253 Z28.24816
 Y94.87952 Z28.46125
 Y95.62651 Z28.67586
 Y96.37349 Z28.89194
 Y97.12048 Z29.10984
 Y97.86747 Z29.32949
 Y98.61446 Z29.55061
 Y99.36145 Z29.77316
 Y100.10843 Z29.99742
 Y100.85542 Z30.17868
 Y102.34940 Z30.53253
 Y103.09639 Z30.63694
 Y104.59036 Z30.73334
 Y105.33735 Z30.76018
 Y106.08434 Z30.76058
 Y106.83133 Z30.76060
 Y112.80723
 Y113.55422 Z30.73731
 Y114.95482 Z30.66548
 Y115.00151 Z30.66307
 Y115.04819 Z30.66068
 Y115.79518 Z30.46849
 Y119.34337 Z29.33744
 Y119.43675 Z29.30761
 Y119.90361 Z29.15879
 Y120.27711 Z28.82943
 Y123.91867 Z25.34946
 Y123.96536 Z25.30487
 Y124.38554 Z24.90333
 Y124.75904 Z24.18467
 Y126.25301 Z20.79068
 Y127.00000 Z18.27561
 X96.74812
 Y126.81325 Z19.13188
 Y126.71988 Z19.55968
 Y126.64985 Z19.88077
 Y126.62651 Z19.94219
 Y124.75904 Z24.18467
 Y124.57229 Z24.60882
 Y124.48475 Z24.80769
 Y124.47892 Z24.81410
 Y124.01205 Z25.26025
 Y123.26506 Z25.97407
 Y119.95030 Z29.14174
 Y119.90361 Z29.15879
 Y119.53012 Z29.27785
 Y118.78313 Z29.51602
 Y115.23494 Z30.64708
 Y115.04819 Z30.66068
 Y114.30120 Z30.69900
 Y113.55422 Z30.73731
 Y112.80723 Z30.76060
 Y106.83133
 Y106.08434 Z30.76058
 Y105.33735 Z30.76018
 Y104.59036 Z30.73334
 Y102.72289 Z30.61284
 Y102.34940 Z30.53253
 Y100.85542 Z30.17868
 Y100.10843 Z29.99742
 Y99.36145 Z29.77316
 Y98.61446 Z29.55061
 Y97.86747 Z29.32949
 Y97.12048 Z29.10984
 Y96.37349 Z28.89194
 Y95.62651 Z28.67586
 Y94.87952 Z28.46125
 Y94.13253 Z28.24816
 Y93.38554 Z28.03658
 Y92.63855 Z27.82698
 Y91.89157 Z27.62071
 Y88.90361 Z26.80269
 Y88.15663 Z26.60379
 Y85.16867 Z25.81713
 Y84.42169 Z25.62651
 Y81.43373 Z24.87098
 Y80.68675 Z24.68857
 Y77.69880 Z23.96394
 Y76.95181 Z23.78968
 Y73.96386 Z23.09572
 Y73.21687 Z22.92957
 Y70.97590 Z22.43196
 Y70.22892 Z22.26629
 Y69.48193 Z22.10800
 Y67.24096 Z21.63309
 Y66.49398 Z21.47549
 Y63.50602 Z20.87237
 Y62.75904 Z20.72270
 Y59.77108 Z20.14950
 Y59.02410 Z20.00779
 Y58.27711 Z19.87195
 Y56.03614 Z19.46436
 Y55.28916 Z19.33054
 Y54.54217 Z19.20205
 Y52.30120 Z18.81665
 Y51.55422 Z18.69069
 Y48.56627 Z18.20627
 Y47.81928 Z18.08814
 Y47.07229 Z17.97438
 Y44.83133 Z17.63304
 Y44.08434 Z17.52264
 Y43.33735 Z17.41618
 Y41.09639 Z17.09673
 Y40.34940 Z16.99409
 Y39.60241 Z16.89488
 Y37.36145 Z16.59724
 Y36.61446 Z16.50230
 Y33.62651 Z16.13438
 Y32.87952 Z16.04714
 Y29.89157 Z15.70807
 Y29.14458 Z15.62849
 Y26.15663 Z15.31819
 Y25.40964 Z15.24623
 Y22.42169 Z14.96458
 Y21.67470 Z14.90021
 Y18.68675 Z14.64718
 Y17.93976 Z14.58832
 Y17.19277 Z14.53028
 Y16.44578 Z14.47434
 Y15.69880 Z14.41950
 Y14.95181 Z14.36608
 Y14.20482 Z14.31440
 Y13.45783 Z14.26350
 Y12.71084 Z14.21498
 Y11.96386 Z14.16710
 Y11.21687 Z14.12120
 Y10.46988 Z14.07648
 Y9.72289 Z14.03309
 Y8.97590 Z13.99101
 Y8.22892 Z13.89722
 Y6.73494 Z13.69204
 Y5.98795 Z13.43207
 Y3.00000 Z12.10418
 X97.34586
 Y6.49859 Z13.65901
 Y6.50151 Z13.65998
 Y8.22892 Z13.89722
 Y8.97590 Z13.99101
 Y9.72289 Z14.03309
 Y10.46988 Z14.07648
 Y11.21687 Z14.12120
 Y11.96386 Z14.16710
 Y12.71084 Z14.21498
 Y13.45783 Z14.26350
 Y14.20482 Z14.31440
 Y14.95181 Z14.36608
 Y15.69880 Z14.41950
 Y16.44578 Z14.47434
 Y17.19277 Z14.53028
 Y17.93976 Z14.58832
 Y18.68675 Z14.64718
 Y21.67470 Z14.90021
 Y22.42169 Z14.96458
 Y25.40964 Z15.24623
 Y26.15663 Z15.31819
 Y29.14458 Z15.62849
 Y29.89157 Z15.70807
 Y32.87952 Z16.04714
 Y33.62651 Z16.13438
 Y36.61446 Z16.50230
 Y37.36145 Z16.59724
 Y39.60241 Z16.89488
 Y40.34940 Z16.99409
 Y41.09639 Z17.09673
 Y43.33735 Z17.41618
 Y44.08434 Z17.52264
 Y44.83133 Z17.63304
 Y47.07229 Z17.97438
 Y47.81928 Z18.08814
 Y48.56627 Z18.20627
 Y51.55422 Z18.69069
 Y52.30120 Z18.81665
 Y54.54217 Z19.20205
 Y55.28916 Z19.33054
 Y56.03614 Z19.46436
 Y58.27711 Z19.87195
 Y59.02410 Z20.00779
 Y59.77108 Z20.14950
 Y62.75904 Z20.72270
 Y63.50602 Z20.87237
 Y66.49398 Z21.47549
 Y67.24096 Z21.63309
 Y69.48193 Z22.10800
 Y70.22892 Z22.26629
 Y70.97590 Z22.43196
 Y73.21687 Z22.92957
 Y73.96386 Z23.09572
 Y76.95181 Z23.78968
 Y77.69880 Z23.96394
 Y80.68675 Z24.68857
 Y81.43373 Z24.87098
 Y84.42169 Z25.62651
 Y85.16867 Z25.81713
 Y88.15663 Z26.60379
 Y88.90361 Z26.80269
 Y91.89157 Z27.62071
 Y92.63855 Z27.82698
 Y93.38554 Z28.03658
 Y94.13253 Z28.24816
 Y94.87952 Z28.46125
 Y95.62651 Z28.67586
 Y96.37349 Z28.89194
 Y97.12048 Z29.10984
 Y97.86747 Z29.32949
 Y98.61446 Z29.55061
 Y99.36145 Z29.77316
 Y100.10843 Z29.99742
 Y100.85542 Z30.17868
 Y102.34940 Z30.53253
 Y103.09639 Z30.63694
 Y104.59036 Z30.73334
 Y105.33735 Z30.76018
 Y106.08434 Z30.76058
 Y106.83133 Z30.76060
 Y112.80723
 Y113.55422 Z30.73731
 Y114.86145 Z30.67027
 Y114.95482 Z30.66547
 Y115.04819 Z30.66068
 Y115.79518 Z30.46849
 Y119.34337 Z29.33744
 Y119.43675 Z29.30761
 Y119.90361 Z29.15879
 Y120.27711 Z28.82943
 Y123.82530 Z25.43869
 Y123.91867 Z25.34948
 Y124.38554 Z24.90333
 Y124.75904 Z24.18458
 Y125.50602 Z22.48768
 Y126.25301 Z20.79068
 Y127.00000 Z18.27561
 X97.94361
 Y126.81325 Z19.13154
 Y126.64985 Z19.88077
 Y126.62651 Z19.94219
 Y124.78238 Z24.13164
 Y124.75904 Z24.18458
 Y124.48475 Z24.80769
 Y124.47892 Z24.81410
 Y124.01205 Z25.26025
 Y123.26506 Z25.97407
 Y119.95030 Z29.14174
 Y119.90361 Z29.15879
 Y119.53012 Z29.27785
 Y118.78313 Z29.51602
 Y115.23494 Z30.64708
 Y115.04819 Z30.66068
 Y114.30120 Z30.69900
 Y113.55422 Z30.73731
 Y112.80723 Z30.76060
 Y106.83133
 Y106.08434 Z30.76058
 Y105.33735 Z30.76018
 Y104.59036 Z30.73334
 Y102.72289 Z30.61284
 Y102.34940 Z30.53253
 Y100.85542 Z30.17868
 Y100.10843 Z29.99742
 Y99.36145 Z29.77316
 Y98.61446 Z29.55061
 Y97.86747 Z29.32949
 Y97.12048 Z29.10984
 Y96.37349 Z28.89194
 Y95.62651 Z28.67586
 Y94.87952 Z28.46125
 Y94.13253 Z28.24816
 Y93.38554 Z28.03658
 Y92.63855 Z27.82698
 Y91.89157 Z27.62070
 Y88.90361 Z26.80269
 Y88.15663 Z26.60379
 Y85.16867 Z25.81713
 Y84.42169 Z25.62651
 Y81.43373 Z24.87098
 Y80.68675 Z24.68857
 Y77.69880 Z23.96394
 Y76.95181 Z23.78968
 Y73.96386 Z23.09572
 Y73.21687 Z22.92957
 Y70.97590 Z22.43196
 Y70.22892 Z22.26629
 Y69.48193 Z22.10800
 Y67.24096 Z21.63309
 Y66.49398 Z21.47549
 Y63.50602 Z20.87237
 Y62.75904 Z20.72270
 Y59.77108 Z20.14950
 Y59.02410 Z20.00779
 Y58.27711 Z19.87195
 Y56.03614 Z19.46436
 Y55.28916 Z19.33054
 Y54.54217 Z19.20205
 Y52.30120 Z18.81665
 Y51.55422 Z18.69069
 Y48.56627 Z18.20627
 Y47.81928 Z18.08814
 Y47.07229 Z17.97438
 Y44.83133 Z17.63304
 Y44.08434 Z17.52264
 Y43.33735 Z17.41618
 Y41.09639 Z17.09673
 Y40.34940 Z16.99409
 Y39.60241 Z16.89488
 Y37.36145 Z16.59724
 Y36.61446 Z16.50230
 Y33.62651 Z16.13438
 Y32.87952 Z16.04714
 Y29.89157 Z15.70807
 Y29.14458 Z15.62849
 Y26.15663 Z15.31819
 Y25.40964 Z15.24623
 Y22.42169 Z14.96458
 Y21.67470 Z14.90021
 Y18.68675 Z14.64718
 Y17.93976 Z14.58832
 Y17.19277 Z14.53028
 Y16.44578 Z14.47434
 Y15.69880 Z14.41950
 Y14.95181 Z14.36608
 Y14.20482 Z14.31440
 Y13.45783 Z14.26350
 Y12.71084 Z14.21498
 Y11.96386 Z14.16710
 Y11.21687 Z14.12120
 Y10.46988 Z14.07648
 Y9.72289 Z14.03309
 Y8.97590 Z13.99101
 Y8.22892 Z13.89722
 Y6.73494 Z13.69204
 Y5.98795 Z13.43207
 Y3.00000 Z12.10418
 X98.54135
 Y6.49859 Z13.65901
 Y6.50151 Z13.65998
 Y8.22892 Z13.89722
 Y8.97590 Z13.99101
 Y9.72289 Z14.03309
 Y10.46988 Z14.07648
 Y11.21687 Z14.12120
 Y11.96386 Z14.16710
 Y12.71084 Z14.21498
 Y13.45783 Z14.26350
 Y14.20482 Z14.31440
 Y14.95181 Z14.36608
 Y15.69880 Z14.41950
 Y16.44578 Z14.47434
 Y17.19277 Z14.53028
 Y17.93976 Z14.58832
 Y18.68675 Z14.64718
 Y21.67470 Z14.90021
 Y22.42169 Z14.96458
 Y25.40964 Z15.24623
 Y26.15663 Z15.31819
 Y29.14458 Z15.62849
 Y29.89157 Z15.70807
 Y32.87952 Z16.04714
 Y33.62651 Z16.13438
 Y36.61446 Z16.50230
 Y37.36145 Z16.59724
 Y39.60241 Z16.89488
 Y40.34940 Z16.99409
 Y41.09639 Z17.09673
 Y43.33735 Z17.41618
 Y44.08434 Z17.52264
 Y44.83133 Z17.63304
 Y47.07229 Z17.97438
 Y47.81928 Z18.08814
 Y48.56627 Z18.20627
 Y51.55422 Z18.69069
 Y52.30120 Z18.81665
 Y54.54217 Z19.20205
 Y55.28916 Z19.33054
 Y56.03614 Z19.46436
 Y58.27711 Z19.87195
 Y59.02410 Z20.00779
 Y59.77108 Z20.14950
 Y62.75904 Z20.72270
 Y63.50602 Z20.87237
 Y66.49398 Z21.47549
 Y67.24096 Z21.63309
 Y69.48193 Z22.10800
 Y70.22892 Z22.26629
 Y70.97590 Z22.43196
 Y73.21687 Z22.92957
 Y73.96386 Z23.09572
 Y76.95181 Z23.78968
 Y77.69880 Z23.96394
 Y80.68675 Z24.68857
 Y81.43373 Z24.87098
 Y84.42169 Z25.62651
 Y85.16867 Z25.81713
 Y88.15663 Z26.60379
 Y88.90361 Z26.80269
 Y91.89157 Z27.62070
 Y92.63855 Z27.82698
 Y93.38554 Z28.03658
 Y94.13253 Z28.24816
 Y94.87952 Z28.46125
 Y95.62651 Z28.67586
 Y96.37349 Z28.89194
 Y97.12048 Z29.10984
 Y97.86747 Z29.32949
 Y98.61446 Z29.55061
 Y99.36145 Z29.77316
 Y100.10843 Z29.99742
 Y100.85542 Z30.17868
 Y102.34940 Z30.53253
 Y103.09639 Z30.63694
 Y104.59036 Z30.73334
 Y105.33735 Z30.76018
 Y106.08434 Z30.76058
 Y106.83133 Z30.76060
 Y112.80723
 Y113.55422 Z30.73731
 Y114.86145 Z30.67027
 Y114.95482 Z30.66547
 Y115.04819 Z30.66068
 Y115.79518 Z30.46849
 Y119.15663 Z29.39697
 Y119.34337 Z29.33738
 Y119.90361 Z29.15879
 Y120.27711 Z28.82943
 Y123.82530 Z25.43869
 Y123.91867 Z25.34948
 Y124.38554 Z24.90333
 Y124.75904 Z24.18458
 Y125.50602 Z22.48768
 Y126.25301 Z20.79068
 Y127.00000 Z18.27561
 X99.13910
 Y126.81325 Z19.13154
 Y126.64985 Z19.88077
 Y126.62651 Z19.94219
 Y124.80572 Z24.07861
 Y124.78238 Z24.13154
 Y124.48475 Z24.80769
 Y124.47892 Z24.81410
 Y124.01205 Z25.26025
 Y123.26506 Z25.97407
 Y119.95030 Z29.14174
 Y119.90361 Z29.15879
 Y119.53012 Z29.27785
 Y118.78313 Z29.51602
 Y115.23494 Z30.64708
 Y115.04819 Z30.66068
 Y114.30120 Z30.69900
 Y113.55422 Z30.73731
 Y112.80723 Z30.76060
 Y106.83133
 Y106.08434 Z30.76058
 Y105.33735 Z30.76018
 Y104.59036 Z30.73334
 Y102.72289 Z30.61284
 Y102.34940 Z30.53253
 Y100.85542 Z30.17868
 Y100.10843 Z29.99742
 Y99.36145 Z29.77316
 Y98.61446 Z29.55061
 Y97.86747 Z29.32949
 Y97.12048 Z29.10984
 Y96.37349 Z28.89194
 Y95.62651 Z28.67586
 Y94.87952 Z28.46125
 Y94.13253 Z28.24816
 Y93.38554 Z28.03658
 Y92.63855 Z27.82698
 Y91.89157 Z27.62070
 Y88.90361 Z26.80269
 Y88.15663 Z26.60379
 Y85.16867 Z25.81713
 Y84.42169 Z25.62651
 Y81.43373 Z24.87098
 Y80.68675 Z24.68857
 Y77.69880 Z23.96394
 Y76.95181 Z23.78968
 Y73.96386 Z23.09572
 Y73.21687 Z22.92957
 Y70.97590 Z22.43196
 Y70.22892 Z22.26629
 Y69.48193 Z22.10800
 Y67.24096 Z21.63309
 Y66.49398 Z21.47549
 Y63.50602 Z20.87237
 Y62.75904 Z20.72270
 Y59.77108 Z20.14950
 Y59.02410 Z20.00779
 Y58.27711 Z19.87195
 Y56.03614 Z19.46436
 Y55.28916 Z19.33054
 Y54.54217 Z19.20205
 Y52.30120 Z18.81665
 Y51.55422 Z18.69069
 Y48.56627 Z18.20627
 Y47.81928 Z18.08814
 Y47.07229 Z17.97438
 Y44.83133 Z17.63304
 Y44.08434 Z17.52264
 Y43.33735 Z17.41618
 Y41.09639 Z17.09673
 Y40.34940 Z16.99409
 Y39.60241 Z16.89488
 Y37.36145 Z16.59724
 Y36.61446 Z16.50230
 Y33.62651 Z16.13438
 Y32.87952 Z16.04714
 Y29.89157 Z15.70807
 Y29.14458 Z15.62849
 Y26.15663 Z15.31819
 Y25.40964 Z15.24623
 Y22.42169 Z14.96458
 Y21.67470 Z14.90021
 Y18.68675 Z14.64718
 Y17.93976 Z14.58832
 Y17.19277 Z14.53028
 Y16.44578 Z14.47434
 Y15.69880 Z14.41950
 Y14.95181 Z14.36608
 Y14.20482 Z14.31440
 Y13.45783 Z14.26350
 Y12.71084 Z14.21498
 Y11.96386 Z14.16710
 Y11.21687 Z14.12120
 Y10.46988 Z14.07648
 Y9.72289 Z14.03309
 Y8.97590 Z13.99101
 Y8.22892 Z13.89722
 Y6.73494 Z13.69204
 Y5.98795 Z13.43207
 Y3.00000 Z12.10418
 X99.73684
 Y6.49859 Z13.65901
 Y6.50151 Z13.65998
 Y8.22892 Z13.89722
 Y8.97590 Z13.99101
 Y9.72289 Z14.03309
 Y10.46988 Z14.07648
 Y11.21687 Z14.12120
 Y11.96386 Z14.16710
 Y12.71084 Z14.21498
 Y13.45783 Z14.26350
 Y14.20482 Z14.31440
 Y14.95181 Z14.36608
 Y15.69880 Z14.41950
 Y16.44578 Z14.47434
 Y17.19277 Z14.53028
 Y17.93976 Z14.58832
 Y18.68675 Z14.64718
 Y21.67470 Z14.90021
 Y22.42169 Z14.96458
 Y25.40964 Z15.24623
 Y26.15663 Z15.31819
 Y29.14458 Z15.62849
 Y29.89157 Z15.70807
 Y32.87952 Z16.04714
 Y33.62651 Z16.13438
 Y36.61446 Z16.50230
 Y37.36145 Z16.59724
 Y39.60241 Z16.89488
 Y40.34940 Z16.99409
 Y41.09639 Z17.09673
 Y43.33735 Z17.41618
 Y44.08434 Z17.52264
 Y44.83133 Z17.63304
 Y47.07229 Z17.97438
 Y47.81928 Z18.08814
 Y48.56627 Z18.20627
 Y51.55422 Z18.69069
 Y52.30120 Z18.81665
 Y54.54217 Z19.20205
 Y55.28916 Z19.33054
 Y56.03614 Z19.46436
 Y58.27711 Z19.87195
 Y59.02410 Z20.00779
 Y59.77108 Z20.14950
 Y62.01205 Z20.57941
 Y62.75904 Z20.72273
 Y63.50602 Z20.87237
 Y66.49398 Z21.47549
 Y67.24096 Z21.63309
 Y69.48193 Z22.10800
 Y70.22892 Z22.26629
 Y70.97590 Z22.43196
 Y73.21687 Z22.92957
 Y73.96386 Z23.09572
 Y76.95181 Z23.78968
 Y77.69880 Z23.96394
 Y80.68675 Z24.68857
 Y81.43373 Z24.87098
 Y84.42169 Z25.62651
 Y85.16867 Z25.81713
 Y87.40964 Z26.40712
 Y88.15663 Z26.60378
 Y88.90361 Z26.80269
 Y91.89157 Z27.62070
 Y92.63855 Z27.82698
 Y93.38554 Z28.03658
 Y94.13253 Z28.24816
 Y94.87952 Z28.46125
 Y95.62651 Z28.67586
 Y96.37349 Z28.89194
 Y97.12048 Z29.10984
 Y97.86747 Z29.32949
 Y98.61446 Z29.55061
 Y99.36145 Z29.77316
 Y100.10843 Z29.99742
 Y100.85542 Z30.17868
 Y102.34940 Z30.53253
 Y103.09639 Z30.63694
 Y104.59036 Z30.73334
 Y105.33735 Z30.76018
 Y106.08434 Z30.76058
 Y106.83133 Z30.76060
 Y112.80723
 Y113.55422 Z30.73731
 Y114.86145 Z30.67027
 Y114.95482 Z30.66547
 Y115.04819 Z30.66068
 Y115.79518 Z30.46849
 Y119.15663 Z29.39697
 Y119.34337 Z29.33738
 Y119.90361 Z29.15879
 Y120.27711 Z28.82943
 Y123.82530 Z25.43869
 Y123.91867 Z25.34948
 Y124.38554 Z24.90333
 Y124.75904 Z24.18458
 Y125.50602 Z22.48768
 Y126.25301 Z20.79068
 Y127.00000 Z18.27561
 X100.33459
 Y126.81325 Z19.13154
 Y126.64985 Z19.88077
 Y126.62651 Z19.94219
 Y124.85241 Z23.97255
 Y124.80572 Z24.07851
 Y124.48475 Z24.80769
 Y124.47892 Z24.81410
 Y124.01205 Z25.26025
 Y123.26506 Z25.97407
 Y119.95030 Z29.14174
 Y119.90361 Z29.15879
 Y119.53012 Z29.27785
 Y118.78313 Z29.51602
 Y115.23494 Z30.64708
 Y115.04819 Z30.66068
 Y114.30120 Z30.69900
 Y113.55422 Z30.73731
 Y112.80723 Z30.76060
 Y106.83133
 Y106.08434 Z30.76058
 Y105.33735 Z30.76018
 Y104.59036 Z30.73334
 Y102.72289 Z30.61284
 Y102.34940 Z30.53253
 Y100.85542 Z30.17868
 Y100.10843 Z29.99742
 Y99.36145 Z29.77316
 Y98.61446 Z29.55061
 Y97.86747 Z29.32949
 Y97.12048 Z29.10984
 Y96.37349 Z28.89194
 Y95.62651 Z28.67586
 Y94.87952 Z28.46125
 Y94.13253 Z28.24816
 Y93.38554 Z28.03658
 Y92.63855 Z27.82698
 Y91.89157 Z27.62070
 Y88.90361 Z26.80269
 Y88.15663 Z26.60378
 Y87.40964 Z26.40712
 Y85.16867 Z25.81713
 Y84.42169 Z25.62651
 Y81.43373 Z24.87098
 Y80.68675 Z24.68857
 Y77.69880 Z23.96394
 Y76.95181 Z23.78968
 Y73.96386 Z23.09572
 Y73.21687 Z22.92957
 Y70.97590 Z22.43196
 Y70.22892 Z22.26629
 Y69.48193 Z22.10800
 Y67.24096 Z21.63309
 Y66.49398 Z21.47549
 Y63.50602 Z20.87237
 Y62.75904 Z20.72273
 Y62.01205 Z20.57941
 Y59.77108 Z20.14950
 Y59.02410 Z20.00779
 Y58.27711 Z19.87195
 Y56.03614 Z19.46436
 Y55.28916 Z19.33054
 Y54.54217 Z19.20205
 Y52.30120 Z18.81665
 Y51.55422 Z18.69069
 Y48.56627 Z18.20627
 Y47.81928 Z18.08814
 Y47.07229 Z17.97438
 Y44.83133 Z17.63304
 Y44.08434 Z17.52264
 Y43.33735 Z17.41618
 Y41.09639 Z17.09673
 Y40.34940 Z16.99409
 Y39.60241 Z16.89488
 Y37.36145 Z16.59724
 Y36.61446 Z16.50230
 Y33.62651 Z16.13438
 Y32.87952 Z16.04714
 Y29.89157 Z15.70807
 Y29.14458 Z15.62849
 Y26.15663 Z15.31819
 Y25.40964 Z15.24623
 Y22.42169 Z14.96458
 Y21.67470 Z14.90021
 Y18.68675 Z14.64718
 Y17.93976 Z14.58832
 Y17.19277 Z14.53028
 Y16.44578 Z14.47434
 Y15.69880 Z14.41950
 Y14.95181 Z14.36608
 Y14.20482 Z14.31440
 Y13.45783 Z14.26350
 Y12.71084 Z14.21498
 Y11.96386 Z14.16710
 Y11.21687 Z14.12120
 Y10.46988 Z14.07648
 Y9.72289 Z14.03309
 Y8.97590 Z13.99101
 Y8.22892 Z13.89722
 Y6.73494 Z13.69204
 Y5.98795 Z13.43207
 Y3.00000 Z12.10418
 X100.93233
 Y6.49859 Z13.65901
 Y6.50151 Z13.65998
 Y8.22892 Z13.89722
 Y8.97590 Z13.99101
 Y9.72289 Z14.03309
 Y10.46988 Z14.07648
 Y11.21687 Z14.12120
 Y11.96386 Z14.16710
 Y12.71084 Z14.21498
 Y13.45783 Z14.26350
 Y14.20482 Z14.31440
 Y14.95181 Z14.36608
 Y15.69880 Z14.41950
 Y16.44578 Z14.47434
 Y17.19277 Z14.53028
 Y17.93976 Z14.58832
 Y18.68675 Z14.64718
 Y21.67470 Z14.90021
 Y22.42169 Z14.96458
 Y25.40964 Z15.24623
 Y26.15663 Z15.31819
 Y29.14458 Z15.62849
 Y29.89157 Z15.70807
 Y32.87952 Z16.04714
 Y33.62651 Z16.13438
 Y36.61446 Z16.50230
 Y37.36145 Z16.59724
 Y39.60241 Z16.89488
 Y40.34940 Z16.99409
 Y41.09639 Z17.09673
 Y43.33735 Z17.41618
 Y44.08434 Z17.52264
 Y44.83133 Z17.63304
 Y47.07229 Z17.97438
 Y47.81928 Z18.08814
 Y48.56627 Z18.20627
 Y51.55422 Z18.69069
 Y52.30120 Z18.81665
 Y54.54217 Z19.20205
 Y55.28916 Z19.33054
 Y56.03614 Z19.46436
 Y58.27711 Z19.87195
 Y59.02410 Z20.00779
 Y59.77108 Z20.14950
 Y62.01205 Z20.57941
 Y62.75904 Z20.72273
 Y63.50602 Z20.87237
 Y66.49398 Z21.47549
 Y67.24096 Z21.63309
 Y69.48193 Z22.10800
 Y70.22892 Z22.26629
 Y70.97590 Z22.43196
 Y73.21687 Z22.92957
 Y73.96386 Z23.09572
 Y76.95181 Z23.78968
 Y77.69880 Z23.96394
 Y80.68675 Z24.68857
 Y81.43373 Z24.87098
 Y84.42169 Z25.62651
 Y85.16867 Z25.81713
 Y87.40964 Z26.40712
 Y88.15663 Z26.60378
 Y88.90361 Z26.80269
 Y91.89157 Z27.62070
 Y92.63855 Z27.82698
 Y93.38554 Z28.03658
 Y94.13253 Z28.24816
 Y94.87952 Z28.46125
 Y95.62651 Z28.67586
 Y96.37349 Z28.89194
 Y97.12048 Z29.10984
 Y97.86747 Z29.32949
 Y98.61446 Z29.55061
 Y99.36145 Z29.77316
 Y100.10843 Z29.99742
 Y100.85542 Z30.17868
 Y102.34940 Z30.53253
 Y103.09639 Z30.63694
 Y104.59036 Z30.73334
 Y105.33735 Z30.76018
 Y106.08434 Z30.76058
 Y106.83133 Z30.76060
 Y112.80723
 Y113.55422 Z30.73731
 Y114.86145 Z30.67027
 Y114.95482 Z30.66547
 Y115.04819 Z30.66068
 Y115.79518 Z30.46849
 Y119.15663 Z29.39697
 Y119.34337 Z29.33738
 Y119.90361 Z29.15879
 Y120.27711 Z28.82943
 Y123.63855 Z25.61715
 Y123.82530 Z25.43871
 Y124.38554 Z24.90333
 Y124.75904 Z24.18458
 Y125.50602 Z22.48768
 Y126.25301 Z20.79068
 Y127.00000 Z18.27561
 X101.53008
 Y126.81325 Z19.13154
 Y126.64985 Z19.88077
 Y126.62651 Z19.94219
 Y124.85241 Z23.97255
 Y124.80572 Z24.07851
 Y124.48475 Z24.80769
 Y124.47892 Z24.81410
 Y124.01205 Z25.26025
 Y123.26506 Z25.97407
 Y119.95030 Z29.14174
 Y119.90361 Z29.15879
 Y119.53012 Z29.27785
 Y118.78313 Z29.51602
 Y115.23494 Z30.64708
 Y115.04819 Z30.66068
 Y114.30120 Z30.69900
 Y113.55422 Z30.73731
 Y112.80723 Z30.76060
 Y106.83133
 Y106.08434 Z30.76058
 Y105.33735 Z30.76018
 Y104.59036 Z30.73334
 Y102.72289 Z30.61284
 Y102.34940 Z30.53253
 Y100.85542 Z30.17868
 Y100.10843 Z29.99742
 Y99.36145 Z29.77316
 Y98.61446 Z29.55061
 Y97.86747 Z29.32949
 Y97.12048 Z29.10984
 Y96.37349 Z28.89194
 Y95.62651 Z28.67586
 Y94.87952 Z28.46125
 Y94.13253 Z28.24816
 Y93.38554 Z28.03658
 Y92.63855 Z27.82698
 Y91.89157 Z27.62070
 Y88.90361 Z26.80269
 Y88.15663 Z26.60378
 Y87.40964 Z26.40712
 Y85.16867 Z25.81713
 Y84.42169 Z25.62651
 Y81.43373 Z24.87098
 Y80.68675 Z24.68857
 Y77.69880 Z23.96394
 Y76.95181 Z23.78968
 Y73.96386 Z23.09572
 Y73.21687 Z22.92957
 Y70.97590 Z22.43196
 Y70.22892 Z22.26629
 Y69.48193 Z22.10800
 Y67.24096 Z21.63309
 Y66.49398 Z21.47549
 Y63.50602 Z20.87237
 Y62.75904 Z20.72273
 Y62.01205 Z20.57941
 Y59.77108 Z20.14950
 Y59.02410 Z20.00779
 Y58.27711 Z19.87195
 Y56.03614 Z19.46436
 Y55.28916 Z19.33054
 Y54.54217 Z19.20205
 Y52.30120 Z18.81665
 Y51.55422 Z18.69069
 Y48.56627 Z18.20627
 Y47.81928 Z18.08814
 Y47.07229 Z17.97438
 Y44.83133 Z17.63304
 Y44.08434 Z17.52264
 Y43.33735 Z17.41618
 Y41.09639 Z17.09673
 Y40.34940 Z16.99409
 Y39.60241 Z16.89488
 Y37.36145 Z16.59724
 Y36.61446 Z16.50230
 Y33.62651 Z16.13438
 Y32.87952 Z16.04714
 Y29.89157 Z15.70807
 Y29.14458 Z15.62849
 Y26.15663 Z15.31819
 Y25.40964 Z15.24623
 Y22.42169 Z14.96458
 Y21.67470 Z14.90021
 Y18.68675 Z14.64718
 Y17.93976 Z14.58832
 Y17.19277 Z14.53028
 Y16.44578 Z14.47434
 Y15.69880 Z14.41950
 Y14.95181 Z14.36608
 Y14.20482 Z14.31440
 Y13.45783 Z14.26350
 Y12.71084 Z14.21498
 Y11.96386 Z14.16710
 Y11.21687 Z14.12120
 Y10.46988 Z14.07648
 Y9.72289 Z14.03309
 Y8.97590 Z13.99101
 Y8.22892 Z13.89722
 Y6.73494 Z13.69204
 Y5.98795 Z13.43207
 Y3.00000 Z12.10418
 X102.12782
 Y6.49859 Z13.65901
 Y6.50151 Z13.65998
 Y8.22892 Z13.89722
 Y8.97590 Z13.99101
 Y9.72289 Z14.03309
 Y10.46988 Z14.07648
 Y11.21687 Z14.12120
 Y11.96386 Z14.16710
 Y12.71084 Z14.21498
 Y13.45783 Z14.26350
 Y14.20482 Z14.31440
 Y14.95181 Z14.36608
 Y15.69880 Z14.41950
 Y16.44578 Z14.47434
 Y17.19277 Z14.53028
 Y17.93976 Z14.58832
 Y18.68675 Z14.64718
 Y21.67470 Z14.90021
 Y22.42169 Z14.96458
 Y25.40964 Z15.24622
 Y26.15663 Z15.31819
 Y29.14458 Z15.62849
 Y29.89157 Z15.70807
 Y32.87952 Z16.04714
 Y33.62651 Z16.13438
 Y36.61446 Z16.50230
 Y37.36145 Z16.59724
 Y39.60241 Z16.89488
 Y40.34940 Z16.99409
 Y41.09639 Z17.09673
 Y43.33735 Z17.41618
 Y44.08434 Z17.52264
 Y44.83133 Z17.63304
 Y47.07229 Z17.97438
 Y47.81928 Z18.08814
 Y48.56627 Z18.20627
 Y51.55422 Z18.69069
 Y52.30120 Z18.81665
 Y54.54217 Z19.20205
 Y55.28916 Z19.33054
 Y56.03614 Z19.46436
 Y58.27711 Z19.87195
 Y59.02410 Z20.00779
 Y59.77108 Z20.14950
 Y62.01205 Z20.57941
 Y62.75904 Z20.72273
 Y63.50602 Z20.87237
 Y66.49398 Z21.47549
 Y67.24096 Z21.63309
 Y69.48193 Z22.10800
 Y70.22892 Z22.26629
 Y70.97590 Z22.43196
 Y73.21687 Z22.92957
 Y73.96386 Z23.09572
 Y76.95181 Z23.78968
 Y77.69880 Z23.96394
 Y80.68675 Z24.68857
 Y81.43373 Z24.87098
 Y84.42169 Z25.62651
 Y85.16867 Z25.81713
 Y87.40964 Z26.40712
 Y88.15663 Z26.60378
 Y88.90361 Z26.80269
 Y91.89157 Z27.62070
 Y92.63855 Z27.82698
 Y93.38554 Z28.03658
 Y94.13253 Z28.24816
 Y94.87952 Z28.46125
 Y95.62651 Z28.67586
 Y96.37349 Z28.89194
 Y97.12048 Z29.10984
 Y97.86747 Z29.32949
 Y98.61446 Z29.55061
 Y99.36145 Z29.77316
 Y100.10843 Z29.99742
 Y100.85542 Z30.17868
 Y102.34940 Z30.53253
 Y103.09639 Z30.63694
 Y104.59036 Z30.73334
 Y105.33735 Z30.76018
 Y106.08434 Z30.76058
 Y106.83133 Z30.76060
 Y112.80723
 Y113.55422 Z30.73731
 Y114.86145 Z30.67027
 Y114.95482 Z30.66547
 Y115.04819 Z30.66068
 Y115.79518 Z30.46849
 Y119.15663 Z29.39697
 Y119.34337 Z29.33738
 Y119.90361 Z29.15879
 Y120.27711 Z28.82943
 Y123.63855 Z25.61715
 Y123.82530 Z25.43871
 Y124.38554 Z24.90333
 Y124.75904 Z24.18458
 Y125.50602 Z22.48768
 Y126.25301 Z20.79068
 Y127.00000 Z18.27561
 X102.72556
 Y126.81325 Z19.13154
 Y126.64985 Z19.88077
 Y126.62651 Z19.94219
 Y124.85241 Z23.97255
 Y124.80572 Z24.07851
 Y124.48475 Z24.80769
 Y124.47892 Z24.81410
 Y124.01205 Z25.26025
 Y123.26506 Z25.97407
 Y119.95030 Z29.14174
 Y119.90361 Z29.15879
 Y119.53012 Z29.27785
 Y118.78313 Z29.51602
 Y115.23494 Z30.64708
 Y115.04819 Z30.66068
 Y114.30120 Z30.69900
 Y113.55422 Z30.73731
 Y112.80723 Z30.76060
 Y106.83133
 Y106.08434 Z30.76058
 Y105.33735 Z30.76018
 Y104.59036 Z30.73334
 Y102.72289 Z30.61284
 Y102.34940 Z30.53250
 Y101.60241 Z30.35560
 Y100.85542 Z30.17868
 Y100.10843 Z29.99742
 Y99.36145 Z29.77316
 Y98.61446 Z29.55061
 Y97.86747 Z29.32949
 Y97.12048 Z29.10984
 Y96.37349 Z28.89194
 Y95.62651 Z28.67586
 Y94.87952 Z28.46125
 Y94.13253 Z28.24816
 Y93.38554 Z28.03658
 Y92.63855 Z27.82698
 Y91.89157 Z27.62070
 Y88.90361 Z26.80269
 Y88.15663 Z26.60378
 Y87.40964 Z26.40712
 Y85.16867 Z25.81713
 Y84.42169 Z25.62651
 Y81.43373 Z24.87098
 Y80.68675 Z24.68857
 Y77.69880 Z23.96394
 Y76.95181 Z23.78968
 Y73.96386 Z23.09572
 Y73.21687 Z22.92957
 Y70.97590 Z22.43196
 Y70.22892 Z22.26629
 Y69.48193 Z22.10800
 Y67.24096 Z21.63309
 Y66.49398 Z21.47549
 Y63.50602 Z20.87237
 Y62.75904 Z20.72273
 Y62.01205 Z20.57941
 Y59.77108 Z20.14950
 Y59.02410 Z20.00779
 Y58.27711 Z19.87195
 Y56.03614 Z19.46436
 Y55.28916 Z19.33054
 Y54.54217 Z19.20205
 Y52.30120 Z18.81665
 Y51.55422 Z18.69069
 Y48.56627 Z18.20627
 Y47.81928 Z18.08814
 Y47.07229 Z17.97438
 Y44.83133 Z17.63304
 Y44.08434 Z17.52264
 Y43.33735 Z17.41618
 Y41.09639 Z17.09673
 Y40.34940 Z16.99409
 Y39.60241 Z16.89488
 Y37.36145 Z16.59724
 Y36.61446 Z16.50230
 Y33.62651 Z16.13438
 Y32.87952 Z16.04714
 Y29.89157 Z15.70807
 Y29.14458 Z15.62849
 Y26.15663 Z15.31819
 Y25.40964 Z15.24622
 Y22.42169 Z14.96458
 Y21.67470 Z14.90021
 Y18.68675 Z14.64718
 Y17.93976 Z14.58832
 Y17.19277 Z14.53028
 Y16.44578 Z14.47434
 Y15.69880 Z14.41950
 Y14.95181 Z14.36608
 Y14.20482 Z14.31440
 Y13.45783 Z14.26350
 Y12.71084 Z14.21498
 Y11.96386 Z14.16710
 Y11.21687 Z14.12120
 Y10.46988 Z14.07648
 Y9.72289 Z14.03309
 Y8.97590 Z13.99101
 Y8.22892 Z13.89722
 Y6.73494 Z13.69204
 Y5.98795 Z13.43207
 Y3.00000 Z12.10418
 X103.32331
 Y6.49859 Z13.65901
 Y6.50151 Z13.65998
 Y8.22892 Z13.89722
 Y8.97590 Z13.99101
 Y9.72289 Z14.03309
 Y10.46988 Z14.07648
 Y11.21687 Z14.12120
 Y11.96386 Z14.16710
 Y12.71084 Z14.21498
 Y13.45783 Z14.26350
 Y14.20482 Z14.31440
 Y14.95181 Z14.36608
 Y15.69880 Z14.41950
 Y16.44578 Z14.47434
 Y17.19277 Z14.53028
 Y17.93976 Z14.58832
 Y18.68675 Z14.64718
 Y21.67470 Z14.90021
 Y22.42169 Z14.96458
 Y25.40964 Z15.24622
 Y26.15663 Z15.31819
 Y29.14458 Z15.62849
 Y29.89157 Z15.70807
 Y32.87952 Z16.04714
 Y33.62651 Z16.13438
 Y36.61446 Z16.50230
 Y37.36145 Z16.59724
 Y39.60241 Z16.89488
 Y40.34940 Z16.99409
 Y41.09639 Z17.09673
 Y43.33735 Z17.41618
 Y44.08434 Z17.52264
 Y44.83133 Z17.63304
 Y47.07229 Z17.97438
 Y47.81928 Z18.08814
 Y48.56627 Z18.20627
 Y51.55422 Z18.69069
 Y52.30120 Z18.81665
 Y54.54217 Z19.20205
 Y55.28916 Z19.33054
 Y56.03614 Z19.46436
 Y58.27711 Z19.87195
 Y59.02410 Z20.00779
 Y59.77108 Z20.14950
 Y62.01205 Z20.57941
 Y62.75904 Z20.72273
 Y63.50602 Z20.87237
 Y66.49398 Z21.47549
 Y67.24096 Z21.63309
 Y69.48193 Z22.10800
 Y70.22892 Z22.26629
 Y70.97590 Z22.43196
 Y73.21687 Z22.92957
 Y73.96386 Z23.09572
 Y76.95181 Z23.78968
 Y77.69880 Z23.96394
 Y79.93976 Z24.50741
 Y80.68675 Z24.68858
 Y81.43373 Z24.87098
 Y84.42169 Z25.62651
 Y85.16867 Z25.81713
 Y87.40964 Z26.40712
 Y88.15663 Z26.60378
 Y88.90361 Z26.80269
 Y91.89157 Z27.62070
 Y92.63855 Z27.82698
 Y93.38554 Z28.03658
 Y94.13253 Z28.24816
 Y94.87952 Z28.46125
 Y95.62651 Z28.67586
 Y96.37349 Z28.89194
 Y97.12048 Z29.10984
 Y97.86747 Z29.32949
 Y98.61446 Z29.55061
 Y99.36145 Z29.77316
 Y100.10843 Z29.99742
 Y100.85542 Z30.17868
 Y101.97590 Z30.44406
 Y102.34940 Z30.53250
 Y103.09639 Z30.63694
 Y104.59036 Z30.73334
 Y105.33735 Z30.76018
 Y106.08434 Z30.76058
 Y106.83133 Z30.76060
 Y112.80723
 Y113.55422 Z30.73731
 Y114.67470 Z30.67985
 Y114.86145 Z30.67026
 Y115.04819 Z30.66068
 Y115.79518 Z30.46849
 Y118.78313 Z29.51602
 Y119.15663 Z29.39691
 Y119.90361 Z29.15879
 Y120.27711 Z28.82943
 Y123.63855 Z25.61715
 Y123.82530 Z25.43871
 Y124.38554 Z24.90333
 Y124.75904 Z24.18458
 Y125.50602 Z22.48768
 Y126.25301 Z20.79068
 Y127.00000 Z18.27561
 X103.92105
 Y126.81325 Z19.13154
 Y126.64985 Z19.88077
 Y126.62651 Z19.94219
 Y124.94578 Z23.76042
 Y124.85241 Z23.97245
 Y124.48475 Z24.80769
 Y124.47892 Z24.81410
 Y124.01205 Z25.26025
 Y123.26506 Z25.97407
 Y119.95030 Z29.14174
 Y119.90361 Z29.15879
 Y119.53012 Z29.27785
 Y118.78313 Z29.51602
 Y115.23494 Z30.64708
 Y115.04819 Z30.66068
 Y114.30120 Z30.69900
 Y113.55422 Z30.73731
 Y112.80723 Z30.76060
 Y106.83133
 Y106.08434 Z30.76058
 Y105.33735 Z30.76018
 Y104.59036 Z30.73334
 Y102.72289 Z30.61284
 Y102.34940 Z30.53250
 Y101.60241 Z30.35560
 Y100.85542 Z30.17868
 Y100.10843 Z29.99742
 Y99.36145 Z29.77316
 Y98.61446 Z29.55061
 Y97.86747 Z29.32949
 Y97.12048 Z29.10984
 Y96.37349 Z28.89194
 Y95.62651 Z28.67586
 Y94.87952 Z28.46125
 Y94.13253 Z28.24816
 Y93.38554 Z28.03658
 Y92.63855 Z27.82698
 Y91.89157 Z27.62070
 Y88.90361 Z26.80269
 Y88.15663 Z26.60378
 Y87.40964 Z26.40712
 Y85.16867 Z25.81713
 Y84.42169 Z25.62651
 Y81.43373 Z24.87098
 Y80.68675 Z24.68858
 Y79.93976 Z24.50741
 Y77.69880 Z23.96394
 Y76.95181 Z23.78968
 Y73.96386 Z23.09572
 Y73.21687 Z22.92957
 Y70.97590 Z22.43196
 Y70.22892 Z22.26629
 Y69.48193 Z22.10800
 Y67.24096 Z21.63309
 Y66.49398 Z21.47549
 Y63.50602 Z20.87237
 Y62.75904 Z20.72273
 Y62.01205 Z20.57941
 Y59.77108 Z20.14950
 Y59.02410 Z20.00779
 Y58.27711 Z19.87195
 Y56.03614 Z19.46436
 Y55.28916 Z19.33054
 Y54.54217 Z19.20205
 Y52.30120 Z18.81665
 Y51.55422 Z18.69069
 Y48.56627 Z18.20627
 Y47.81928 Z18.08814
 Y47.07229 Z17.97438
 Y44.83133 Z17.63304
 Y44.08434 Z17.52264
 Y43.33735 Z17.41618
 Y41.09639 Z17.09673
 Y40.34940 Z16.99409
 Y39.60241 Z16.89488
 Y37.36145 Z16.59724
 Y36.61446 Z16.50230
 Y33.62651 Z16.13438
 Y32.87952 Z16.04714
 Y29.89157 Z15.70807
 Y29.14458 Z15.62849
 Y26.15663 Z15.31819
 Y25.40964 Z15.24622
 Y22.42169 Z14.96458
 Y21.67470 Z14.90021
 Y18.68675 Z14.64718
 Y17.93976 Z14.58832
 Y17.19277 Z14.53028
 Y16.44578 Z14.47434
 Y15.69880 Z14.41950
 Y14.95181 Z14.36608
 Y14.20482 Z14.31440
 Y13.45783 Z14.26350
 Y12.71084 Z14.21498
 Y11.96386 Z14.16710
 Y11.21687 Z14.12120
 Y10.46988 Z14.07648
 Y9.72289 Z14.03309
 Y8.97590 Z13.99101
 Y8.22892 Z13.89722
 Y6.73494 Z13.69204
 Y5.98795 Z13.43207
 Y3.00000 Z12.10418
 X104.51880
 Y6.49859 Z13.65901
 Y6.50151 Z13.65998
 Y8.22892 Z13.89722
 Y8.97590 Z13.99101
 Y9.72289 Z14.03309
 Y10.46988 Z14.07648
 Y11.21687 Z14.12120
 Y11.96386 Z14.16710
 Y12.71084 Z14.21498
 Y13.45783 Z14.26350
 Y14.20482 Z14.31440
 Y14.95181 Z14.36608
 Y15.69880 Z14.41950
 Y16.44578 Z14.47434
 Y17.19277 Z14.53028
 Y17.93976 Z14.58832
 Y18.68675 Z14.64718
 Y21.67470 Z14.90021
 Y22.42169 Z14.96458
 Y25.40964 Z15.24622
 Y26.15663 Z15.31819
 Y29.14458 Z15.62849
 Y29.89157 Z15.70807
 Y32.87952 Z16.04714
 Y33.62651 Z16.13438
 Y36.61446 Z16.50230
 Y37.36145 Z16.59724
 Y39.60241 Z16.89488
 Y40.34940 Z16.99409
 Y41.09639 Z17.09673
 Y43.33735 Z17.41618
 Y44.08434 Z17.52264
 Y44.83133 Z17.63304
 Y47.07229 Z17.97438
 Y47.81928 Z18.08814
 Y48.56627 Z18.20627
 Y51.55422 Z18.69069
 Y52.30120 Z18.81665
 Y54.54217 Z19.20205
 Y55.28916 Z19.33054
 Y56.03614 Z19.46436
 Y58.27711 Z19.87195
 Y59.02410 Z20.00779
 Y59.77108 Z20.14950
 Y62.01205 Z20.57941
 Y62.75904 Z20.72273
 Y63.50602 Z20.87237
 Y66.49398 Z21.47549
 Y67.24096 Z21.63309
 Y69.48193 Z22.10800
 Y70.22892 Z22.26629
 Y70.97590 Z22.43196
 Y73.21687 Z22.92957
 Y73.96386 Z23.09572
 Y76.95181 Z23.78968
 Y77.69880 Z23.96394
 Y79.93976 Z24.50741
 Y80.68675 Z24.68858
 Y81.43373 Z24.87098
 Y84.42169 Z25.62651
 Y85.16867 Z25.81713
 Y87.40964 Z26.40712
 Y88.15663 Z26.60378
 Y88.90361 Z26.80269
 Y91.89157 Z27.62070
 Y92.63855 Z27.82698
 Y93.38554 Z28.03658
 Y94.13253 Z28.24816
 Y94.87952 Z28.46125
 Y95.62651 Z28.67586
 Y96.37349 Z28.89194
 Y97.12048 Z29.10984
 Y97.86747 Z29.32949
 Y98.61446 Z29.55061
 Y99.36145 Z29.77316
 Y100.10843 Z29.99742
 Y100.85542 Z30.17868
 Y101.97590 Z30.44406
 Y102.34940 Z30.53250
 Y103.09639 Z30.63694
 Y103.84337 Z30.68514
 Y104.59036 Z30.73336
 Y105.33735 Z30.76018
 Y106.08434 Z30.76058
 Y106.83133 Z30.76060
 Y112.80723
 Y113.55422 Z30.73731
 Y114.67470 Z30.67985
 Y114.86145 Z30.67026
 Y115.04819 Z30.66068
 Y115.79518 Z30.46849
 Y118.78313 Z29.51602
 Y119.15663 Z29.39691
 Y119.90361 Z29.15879
 Y120.27711 Z28.82943
 Y123.63855 Z25.61715
 Y123.82530 Z25.43871
 Y124.38554 Z24.90333
 Y124.75904 Z24.18458
 Y125.50602 Z22.48768
 Y126.25301 Z20.79068
 Y127.00000 Z18.27561
 X105.11654
 Y126.81325 Z19.13154
 Y126.64985 Z19.88077
 Y126.62651 Z19.94219
 Y124.94578 Z23.76042
 Y124.85241 Z23.97245
 Y124.48475 Z24.80769
 Y124.47892 Z24.81410
 Y124.01205 Z25.26025
 Y123.26506 Z25.97407
 Y119.95030 Z29.14174
 Y119.90361 Z29.15879
 Y119.53012 Z29.27785
 Y118.78313 Z29.51602
 Y115.23494 Z30.64708
 Y115.04819 Z30.66068
 Y114.30120 Z30.69900
 Y113.55422 Z30.73731
 Y112.80723 Z30.76060
 Y106.83133
 Y106.08434 Z30.76058
 Y105.33735 Z30.76018
 Y104.59036 Z30.73336
 Y103.84337 Z30.68514
 Y102.72289 Z30.61284
 Y102.34940 Z30.53250
 Y101.60241 Z30.35560
 Y100.85542 Z30.17868
 Y100.10843 Z29.99742
 Y99.36145 Z29.77316
 Y98.61446 Z29.55061
 Y97.86747 Z29.32949
 Y97.12048 Z29.10984
 Y96.37349 Z28.89194
 Y95.62651 Z28.67586
 Y94.87952 Z28.46125
 Y94.13253 Z28.24816
 Y93.38554 Z28.03658
 Y92.63855 Z27.82698
 Y91.89157 Z27.62070
 Y88.90361 Z26.80269
 Y88.15663 Z26.60378
 Y87.40964 Z26.40712
 Y85.16867 Z25.81713
 Y84.42169 Z25.62651
 Y81.43373 Z24.87098
 Y80.68675 Z24.68858
 Y79.93976 Z24.50741
 Y77.69880 Z23.96394
 Y76.95181 Z23.78968
 Y73.96386 Z23.09572
 Y73.21687 Z22.92957
 Y70.97590 Z22.43196
 Y70.22892 Z22.26629
 Y69.48193 Z22.10800
 Y67.24096 Z21.63309
 Y66.49398 Z21.47549
 Y63.50602 Z20.87237
 Y62.75904 Z20.72273
 Y62.01205 Z20.57941
 Y59.77108 Z20.14950
 Y59.02410 Z20.00779
 Y58.27711 Z19.87195
 Y56.03614 Z19.46436
 Y55.28916 Z19.33054
 Y54.54217 Z19.20205
 Y52.30120 Z18.81665
 Y51.55422 Z18.69069
 Y48.56627 Z18.20627
 Y47.81928 Z18.08814
 Y47.07229 Z17.97438
 Y44.83133 Z17.63304
 Y44.08434 Z17.52264
 Y43.33735 Z17.41618
 Y41.09639 Z17.09673
 Y40.34940 Z16.99409
 Y39.60241 Z16.89488
 Y37.36145 Z16.59724
 Y36.61446 Z16.50230
 Y33.62651 Z16.13438
 Y32.87952 Z16.04714
 Y29.89157 Z15.70807
 Y29.14458 Z15.62849
 Y26.15663 Z15.31819
 Y25.40964 Z15.24622
 Y22.42169 Z14.96458
 Y21.67470 Z14.90021
 Y18.68675 Z14.64718
 Y17.93976 Z14.58832
 Y17.19277 Z14.53028
 Y16.44578 Z14.47434
 Y15.69880 Z14.41950
 Y14.95181 Z14.36608
 Y14.20482 Z14.31440
 Y13.45783 Z14.26350
 Y12.71084 Z14.21498
 Y11.96386 Z14.16710
 Y11.21687 Z14.12120
 Y10.46988 Z14.07648
 Y9.72289 Z14.03309
 Y8.97590 Z13.99101
 Y8.22892 Z13.89722
 Y6.73494 Z13.69204
 Y5.98795 Z13.43207
 Y3.00000 Z12.10418
 X105.71429
 Y6.49859 Z13.65901
 Y6.50151 Z13.65998
 Y8.22892 Z13.89722
 Y8.97590 Z13.99101
 Y9.72289 Z14.03309
 Y10.46988 Z14.07648
 Y11.21687 Z14.12120
 Y11.96386 Z14.16710
 Y12.71084 Z14.21498
 Y13.45783 Z14.26350
 Y14.20482 Z14.31440
 Y14.95181 Z14.36608
 Y15.69880 Z14.41950
 Y16.44578 Z14.47434
 Y17.19277 Z14.53028
 Y17.93976 Z14.58832
 Y18.68675 Z14.64718
 Y21.67470 Z14.90021
 Y22.42169 Z14.96458
 Y25.40964 Z15.24622
 Y26.15663 Z15.31819
 Y29.14458 Z15.62849
 Y29.89157 Z15.70807
 Y32.87952 Z16.04714
 Y33.62651 Z16.13438
 Y36.61446 Z16.50230
 Y37.36145 Z16.59724
 Y39.60241 Z16.89488
 Y40.34940 Z16.99409
 Y41.09639 Z17.09673
 Y43.33735 Z17.41618
 Y44.08434 Z17.52264
 Y44.83133 Z17.63304
 Y47.07229 Z17.97438
 Y47.81928 Z18.08814
 Y48.56627 Z18.20627
 Y51.55422 Z18.69069
 Y52.30120 Z18.81665
 Y54.54217 Z19.20205
 Y55.28916 Z19.33054
 Y56.03614 Z19.46436
 Y58.27711 Z19.87195
 Y59.02410 Z20.00779
 Y59.77108 Z20.14950
 Y62.01205 Z20.57941
 Y62.75904 Z20.72273
 Y63.50602 Z20.87237
 Y66.49398 Z21.47549
 Y67.24096 Z21.63309
 Y69.48193 Z22.10800
 Y70.22892 Z22.26629
 Y70.97590 Z22.43196
 Y73.21687 Z22.92957
 Y73.96386 Z23.09572
 Y76.20482 Z23.61619
 Y76.95181 Z23.78967
 Y77.69880 Z23.96394
 Y79.93976 Z24.50741
 Y80.68675 Z24.68858
 Y81.43373 Z24.87098
 Y84.42169 Z25.62651
 Y85.16867 Z25.81713
 Y87.40964 Z26.40712
 Y88.15663 Z26.60378
 Y88.90361 Z26.80269
 Y91.89157 Z27.62070
 Y92.63855 Z27.82698
 Y93.38554 Z28.03658
 Y94.13253 Z28.24816
 Y94.87952 Z28.46125
 Y95.62651 Z28.67586
 Y96.37349 Z28.89194
 Y97.12048 Z29.10984
 Y97.86747 Z29.32949
 Y98.61446 Z29.55061
 Y99.36145 Z29.77316
 Y100.10843 Z29.99742
 Y100.85542 Z30.17868
 Y101.97590 Z30.44406
 Y102.34940 Z30.53250
 Y103.09639 Z30.63694
 Y103.84337 Z30.68514
 Y104.59036 Z30.73336
 Y105.33735 Z30.76018
 Y106.08434 Z30.76058
 Y106.83133 Z30.76060
 Y112.80723
 Y113.55422 Z30.73731
 Y114.67470 Z30.67985
 Y114.86145 Z30.67026
 Y115.04819 Z30.66068
 Y115.79518 Z30.46849
 Y118.78313 Z29.51602
 Y119.15663 Z29.39691
 Y119.90361 Z29.15879
 Y120.27711 Z28.82943
 Y123.26506 Z25.97407
 Y123.63855 Z25.61717
 Y124.38554 Z24.90333
 Y124.75904 Z24.18458
 Y125.50602 Z22.48768
 Y126.25301 Z20.79068
 Y127.00000 Z18.27561
 X106.31203
 Y126.81325 Z19.13154
 Y126.64985 Z19.88077
 Y126.62651 Z19.94219
 Y124.94578 Z23.76042
 Y124.85241 Z23.97245
 Y124.48475 Z24.80769
 Y124.47892 Z24.81410
 Y124.01205 Z25.26025
 Y123.26506 Z25.97407
 Y119.95030 Z29.14174
 Y119.90361 Z29.15879
 Y119.53012 Z29.27785
 Y118.78313 Z29.51602
 Y115.23494 Z30.64708
 Y115.04819 Z30.66068
 Y114.30120 Z30.69900
 Y113.55422 Z30.73731
 Y112.80723 Z30.76060
 Y106.83133
 Y106.08434 Z30.76058
 Y105.33735 Z30.76018
 Y104.59036 Z30.73336
 Y103.84337 Z30.68514
 Y102.72289 Z30.61284
 Y102.34940 Z30.53250
 Y101.60241 Z30.35560
 Y100.85542 Z30.17868
 Y100.10843 Z29.99742
 Y99.36145 Z29.77316
 Y98.61446 Z29.55061
 Y97.86747 Z29.32949
 Y97.12048 Z29.10984
 Y96.37349 Z28.89194
 Y95.62651 Z28.67586
 Y94.87952 Z28.46125
 Y94.13253 Z28.24816
 Y93.38554 Z28.03658
 Y92.63855 Z27.82698
 Y91.89157 Z27.62070
 Y88.90361 Z26.80269
 Y88.15663 Z26.60378
 Y87.40964 Z26.40712
 Y85.16867 Z25.81713
 Y84.42169 Z25.62651
 Y81.43373 Z24.87098
 Y80.68675 Z24.68858
 Y79.93976 Z24.50741
 Y77.69880 Z23.96394
 Y76.95181 Z23.78967
 Y76.20482 Z23.61619
 Y73.96386 Z23.09572
 Y73.21687 Z22.92957
 Y70.97590 Z22.43196
 Y70.22892 Z22.26629
 Y69.48193 Z22.10800
 Y67.24096 Z21.63309
 Y66.49398 Z21.47549
 Y63.50602 Z20.87237
 Y62.75904 Z20.72273
 Y62.01205 Z20.57941
 Y59.77108 Z20.14950
 Y59.02410 Z20.00779
 Y58.27711 Z19.87195
 Y56.03614 Z19.46436
 Y55.28916 Z19.33054
 Y54.54217 Z19.20205
 Y52.30120 Z18.81665
 Y51.55422 Z18.69069
 Y48.56627 Z18.20627
 Y47.81928 Z18.08814
 Y47.07229 Z17.97438
 Y44.83133 Z17.63304
 Y44.08434 Z17.52264
 Y43.33735 Z17.41618
 Y41.09639 Z17.09673
 Y40.34940 Z16.99409
 Y39.60241 Z16.89488
 Y37.36145 Z16.59724
 Y36.61446 Z16.50230
 Y33.62651 Z16.13438
 Y32.87952 Z16.04714
 Y29.89157 Z15.70807
 Y29.14458 Z15.62849
 Y26.15663 Z15.31819
 Y25.40964 Z15.24622
 Y22.42169 Z14.96458
 Y21.67470 Z14.90021
 Y18.68675 Z14.64718
 Y17.93976 Z14.58832
 Y17.19277 Z14.53028
 Y16.44578 Z14.47434
 Y15.69880 Z14.41950
 Y14.95181 Z14.36608
 Y14.20482 Z14.31440
 Y13.45783 Z14.26350
 Y12.71084 Z14.21498
 Y11.96386 Z14.16710
 Y11.21687 Z14.12120
 Y10.46988 Z14.07648
 Y9.72289 Z14.03309
 Y8.97590 Z13.99101
 Y8.22892 Z13.89722
 Y6.73494 Z13.69204
 Y5.98795 Z13.43207
 Y3.00000 Z12.10418
 X106.90977
 Y6.49859 Z13.65901
 Y6.50151 Z13.65998
 Y8.22892 Z13.89722
 Y8.97590 Z13.99101
 Y9.72289 Z14.03309
 Y10.46988 Z14.07648
 Y11.21687 Z14.12120
 Y11.96386 Z14.16710
 Y12.71084 Z14.21498
 Y13.45783 Z14.26350
 Y14.20482 Z14.31440
 Y14.95181 Z14.36608
 Y15.69880 Z14.41950
 Y16.44578 Z14.47434
 Y17.19277 Z14.53028
 Y17.93976 Z14.58832
 Y18.68675 Z14.64718
 Y21.67470 Z14.90021
 Y22.42169 Z14.96458
 Y25.40964 Z15.24622
 Y26.15663 Z15.31819
 Y29.14458 Z15.62849
 Y29.89157 Z15.70807
 Y32.87952 Z16.04714
 Y33.62651 Z16.13438
 Y36.61446 Z16.50230
 Y37.36145 Z16.59724
 Y39.60241 Z16.89488
 Y40.34940 Z16.99409
 Y41.09639 Z17.09673
 Y43.33735 Z17.41618
 Y44.08434 Z17.52264
 Y44.83133 Z17.63304
 Y47.07229 Z17.97438
 Y47.81928 Z18.08814
 Y48.56627 Z18.20627
 Y51.55422 Z18.69069
 Y52.30120 Z18.81665
 Y54.54217 Z19.20205
 Y55.28916 Z19.33054
 Y56.03614 Z19.46436
 Y58.27711 Z19.87195
 Y59.02410 Z20.00779
 Y59.77108 Z20.14950
 Y62.01205 Z20.57941
 Y62.75904 Z20.72273
 Y63.50602 Z20.87237
 Y66.49398 Z21.47549
 Y67.24096 Z21.63309
 Y69.48193 Z22.10800
 Y70.22892 Z22.26629
 Y70.97590 Z22.43196
 Y73.21687 Z22.92957
 Y73.96386 Z23.09572
 Y76.20482 Z23.61619
 Y76.95181 Z23.78967
 Y77.69880 Z23.96394
 Y79.93976 Z24.50741
 Y80.68675 Z24.68858
 Y81.43373 Z24.87098
 Y84.42169 Z25.62651
 Y85.16867 Z25.81713
 Y87.40964 Z26.40712
 Y88.15663 Z26.60378
 Y88.90361 Z26.80269
 Y91.89157 Z27.62070
 Y92.63855 Z27.82698
 Y93.38554 Z28.03658
 Y94.13253 Z28.24816
 Y94.87952 Z28.46125
 Y95.62651 Z28.67586
 Y96.37349 Z28.89194
 Y97.12048 Z29.10984
 Y97.86747 Z29.32949
 Y98.61446 Z29.55061
 Y99.36145 Z29.77316
 Y100.10843 Z29.99742
 Y100.85542 Z30.17868
 Y101.97590 Z30.44406
 Y102.34940 Z30.53250
 Y103.09639 Z30.63694
 Y103.84337 Z30.68514
 Y104.59036 Z30.73336
 Y105.33735 Z30.76018
 Y106.08434 Z30.76058
 Y106.83133 Z30.76060
 Y112.80723
 Y113.55422 Z30.73731
 Y114.67470 Z30.67985
 Y114.86145 Z30.67026
 Y115.04819 Z30.66068
 Y115.79518 Z30.46849
 Y118.78313 Z29.51602
 Y119.15663 Z29.39691
 Y119.90361 Z29.15879
 Y120.27711 Z28.82943
 Y123.26506 Z25.97407
 Y123.63855 Z25.61717
 Y124.38554 Z24.90333
 Y124.75904 Z24.18458
 Y125.50602 Z22.48768
 Y126.25301 Z20.79068
 Y127.00000 Z18.27561
 X107.50752
 Y126.81325 Z19.13154
 Y126.64985 Z19.88077
 Y126.62651 Z19.94219
 Y124.94578 Z23.76042
 Y124.85241 Z23.97245
 Y124.48475 Z24.80769
 Y124.47892 Z24.81410
 Y124.01205 Z25.26025
 Y123.26506 Z25.97407
 Y119.95030 Z29.14174
 Y119.90361 Z29.15879
 Y119.53012 Z29.27785
 Y118.78313 Z29.51602
 Y115.23494 Z30.64708
 Y115.04819 Z30.66068
 Y114.30120 Z30.69900
 Y113.55422 Z30.73731
 Y112.80723 Z30.76060
 Y106.83133
 Y106.08434 Z30.76058
 Y105.33735 Z30.76018
 Y104.59036 Z30.73336
 Y103.84337 Z30.68514
 Y102.72289 Z30.61284
 Y102.34940 Z30.53250
 Y101.60241 Z30.35560
 Y100.85542 Z30.17868
 Y100.10843 Z29.99742
 Y99.36145 Z29.77316
 Y98.61446 Z29.55061
 Y97.86747 Z29.32949
 Y97.12048 Z29.10984
 Y96.37349 Z28.89194
 Y95.62651 Z28.67586
 Y94.87952 Z28.46125
 Y94.13253 Z28.24816
 Y93.38554 Z28.03658
 Y92.63855 Z27.82698
 Y91.89157 Z27.62070
 Y88.90361 Z26.80269
 Y88.15663 Z26.60378
 Y87.40964 Z26.40712
 Y85.16867 Z25.81713
 Y84.42169 Z25.62651
 Y81.43373 Z24.87098
 Y80.68675 Z24.68858
 Y79.93976 Z24.50741
 Y77.69880 Z23.96394
 Y76.95181 Z23.78967
 Y76.20482 Z23.61619
 Y73.96386 Z23.09572
 Y73.21687 Z22.92957
 Y70.97590 Z22.43196
 Y70.22892 Z22.26629
 Y69.48193 Z22.10800
 Y67.24096 Z21.63309
 Y66.49398 Z21.47549
 Y63.50602 Z20.87237
 Y62.75904 Z20.72273
 Y62.01205 Z20.57941
 Y59.77108 Z20.14950
 Y59.02410 Z20.00779
 Y58.27711 Z19.87195
 Y56.03614 Z19.46436
 Y55.28916 Z19.33054
 Y54.54217 Z19.20205
 Y52.30120 Z18.81665
 Y51.55422 Z18.69069
 Y48.56627 Z18.20627
 Y47.81928 Z18.08814
 Y47.07229 Z17.97438
 Y44.83133 Z17.63304
 Y44.08434 Z17.52264
 Y43.33735 Z17.41618
 Y41.09639 Z17.09673
 Y40.34940 Z16.99409
 Y39.60241 Z16.89488
 Y37.36145 Z16.59724
 Y36.61446 Z16.50230
 Y33.62651 Z16.13438
 Y32.87952 Z16.04714
 Y29.89157 Z15.70807
 Y29.14458 Z15.62849
 Y26.15663 Z15.31819
 Y25.40964 Z15.24622
 Y22.42169 Z14.96458
 Y21.67470 Z14.90021
 Y18.68675 Z14.64718
 Y17.93976 Z14.58832
 Y17.19277 Z14.53028
 Y16.44578 Z14.47434
 Y15.69880 Z14.41950
 Y14.95181 Z14.36608
 Y14.20482 Z14.31440
 Y13.45783 Z14.26350
 Y12.71084 Z14.21498
 Y11.96386 Z14.16710
 Y11.21687 Z14.12120
 Y10.46988 Z14.07648
 Y9.72289 Z14.03309
 Y8.97590 Z13.99101
 Y8.22892 Z13.89722
 Y6.73494 Z13.69204
 Y5.98795 Z13.43207
 Y3.00000 Z12.10418
 X108.10526
 Y6.49859 Z13.65901
 Y6.50151 Z13.65998
 Y8.22892 Z13.89722
 Y8.97590 Z13.99101
 Y9.72289 Z14.03309
 Y10.46988 Z14.07648
 Y11.21687 Z14.12120
 Y11.96386 Z14.16710
 Y12.71084 Z14.21498
 Y13.45783 Z14.26350
 Y14.20482 Z14.31440
 Y14.95181 Z14.36608
 Y15.69880 Z14.41950
 Y16.44578 Z14.47434
 Y17.19277 Z14.53028
 Y17.93976 Z14.58832
 Y18.68675 Z14.64718
 Y21.67470 Z14.90021
 Y22.42169 Z14.96458
 Y25.40964 Z15.24622
 Y26.15663 Z15.31819
 Y29.14458 Z15.62849
 Y29.89157 Z15.70807
 Y32.87952 Z16.04714
 Y33.62651 Z16.13438
 Y36.61446 Z16.50230
 Y37.36145 Z16.59724
 Y39.60241 Z16.89488
 Y40.34940 Z16.99409
 Y41.09639 Z17.09673
 Y43.33735 Z17.41618
 Y44.08434 Z17.52264
 Y44.83133 Z17.63304
 Y47.07229 Z17.97438
 Y47.81928 Z18.08814
 Y48.56627 Z18.20627
 Y51.55422 Z18.69069
 Y52.30120 Z18.81665
 Y54.54217 Z19.20205
 Y55.28916 Z19.33054
 Y56.03614 Z19.46436
 Y58.27711 Z19.87195
 Y59.02410 Z20.00779
 Y59.77108 Z20.14950
 Y62.01205 Z20.57941
 Y62.75904 Z20.72273
 Y63.50602 Z20.87237
 Y66.49398 Z21.47549
 Y67.24096 Z21.63309
 Y69.48193 Z22.10800
 Y70.22892 Z22.26629
 Y70.97590 Z22.43196
 Y73.21687 Z22.92957
 Y73.96386 Z23.09572
 Y76.20482 Z23.61619
 Y76.95181 Z23.78967
 Y77.69880 Z23.96394
 Y79.93976 Z24.50741
 Y80.68675 Z24.68858
 Y81.43373 Z24.87098
 Y84.42169 Z25.62651
 Y85.16867 Z25.81713
 Y87.40964 Z26.40712
 Y88.15663 Z26.60378
 Y88.90361 Z26.80269
 Y91.89157 Z27.62070
 Y92.63855 Z27.82698
 Y93.38554 Z28.03658
 Y94.13253 Z28.24814
 Y94.87952 Z28.46125
 Y95.62651 Z28.67586
 Y96.37349 Z28.89194
 Y97.12048 Z29.10984
 Y97.86747 Z29.32949
 Y98.61446 Z29.55061
 Y99.36145 Z29.77316
 Y100.10843 Z29.99742
 Y100.85542 Z30.17868
 Y101.97590 Z30.44406
 Y102.34940 Z30.53250
 Y103.09639 Z30.63694
 Y103.84337 Z30.68514
 Y104.59036 Z30.73336
 Y105.33735 Z30.76018
 Y106.08434 Z30.76058
 Y106.83133 Z30.76060
 Y112.80723
 Y113.55422 Z30.73731
 Y114.67470 Z30.67985
 Y114.86145 Z30.67026
 Y115.04819 Z30.66068
 Y115.79518 Z30.46849
 Y118.78313 Z29.51602
 Y119.15663 Z29.39691
 Y119.90361 Z29.15879
 Y120.27711 Z28.82943
 Y123.26506 Z25.97407
 Y123.63855 Z25.61717
 Y124.38554 Z24.90333
 Y124.75904 Z24.18458
 Y125.50602 Z22.48768
 Y126.25301 Z20.79068
 Y127.00000 Z18.27561
 X108.70301
 Y126.81325 Z19.13154
 Y126.64985 Z19.88077
 Y126.62651 Z19.94219
 Y124.94578 Z23.76042
 Y124.85241 Z23.97245
 Y124.48475 Z24.80769
 Y124.47892 Z24.81410
 Y124.01205 Z25.26025
 Y123.26506 Z25.97407
 Y119.95030 Z29.14174
 Y119.90361 Z29.15879
 Y119.53012 Z29.27785
 Y118.78313 Z29.51602
 Y115.23494 Z30.64708
 Y115.04819 Z30.66068
 Y114.30120 Z30.69900
 Y113.55422 Z30.73731
 Y112.80723 Z30.76060
 Y106.83133
 Y106.08434 Z30.76058
 Y105.33735 Z30.76018
 Y104.59036 Z30.73336
 Y103.84337 Z30.68514
 Y102.72289 Z30.61284
 Y102.34940 Z30.53250
 Y101.60241 Z30.35560
 Y100.85542 Z30.17868
 Y100.10843 Z29.99742
 Y99.36145 Z29.77316
 Y98.61446 Z29.55061
 Y97.86747 Z29.32949
 Y97.12048 Z29.10984
 Y96.37349 Z28.89194
 Y95.62651 Z28.67586
 Y94.87952 Z28.46125
 Y94.13253 Z28.24814
 Y93.38554 Z28.03658
 Y92.63855 Z27.82698
 Y91.89157 Z27.62070
 Y88.90361 Z26.80269
 Y88.15663 Z26.60378
 Y87.40964 Z26.40712
 Y85.16867 Z25.81713
 Y84.42169 Z25.62651
 Y81.43373 Z24.87098
 Y80.68675 Z24.68858
 Y79.93976 Z24.50741
 Y77.69880 Z23.96394
 Y76.95181 Z23.78967
 Y76.20482 Z23.61619
 Y73.96386 Z23.09572
 Y73.21687 Z22.92957
 Y70.97590 Z22.43196
 Y70.22892 Z22.26629
 Y69.48193 Z22.10800
 Y67.24096 Z21.63309
 Y66.49398 Z21.47549
 Y63.50602 Z20.87237
 Y62.75904 Z20.72273
 Y62.01205 Z20.57941
 Y59.77108 Z20.14950
 Y59.02410 Z20.00779
 Y58.27711 Z19.87195
 Y56.03614 Z19.46436
 Y55.28916 Z19.33054
 Y54.54217 Z19.20205
 Y52.30120 Z18.81665
 Y51.55422 Z18.69069
 Y48.56627 Z18.20627
 Y47.81928 Z18.08814
 Y47.07229 Z17.97438
 Y44.83133 Z17.63304
 Y44.08434 Z17.52264
 Y43.33735 Z17.41618
 Y41.09639 Z17.09673
 Y40.34940 Z16.99409
 Y39.60241 Z16.89488
 Y37.36145 Z16.59724
 Y36.61446 Z16.50230
 Y33.62651 Z16.13438
 Y32.87952 Z16.04714
 Y29.89157 Z15.70807
 Y29.14458 Z15.62849
 Y26.15663 Z15.31819
 Y25.40964 Z15.24622
 Y22.42169 Z14.96458
 Y21.67470 Z14.90021
 Y18.68675 Z14.64718
 Y17.93976 Z14.58832
 Y17.19277 Z14.53028
 Y16.44578 Z14.47434
 Y15.69880 Z14.41950
 Y14.95181 Z14.36608
 Y14.20482 Z14.31440
 Y13.45783 Z14.26350
 Y12.71084 Z14.21498
 Y11.96386 Z14.16710
 Y11.21687 Z14.12120
 Y10.46988 Z14.07648
 Y9.72289 Z14.03309
 Y8.97590 Z13.99101
 Y8.22892 Z13.89722
 Y6.73494 Z13.69204
 Y5.98795 Z13.43207
 Y3.00000 Z12.10418
 X109.30075
 Y6.49859 Z13.65901
 Y6.50151 Z13.65998
 Y8.22892 Z13.89722
 Y8.97590 Z13.99101
 Y9.72289 Z14.03309
 Y10.46988 Z14.07648
 Y11.21687 Z14.12120
 Y11.96386 Z14.16710
 Y12.71084 Z14.21498
 Y13.45783 Z14.26350
 Y14.20482 Z14.31440
 Y14.95181 Z14.36608
 Y15.69880 Z14.41950
 Y16.44578 Z14.47434
 Y17.19277 Z14.53028
 Y17.93976 Z14.58832
 Y18.68675 Z14.64718
 Y21.67470 Z14.90021
 Y22.42169 Z14.96458
 Y25.40964 Z15.24622
 Y26.15663 Z15.31819
 Y29.14458 Z15.62849
 Y29.89157 Z15.70807
 Y32.87952 Z16.04714
 Y33.62651 Z16.13438
 Y36.61446 Z16.50230
 Y37.36145 Z16.59724
 Y39.60241 Z16.89488
 Y40.34940 Z16.99409
 Y41.09639 Z17.09673
 Y43.33735 Z17.41618
 Y44.08434 Z17.52264
 Y44.83133 Z17.63304
 Y47.07229 Z17.97438
 Y47.81928 Z18.08814
 Y48.56627 Z18.20627
 Y51.55422 Z18.69069
 Y52.30120 Z18.81665
 Y54.54217 Z19.20205
 Y55.28916 Z19.33054
 Y56.03614 Z19.46436
 Y58.27711 Z19.87195
 Y59.02410 Z20.00779
 Y59.77108 Z20.14950
 Y62.01205 Z20.57941
 Y62.75904 Z20.72273
 Y63.50602 Z20.87237
 Y66.49398 Z21.47549
 Y67.24096 Z21.63309
 Y68.73494 Z21.94970
 Y69.48193 Z22.10799
 Y70.22892 Z22.26629
 Y70.97590 Z22.43196
 Y73.21687 Z22.92957
 Y73.96386 Z23.09572
 Y76.20482 Z23.61619
 Y76.95181 Z23.78967
 Y77.69880 Z23.96394
 Y79.93976 Z24.50741
 Y80.68675 Z24.68858
 Y81.43373 Z24.87098
 Y84.42169 Z25.62651
 Y85.16867 Z25.81713
 Y87.40964 Z26.40712
 Y88.15663 Z26.60378
 Y88.90361 Z26.80269
 Y91.89157 Z27.62070
 Y92.63855 Z27.82698
 Y93.38554 Z28.03658
 Y94.13253 Z28.24814
 Y94.87952 Z28.46125
 Y95.62651 Z28.67586
 Y96.37349 Z28.89194
 Y97.12048 Z29.10984
 Y97.86747 Z29.32949
 Y98.61446 Z29.55061
 Y99.36145 Z29.77316
 Y100.10843 Z29.99742
 Y100.85542 Z30.17868
 Y101.97590 Z30.44406
 Y102.34940 Z30.53250
 Y103.09639 Z30.63694
 Y103.84337 Z30.68514
 Y104.59036 Z30.73336
 Y105.33735 Z30.76018
 Y106.08434 Z30.76058
 Y106.83133 Z30.76060
 Y112.80723
 Y113.55422 Z30.73731
 Y114.67470 Z30.67985
 Y114.86145 Z30.67026
 Y115.04819 Z30.66068
 Y115.79518 Z30.46849
 Y118.78313 Z29.51602
 Y119.15663 Z29.39691
 Y119.90361 Z29.15879
 Y120.27711 Z28.82943
 Y123.26506 Z25.97407
 Y123.63855 Z25.61717
 Y124.38554 Z24.90333
 Y124.75904 Z24.18458
 Y125.50602 Z22.48768
 Y126.25301 Z20.79068
 Y127.00000 Z18.27561
 X109.89850
 Y126.81325 Z19.13154
 Y126.64985 Z19.88077
 Y126.62651 Z19.94219
 Y125.13253 Z23.33617
 Y124.94578 Z23.76033
 Y124.48475 Z24.80769
 Y124.47892 Z24.81410
 Y124.01205 Z25.26025
 Y123.26506 Z25.97407
 Y119.95030 Z29.14174
 Y119.90361 Z29.15879
 Y119.53012 Z29.27785
 Y118.78313 Z29.51602
 Y115.23494 Z30.64708
 Y115.04819 Z30.66068
 Y114.30120 Z30.69900
 Y113.55422 Z30.73731
 Y112.80723 Z30.76060
 Y106.83133
 Y106.08434 Z30.76058
 Y105.33735 Z30.76018
 Y104.59036 Z30.73336
 Y103.84337 Z30.68514
 Y102.72289 Z30.61284
 Y102.34940 Z30.53250
 Y101.60241 Z30.35560
 Y100.85542 Z30.17868
 Y100.10843 Z29.99742
 Y99.36145 Z29.77316
 Y98.61446 Z29.55061
 Y97.86747 Z29.32949
 Y97.12048 Z29.10984
 Y96.37349 Z28.89194
 Y95.62651 Z28.67586
 Y94.87952 Z28.46125
 Y94.13253 Z28.24814
 Y93.38554 Z28.03658
 Y92.63855 Z27.82698
 Y91.89157 Z27.62070
 Y88.90361 Z26.80269
 Y88.15663 Z26.60378
 Y87.40964 Z26.40712
 Y85.16867 Z25.81713
 Y84.42169 Z25.62651
 Y81.43373 Z24.87098
 Y80.68675 Z24.68858
 Y79.93976 Z24.50741
 Y77.69880 Z23.96394
 Y76.95181 Z23.78967
 Y76.20482 Z23.61619
 Y73.96386 Z23.09572
 Y73.21687 Z22.92957
 Y70.97590 Z22.43196
 Y70.22892 Z22.26629
 Y69.48193 Z22.10799
 Y68.73494 Z21.94970
 Y67.24096 Z21.63309
 Y66.49398 Z21.47549
 Y63.50602 Z20.87237
 Y62.75904 Z20.72273
 Y62.01205 Z20.57941
 Y59.77108 Z20.14950
 Y59.02410 Z20.00779
 Y58.27711 Z19.87195
 Y56.03614 Z19.46436
 Y55.28916 Z19.33054
 Y54.54217 Z19.20205
 Y52.30120 Z18.81665
 Y51.55422 Z18.69069
 Y48.56627 Z18.20627
 Y47.81928 Z18.08814
 Y47.07229 Z17.97438
 Y44.83133 Z17.63304
 Y44.08434 Z17.52264
 Y43.33735 Z17.41618
 Y41.09639 Z17.09673
 Y40.34940 Z16.99409
 Y39.60241 Z16.89488
 Y37.36145 Z16.59724
 Y36.61446 Z16.50230
 Y33.62651 Z16.13438
 Y32.87952 Z16.04714
 Y29.89157 Z15.70807
 Y29.14458 Z15.62849
 Y26.15663 Z15.31819
 Y25.40964 Z15.24622
 Y22.42169 Z14.96458
 Y21.67470 Z14.90021
 Y18.68675 Z14.64718
 Y17.93976 Z14.58832
 Y17.19277 Z14.53028
 Y16.44578 Z14.47434
 Y15.69880 Z14.41950
 Y14.95181 Z14.36608
 Y14.20482 Z14.31440
 Y13.45783 Z14.26350
 Y12.71084 Z14.21498
 Y11.96386 Z14.16710
 Y11.21687 Z14.12120
 Y10.46988 Z14.07648
 Y9.72289 Z14.03309
 Y8.97590 Z13.99101
 Y8.22892 Z13.89722
 Y6.73494 Z13.69204
 Y5.98795 Z13.43207
 Y3.00000 Z12.10418
 X110.49624
 Y6.49859 Z13.65901
 Y6.50151 Z13.65998
 Y8.22892 Z13.89722
 Y8.97590 Z13.99101
 Y9.72289 Z14.03309
 Y10.46988 Z14.07648
 Y11.21687 Z14.12120
 Y11.96386 Z14.16710
 Y12.71084 Z14.21498
 Y13.45783 Z14.26350
 Y14.20482 Z14.31440
 Y14.95181 Z14.36608
 Y15.69880 Z14.41950
 Y16.44578 Z14.47434
 Y17.19277 Z14.53028
 Y17.93976 Z14.58832
 Y18.68675 Z14.64718
 Y21.67470 Z14.90021
 Y22.42169 Z14.96458
 Y25.40964 Z15.24622
 Y26.15663 Z15.31819
 Y29.14458 Z15.62849
 Y29.89157 Z15.70807
 Y32.87952 Z16.04714
 Y33.62651 Z16.13438
 Y36.61446 Z16.50230
 Y37.36145 Z16.59724
 Y39.60241 Z16.89488
 Y40.34940 Z16.99409
 Y41.09639 Z17.09673
 Y43.33735 Z17.41618
 Y44.08434 Z17.52264
 Y44.83133 Z17.63304
 Y47.07229 Z17.97438
 Y47.81928 Z18.08814
 Y48.56627 Z18.20627
 Y51.55422 Z18.69069
 Y52.30120 Z18.81665
 Y54.54217 Z19.20205
 Y55.28916 Z19.33054
 Y56.03614 Z19.46436
 Y58.27711 Z19.87195
 Y59.02410 Z20.00779
 Y59.77108 Z20.14950
 Y62.01205 Z20.57941
 Y62.75904 Z20.72273
 Y63.50602 Z20.87237
 Y66.49398 Z21.47549
 Y67.24096 Z21.63309
 Y68.73494 Z21.94970
 Y69.48193 Z22.10799
 Y70.22892 Z22.26629
 Y70.97590 Z22.43196
 Y73.21687 Z22.92957
 Y73.96386 Z23.09572
 Y76.20482 Z23.61619
 Y76.95181 Z23.78967
 Y77.69880 Z23.96394
 Y79.93976 Z24.50741
 Y80.68675 Z24.68858
 Y81.43373 Z24.87098
 Y84.42169 Z25.62651
 Y85.16867 Z25.81713
 Y87.40964 Z26.40712
 Y88.15663 Z26.60378
 Y88.90361 Z26.80269
 Y91.89157 Z27.62070
 Y92.63855 Z27.82698
 Y93.38554 Z28.03658
 Y94.13253 Z28.24814
 Y94.87952 Z28.46125
 Y95.62651 Z28.67586
 Y96.37349 Z28.89194
 Y97.12048 Z29.10984
 Y97.86747 Z29.32949
 Y98.61446 Z29.55061
 Y99.36145 Z29.77316
 Y100.10843 Z29.99742
 Y100.85542 Z30.17868
 Y101.97590 Z30.44406
 Y102.34940 Z30.53250
 Y103.09639 Z30.63694
 Y103.84337 Z30.68514
 Y104.59036 Z30.73336
 Y105.33735 Z30.76018
 Y106.08434 Z30.76058
 Y106.83133 Z30.76060
 Y112.80723
 Y113.55422 Z30.73731
 Y114.67470 Z30.67985
 Y114.86145 Z30.67026
 Y115.04819 Z30.66068
 Y115.79518 Z30.46849
 Y118.78313 Z29.51602
 Y119.15663 Z29.39691
 Y119.90361 Z29.15879
 Y120.27711 Z28.82943
 Y123.26506 Z25.97407
 Y123.63855 Z25.61717
 Y124.38554 Z24.90333
 Y124.75904 Z24.18458
 Y125.50602 Z22.48768
 Y126.25301 Z20.79068
 Y127.00000 Z18.27561
 X111.09398
 Y126.81325 Z19.13154
 Y126.64985 Z19.88077
 Y126.62651 Z19.94219
 Y125.13253 Z23.33617
 Y124.94578 Z23.76033
 Y124.48475 Z24.80769
 Y124.47892 Z24.81410
 Y124.01205 Z25.26025
 Y123.26506 Z25.97407
 Y119.95030 Z29.14174
 Y119.90361 Z29.15879
 Y119.53012 Z29.27785
 Y118.78313 Z29.51602
 Y115.23494 Z30.64708
 Y115.04819 Z30.66068
 Y114.30120 Z30.69900
 Y113.55422 Z30.73731
 Y112.80723 Z30.76060
 Y106.83133
 Y106.08434 Z30.76058
 Y105.33735 Z30.76018
 Y104.59036 Z30.73336
 Y103.84337 Z30.68514
 Y102.72289 Z30.61284
 Y102.34940 Z30.53250
 Y101.60241 Z30.35560
 Y100.85542 Z30.17868
 Y100.10843 Z29.99742
 Y99.36145 Z29.77316
 Y98.61446 Z29.55061
 Y97.86747 Z29.32949
 Y97.12048 Z29.10984
 Y96.37349 Z28.89194
 Y95.62651 Z28.67586
 Y94.87952 Z28.46125
 Y94.13253 Z28.24814
 Y93.38554 Z28.03658
 Y92.63855 Z27.82698
 Y91.89157 Z27.62070
 Y88.90361 Z26.80269
 Y88.15663 Z26.60378
 Y87.40964 Z26.40712
 Y85.16867 Z25.81713
 Y84.42169 Z25.62651
 Y81.43373 Z24.87098
 Y80.68675 Z24.68858
