G40 (disable tool radius compensation)
G49 (disable tool length compensation)
G80 (cancel modal motion)
G54 (select coordinate system 1)
G90 (disable incremental moves)
G21 (metric)
F1000.00000
S250.00000
G61 (exact path mode)
;PYCAM_TOOLPATH_SETTINGS: START
;[Bounds]
;maxz = 34.0
;maxx = 287.15
;maxy = 95.75
;minx = -0.5
;miny = -0.5
;minz = -0.5
;
;[Tool]
;torus_radius = 0.125
;shape = CylindricalCutter
;tool_radius = 0.5
;
;[Process]
;engrave_offset = 0.0
;step_down = 3.0
;generator = DropCutter
;postprocessor = PathAccumulator
;overlap_percent = 0
;milling_style = ignore
;material_allowance = 0.0
;pocketing_type = none
;path_direction = x
;
;PYCAM_TOOLPATH_SETTINGS: END
G0 Z35.00000
 X-0.50000 Y-0.50000
G1 Z34.00000
 X28.54459
 X28.54850 Z26.00000
 X238.15141
 X238.15922 Z34.00000
 X287.02504
 X287.15000 Z-0.50000
 Y0.49227
 X287.05628
 X287.04066 Z34.00000
 X238.62781
 X238.62390 Z26.00000
 X28.07600
 X28.07210 Z34.00000
 X-0.50000
 Y1.48454
 X28.06819
 X28.07600 Z26.00000
 X238.62000
 X238.62781 Z34.00000
 X287.02504
 X287.15000 Z-0.50000
 Y2.47680
 X287.05628
 X287.04066 Z34.00000
 X238.62781
 X238.62390 Z26.00000
 X28.07600
 X28.07210 Z34.00000
 X-0.50000
 Y3.46907
 X28.06819
 X28.07600 Z26.00000
 X238.62000
 X238.62781 Z34.00000
 X287.02504
 X287.15000 Z-0.50000
 Y4.46134
 X287.05628
 X287.04066 Z34.00000
 X238.62781
 X238.62390 Z26.00000
 X28.07600
 X28.07210 Z34.00000
 X-0.50000
 Y5.45361
 X28.06819
 X28.07600 Z26.00000
 X238.62000
 X238.62781 Z34.00000
 X287.02504
 X287.15000 Z-0.50000
 Y6.44588
 X287.05628
 X287.04066 Z34.00000
 X238.62781
 X238.62390 Z26.00000
 X28.07600
 X28.07210 Z34.00000
 X-0.50000
 Y7.43814
 X28.06819
 X28.07600 Z26.00000
 X238.62000
 X238.62781 Z34.00000
 X287.02504
 X287.15000 Z-0.50000
 Y8.43041
 X287.05628
 X287.04066 Z34.00000
 X238.62781
 X238.62390 Z26.00000
 X28.07600
 X28.07210 Z34.00000
 X-0.50000
 Y9.42268
 X28.06819
 X28.07600 Z26.00000
 X238.62000
 X238.62781 Z34.00000
 X287.02504
 X287.15000 Z-0.50000
 Y10.41495
 X287.05628
 X287.04066 Z34.00000
 X238.62781
 X238.62390 Z26.00000
 X28.07600
 X28.07210 Z34.00000
 X-0.50000
 Y11.40722
 X28.06819
 X28.07600 Z26.00000
 X238.62000
 X238.62781 Z34.00000
 X287.02504
 X287.15000 Z-0.50000
 Y12.39948
 X287.05628
 X287.04066 Z34.00000
 X238.62781
 X238.62390 Z26.00000
 X28.07600
 X28.07210 Z34.00000
 X-0.50000
 Y13.39175
 X28.06819
 X28.07600 Z26.00000
 X238.62000
 X238.62781 Z34.00000
 X287.02504
 X287.15000 Z-0.50000
 Y14.38402
 X287.05628
 X287.04066 Z34.00000
 X238.62781
 X238.62390 Z26.00000
 X28.07600
 X28.07210 Z34.00000
 X-0.50000
 Y15.37629
 X28.06819
 X28.07600 Z26.00000
 X238.62000
 X238.62781 Z34.00000
 X287.02504
 X287.15000 Z-0.50000
 Y16.36856
 X287.05628
 X287.04066 Z34.00000
 X238.62781
 X238.62390 Z26.00000
 X28.07600
 X28.07210 Z34.00000
 X-0.50000
 Y17.36082
 X28.06819
 X28.07600 Z26.00000
 X238.62000
 X238.62781 Z34.00000
 X287.02504
 X287.15000 Z-0.50000
 Y18.35309
 X287.05628
 X287.04066 Z34.00000
 X238.62781
 X238.62390 Z26.00000
 X28.07600
 X28.07210 Z34.00000
 X-0.50000
G0 Z35.00000
 Y19.34536
G1 Z26.00000
 X286.44712
 X286.45493 Z34.00000
 X286.65017
 X286.65798 Z26.00000
 X287.02504
 X287.15000 Z-0.50000
 Y20.33763
 X287.05628
 X287.04066 Z26.00000
 X-0.50000
 Y21.32990
 X287.02504
 X287.15000 Z-0.50000
 Y22.32216
 X287.05628
 X287.04066 Z26.00000
 X-0.50000
 Y23.31443
 X287.02504
 X287.15000 Z-0.50000
 Y24.30670
 X287.05628
 X287.04066 Z26.00000
 X-0.50000
 Y25.29897
 X287.02504
 X287.15000 Z-0.50000
 Y26.29124
 X287.05628
 X287.04066 Z26.00000
 X-0.50000
 Y27.28351
 X287.02504
 X287.15000 Z-0.50000
 Y28.27577
 X287.05628
 X287.04066 Z26.00000
 X-0.50000
 Y29.26804
 X287.02504
 X287.15000 Z-0.50000
 Y30.26031
 X287.05628
 X287.04066 Z26.00000
 X-0.50000
 Y31.25258
 X287.02504
 X287.15000 Z-0.50000
 Y32.24485
 X287.05628
 X287.04066 Z26.00000
 X-0.50000
 Y33.23711
 X287.02504
 X287.15000 Z-0.50000
 Y34.22938
 X287.05628
 X287.04066 Z26.00000
 X-0.50000
 Y35.22165
 X287.02504
 X287.15000 Z-0.50000
 Y36.21392
 X287.05628
 X287.04066 Z26.00000
 X-0.50000
 Y37.20619
 X287.02504
 X287.15000 Z-0.50000
 Y38.19845
 X287.05628
 X287.04066 Z26.00000
 X-0.50000
 Y39.19072
 X287.02504
 X287.15000 Z-0.50000
 Y40.18299
 X287.05628
 X287.04066 Z26.00000
 X-0.50000
 Y41.17526
 X287.02504
 X287.15000 Z-0.50000
 Y42.16753
 X287.05628
 X287.04066 Z26.00000
 X-0.50000
 Y43.15979
 X287.02504
 X287.15000 Z-0.50000
 Y44.15206
 X287.05628
 X287.04066 Z26.00000
 X-0.50000
 Y45.14433
 X287.02504
 X287.15000 Z-0.50000
 Y46.13660
 X287.05628
 X287.04066 Z26.00000
 X-0.50000
 Y47.12887
 X287.02504
 X287.15000 Z-0.50000
 Y48.12113
 X287.05628
 X287.04066 Z26.00000
 X-0.50000
 Y49.11340
 X287.02504
 X287.15000 Z-0.50000
 Y50.10567
 X287.05628
 X287.04066 Z26.00000
 X-0.50000
 Y51.09794
 X287.02504
 X287.15000 Z-0.50000
 Y52.09021
 X287.05628
 X287.04066 Z26.00000
 X-0.50000
 Y53.08247
 X287.02504
 X287.15000 Z-0.50000
 Y54.07474
 X287.05628
 X287.04066 Z26.00000
 X-0.50000
 Y55.06701
 X287.02504
 X287.15000 Z-0.50000
 Y56.05928
 X287.05628
 X287.04066 Z26.00000
 X-0.50000
 Y57.05155
 X287.02504
 X287.15000 Z-0.50000
 Y58.04381
 X287.05628
 X287.04066 Z26.00000
 X-0.50000
 Y59.03608
 X287.02504
 X287.15000 Z-0.50000
 Y60.02835
 X287.05628
 X287.04066 Z26.00000
 X-0.50000
 Y61.02062
 X287.02504
 X287.15000 Z-0.50000
 Y62.01289
 X287.05628
 X287.04066 Z26.00000
 X-0.50000
 Y63.00515
 X287.02504
 X287.15000 Z-0.50000
 Y63.99742
 X287.05628
 X287.04066 Z26.00000
 X-0.50000
 Y64.98969
 X287.02504
 X287.15000 Z-0.50000
 Y65.98196
 X287.05628
 X287.04066 Z26.00000
 X-0.50000
 Y66.97423
 X287.02504
 X287.15000 Z-0.50000
 Y67.96649
 X287.05628
 X287.04066 Z26.00000
 X-0.50000
 Y68.95876
 X287.02504
 X287.15000 Z-0.50000
 Y69.95103
 X287.05628
 X287.04066 Z26.00000
 X-0.50000
 Y70.94330
 X287.02504
 X287.15000 Z-0.50000
 Y71.93557
 X287.05628
 X287.04066 Z26.00000
 X-0.50000
 Y72.92784
 X287.02504
 X287.15000 Z-0.50000
 Y73.92010
 X287.05628
 X287.04066 Z26.00000
 X-0.50000
 Y74.91237
 X287.02504
 X287.15000 Z-0.50000
 Y75.90464
 X287.05628
 X287.04066 Z26.00000
 X-0.50000
 Y76.89691
 X287.02504
 X287.15000 Z-0.50000
 Y77.88918
 X287.05628
 X287.04066 Z26.00000
 X-0.50000
 Y78.88144
 X287.02504
 X287.15000 Z-0.50000
 Y79.87371
 X287.05628
 X287.04066 Z26.00000
 X-0.50000
 Y80.86598
 X287.02504
 X287.15000 Z-0.50000
 Y81.85825
 X287.05628
 X287.04066 Z26.00000
 X-0.50000
 Y82.85052
 X287.02504
 X287.15000 Z-0.50000
 Y83.84278
 X287.05628
 X287.04066 Z26.00000
 X-0.50000
 Y84.83505
 X287.02504
 X287.15000 Z-0.50000
 Y85.82732
 X287.05628
 X287.04066 Z26.00000
 X-0.50000
 Y86.81959
 X287.02504
 X287.15000 Z-0.50000
 Y87.81186
 X287.05628
 X287.04066 Z26.00000
 X-0.50000
 Y88.80412
 X287.02504
 X287.15000 Z-0.50000
 Y89.79639
 X287.05628
 X287.04066 Z26.00000
 X-0.50000
 Y90.78866
 X287.02504
 X287.15000 Z-0.50000
 Y91.78093
 X287.05628
 X287.04066 Z26.00000
 X-0.50000
 Y92.77320
 X287.02504
 X287.15000 Z-0.50000
 Y93.76546
 X287.05628
 X287.04066 Z26.00000
 X-0.50000
 Y94.75773
 X287.02504
 X287.15000 Z-0.50000
 Y95.75000
 X287.05628
 X287.04066 Z26.00000
 X-0.50000
G0 Z35.00000
G0 Z35.00000
M2 (end program)
