G40 (disable tool radius compensation)
G49 (disable tool length compensation)
G80 (cancel modal motion)
G54 (select coordinate system 1)
G90 (disable incremental moves)
G21 (metric)
F1400.00000
S250.00000
G61 (exact path mode)
;PYCAM_TOOLPATH_SETTINGS: START
;[Bounds]
;maxz = 34.0
;maxx = 284.15
;maxy = 92.75
;minx = 2.5
;miny = 2.5
;minz = -0.5
;
;[Tool]
;torus_radius = 0.125
;shape = CylindricalCutter
;tool_radius = 3.0
;feedrate = 1400.0
;
;[Process]
;engrave_offset = 0.0
;step_down = 1.0
;generator = PushCutter
;postprocessor = SimpleCutter
;overlap_percent = 60
;milling_style = ignore
;material_allowance = 0.5
;pocketing_type = none
;path_direction = x
;
;PYCAM_TOOLPATH_SETTINGS: END
G0 Z35.00000
 X31.07500 Y2.50000
G1 Z34.00000
 X235.62500
 Y4.87500
 X31.07500
 Y7.25000
 X235.62500
 Y9.62500
 X31.07500
 Y12.00000
 X235.62500
 Y14.37500
 X31.07500
 Y16.75000
 X235.62500
 X235.68144 Y19.12500
 X31.01856
 X29.37611 Y21.50000
 X237.32389
G0 Z35.00000
 X284.15000 Y23.87500
G1 Z34.00000
 X2.50000
 Y26.25000
 X284.15000
 Y28.62500
 X2.50000
 Y31.00000
 X284.15000
 Y33.37500
 X2.50000
 Y35.75000
 X284.15000
 Y38.12500
 X2.50000
 Y40.50000
 X284.15000
 Y42.87500
 X2.50000
 Y45.25000
 X284.15000
 Y47.62500
 X2.50000
 Y50.00000
 X284.15000
 Y52.37500
 X2.50000
 Y54.75000
 X284.15000
 Y57.12500
 X2.50000
 Y59.50000
 X284.15000
 Y61.87500
 X2.50000
 Y64.25000
 X284.15000
 Y66.62500
 X2.50000
 Y69.00000
 X284.15000
 Y71.37500
 X2.50000
 Y73.75000
 X284.15000
 Y76.12500
 X2.50000
 Y78.50000
 X284.15000
 Y80.87500
 X2.50000
 Y83.25000
 X284.15000
 Y85.62500
 X2.50000
 Y88.00000
 X284.15000
 Y90.37500
 X2.50000
 Y92.75000
 X284.15000
 Z33.01429
 X2.50000
 Y90.37500
 X284.15000
 Y88.00000
 X2.50000
 Y85.62500
 X284.15000
 Y83.25000
 X2.50000
 Y80.87500
 X284.15000
 Y78.50000
 X2.50000
 Y76.12500
 X284.15000
 Y73.75000
 X2.50000
 Y71.37500
 X284.15000
 Y69.00000
 X2.50000
 Y66.62500
 X284.15000
 Y64.25000
 X2.50000
 Y61.87500
 X284.15000
 Y59.50000
 X2.50000
 Y57.12500
 X284.15000
 Y54.75000
 X2.50000
 Y52.37500
 X284.15000
 Y50.00000
 X2.50000
 Y47.62500
 X284.15000
 Y45.25000
 X2.50000
 Y42.87500
 X284.15000
 Y40.50000
 X2.50000
 Y38.12500
 X284.15000
 Y35.75000
 X2.50000
 Y33.37500
 X284.15000
 Y31.00000
 X2.50000
 Y28.62500
 X284.15000
 Y26.25000
 X2.50000
 Y23.87500
 X284.15000
G0 Z35.00000
 X237.32389 Y21.50000
G1 Z33.01429
 X29.37611
 X31.01856 Y19.12500
 X235.68144
 X235.62500 Y16.75000
 X31.07500
 Y14.37500
 X235.62500
 Y12.00000
 X31.07500
 Y9.62500
 X235.62500
 Y7.25000
 X31.07500
 Y4.87500
 X235.62500
 Y2.50000
 X31.07500
 Z32.02857
 X235.62500
 Y4.87500
 X31.07500
 Y7.25000
 X235.62500
 Y9.62500
 X31.07500
 Y12.00000
 X235.62500
 Y14.37500
 X31.07500
 Y16.75000
 X235.62500
 X235.68144 Y19.12500
 X31.01856
 X29.37611 Y21.50000
 X237.32389
G0 Z35.00000
 X284.15000 Y23.87500
G1 Z32.02857
 X2.50000
 Y26.25000
 X284.15000
 Y28.62500
 X2.50000
 Y31.00000
 X284.15000
 Y33.37500
 X2.50000
 Y35.75000
 X284.15000
 Y38.12500
 X2.50000
 Y40.50000
 X284.15000
 Y42.87500
 X2.50000
 Y45.25000
 X284.15000
 Y47.62500
 X2.50000
 Y50.00000
 X284.15000
 Y52.37500
 X2.50000
 Y54.75000
 X284.15000
 Y57.12500
 X2.50000
 Y59.50000
 X284.15000
 Y61.87500
 X2.50000
 Y64.25000
 X284.15000
 Y66.62500
 X2.50000
 Y69.00000
 X284.15000
 Y71.37500
 X2.50000
 Y73.75000
 X284.15000
 Y76.12500
 X2.50000
 Y78.50000
 X284.15000
 Y80.87500
 X2.50000
 Y83.25000
 X284.15000
 Y85.62500
 X2.50000
 Y88.00000
 X284.15000
 Y90.37500
 X2.50000
 Y92.75000
 X284.15000
 Z31.04286
 X2.50000
 Y90.37500
 X284.15000
 Y88.00000
 X2.50000
 Y85.62500
 X284.15000
 Y83.25000
 X2.50000
 Y80.87500
 X284.15000
 Y78.50000
 X2.50000
 Y76.12500
 X284.15000
 Y73.75000
 X2.50000
 Y71.37500
 X284.15000
 Y69.00000
 X2.50000
 Y66.62500
 X284.15000
 Y64.25000
 X2.50000
 Y61.87500
 X284.15000
 Y59.50000
 X2.50000
 Y57.12500
 X284.15000
 Y54.75000
 X2.50000
 Y52.37500
 X284.15000
 Y50.00000
 X2.50000
 Y47.62500
 X284.15000
 Y45.25000
 X2.50000
 Y42.87500
 X284.15000
 Y40.50000
 X2.50000
 Y38.12500
 X284.15000
 Y35.75000
 X2.50000
 Y33.37500
 X284.15000
 Y31.00000
 X2.50000
 Y28.62500
 X284.15000
 Y26.25000
 X2.50000
 Y23.87500
 X284.15000
G0 Z35.00000
 X237.32389 Y21.50000
G1 Z31.04286
 X29.37611
 X31.01856 Y19.12500
 X235.68144
 X235.62500 Y16.75000
 X31.07500
 Y14.37500
 X235.62500
 Y12.00000
 X31.07500
 Y9.62500
 X235.62500
 Y7.25000
 X31.07500
 Y4.87500
 X235.62500
 Y2.50000
 X31.07500
 Z30.05714
 X235.62500
 Y4.87500
 X31.07500
 Y7.25000
 X235.62500
 Y9.62500
 X31.07500
 Y12.00000
 X235.62500
 Y14.37500
 X31.07500
 Y16.75000
 X235.62500
 X235.68144 Y19.12500
 X31.01856
 X29.37611 Y21.50000
 X237.32389
G0 Z35.00000
 X284.15000 Y23.87500
G1 Z30.05714
 X2.50000
 Y26.25000
 X284.15000
 Y28.62500
 X2.50000
 Y31.00000
 X284.15000
 Y33.37500
 X2.50000
 Y35.75000
 X284.15000
 Y38.12500
 X2.50000
 Y40.50000
 X284.15000
 Y42.87500
 X2.50000
 Y45.25000
 X284.15000
 Y47.62500
 X2.50000
 Y50.00000
 X284.15000
 Y52.37500
 X2.50000
 Y54.75000
 X284.15000
 Y57.12500
 X2.50000
 Y59.50000
 X284.15000
 Y61.87500
 X2.50000
 Y64.25000
 X284.15000
 Y66.62500
 X2.50000
 Y69.00000
 X284.15000
 Y71.37500
 X2.50000
 Y73.75000
 X284.15000
 Y76.12500
 X2.50000
 Y78.50000
 X284.15000
 Y80.87500
 X2.50000
 Y83.25000
 X284.15000
 Y85.62500
 X2.50000
 Y88.00000
 X284.15000
 Y90.37500
 X2.50000
 Y92.75000
 X284.15000
 Z29.07143
 X2.50000
 Y90.37500
 X284.15000
 Y88.00000
 X2.50000
 Y85.62500
 X284.15000
 Y83.25000
 X2.50000
 Y80.87500
 X284.15000
 Y78.50000
 X2.50000
 Y76.12500
 X284.15000
 Y73.75000
 X2.50000
 Y71.37500
 X284.15000
 Y69.00000
 X2.50000
 Y66.62500
 X284.15000
 Y64.25000
 X2.50000
 Y61.87500
 X284.15000
 Y59.50000
 X2.50000
 Y57.12500
 X284.15000
 Y54.75000
 X2.50000
 Y52.37500
 X284.15000
 Y50.00000
 X2.50000
 Y47.62500
 X284.15000
 Y45.25000
 X2.50000
 Y42.87500
 X284.15000
 Y40.50000
 X2.50000
 Y38.12500
 X284.15000
 Y35.75000
 X2.50000
 Y33.37500
 X284.15000
 Y31.00000
 X2.50000
 Y28.62500
 X284.15000
 Y26.25000
 X2.50000
 Y23.87500
 X284.15000
G0 Z35.00000
 X237.32389 Y21.50000
G1 Z29.07143
 X29.37611
 X31.01856 Y19.12500
 X235.68144
 X235.62500 Y16.75000
 X31.07500
 Y14.37500
 X235.62500
 Y12.00000
 X31.07500
 Y9.62500
 X235.62500
 Y7.25000
 X31.07500
 Y4.87500
 X235.62500
 Y2.50000
 X31.07500
 Z28.08571
 X235.62500
 Y4.87500
 X31.07500
 Y7.25000
 X235.62500
 Y9.62500
 X31.07500
 Y12.00000
 X235.62500
 Y14.37500
 X31.07500
 Y16.75000
 X235.62500
 X235.68144 Y19.12500
 X31.01856
 X29.37611 Y21.50000
 X237.32389
G0 Z35.00000
 X284.15000 Y23.87500
G1 Z28.08571
 X2.50000
 Y26.25000
 X284.15000
 Y28.62500
 X2.50000
 Y31.00000
 X284.15000
 Y33.37500
 X2.50000
 Y35.75000
 X284.15000
 Y38.12500
 X2.50000
 Y40.50000
 X284.15000
 Y42.87500
 X2.50000
 Y45.25000
 X284.15000
 Y47.62500
 X2.50000
 Y50.00000
 X284.15000
 Y52.37500
 X2.50000
 Y54.75000
 X284.15000
 Y57.12500
 X2.50000
 Y59.50000
 X284.15000
 Y61.87500
 X2.50000
 Y64.25000
 X284.15000
 Y66.62500
 X2.50000
 Y69.00000
 X284.15000
 Y71.37500
 X2.50000
 Y73.75000
 X284.15000
 Y76.12500
 X2.50000
 Y78.50000
 X284.15000
 Y80.87500
 X2.50000
 Y83.25000
 X284.15000
 Y85.62500
 X2.50000
 Y88.00000
 X284.15000
 Y90.37500
 X2.50000
 Y92.75000
 X284.15000
 Z27.10000
 X2.50000
 Y90.37500
 X284.15000
 Y88.00000
 X2.50000
 Y85.62500
 X284.15000
 Y83.25000
 X2.50000
 Y80.87500
 X284.15000
 Y78.50000
 X2.50000
 Y76.12500
 X284.15000
 Y73.75000
 X2.50000
 Y71.37500
 X284.15000
 Y69.00000
 X2.50000
 Y66.62500
 X284.15000
 Y64.25000
 X2.50000
 Y61.87500
 X284.15000
 Y59.50000
 X2.50000
 Y57.12500
 X284.15000
 Y54.75000
 X2.50000
 Y52.37500
 X284.15000
 Y50.00000
 X2.50000
 Y47.62500
 X284.15000
 Y45.25000
 X2.50000
 Y42.87500
 X284.15000
 Y40.50000
 X2.50000
 Y38.12500
 X284.15000
 Y35.75000
 X2.50000
 Y33.37500
 X284.15000
 Y31.00000
 X2.50000
 Y28.62500
 X284.15000
 Y26.25000
 X2.50000
 Y23.87500
 X284.15000
G0 Z35.00000
 X237.32389 Y21.50000
G1 Z27.10000
 X29.37611
 X31.01856 Y19.12500
 X235.68144
 X235.62500 Y16.75000
 X31.07500
 Y14.37500
 X235.62500
 Y12.00000
 X31.07500
 Y9.62500
 X235.62500
 Y7.25000
 X31.07500
 Y4.87500
 X235.62500
 Y2.50000
 X31.07500
 Z26.11429
 X235.62500
 Y4.87500
 X31.07500
 Y7.25000
 X235.62500
 Y9.62500
 X31.07500
 Y12.00000
 X235.62500
 Y14.37500
 X31.07500
 Y16.75000
 X235.62500
 X235.68144 Y19.12500
 X31.01856
 X29.37611 Y21.50000
 X237.32389
G0 Z35.00000
 X284.15000 Y23.87500
G1 Z26.11429
 X2.50000
 Y26.25000
 X284.15000
 Y28.62500
 X2.50000
 Y31.00000
 X284.15000
 Y33.37500
 X2.50000
 Y35.75000
 X284.15000
 Y38.12500
 X2.50000
 Y40.50000
 X284.15000
 Y42.87500
 X2.50000
 Y45.25000
 X284.15000
 Y47.62500
 X2.50000
 Y50.00000
 X284.15000
 Y52.37500
 X2.50000
 Y54.75000
 X284.15000
 Y57.12500
 X2.50000
 Y59.50000
 X284.15000
 Y61.87500
 X2.50000
 Y64.25000
 X284.15000
 Y66.62500
 X2.50000
 Y69.00000
 X284.15000
 Y71.37500
 X2.50000
 Y73.75000
 X284.15000
 Y76.12500
 X2.50000
 Y78.50000
 X284.15000
 Y80.87500
 X2.50000
 Y83.25000
 X284.15000
 Y85.62500
 X2.50000
 Y88.00000
 X284.15000
 Y90.37500
 X2.50000
 Y92.75000
 X284.15000
G0 Z35.00000
G0 Z35.00000
M2 (end program)
